;FLAVOR:RepRap
;TIME:429
;Filament used: 0.762402m
;Layer height: 0.3
;MINX:127.4
;MINY:137.4
;MINZ:0.2
;MAXX:152.6
;MAXY:162.6
;MAXZ:20
;Exported with Cura-DuetRRF v1.2.8 plugin by Thomas Kriechbaumer
;Generated with Cura_SteamEngine 5.2.1
T0
M104 S215
M109 S215
M82 ;absolute extrusion mode

M83 ;relative extrusion mode
G1 F2100 E-0.4
;LAYER_COUNT:67
;LAYER:0
M107
G0 F6000 X128.374 Y137.987 Z0.2
;TYPE:SKIRT
G1 F2100 E0.4
G1 F1800 X128.752 Y137.733 E0.01515
G1 X129.169 Y137.548 E0.01517
G1 X129.611 Y137.44 E0.01513
G1 X130.044 Y137.4 E0.01446
G1 X149.33 Y137.4 E0.64145
G1 X150.028 Y137.41 E0.02322
G1 X150.482 Y137.457 E0.01518
G1 X150.92 Y137.582 E0.01515
G1 X151.329 Y137.781 E0.01513
G1 X151.698 Y138.049 E0.01517
G1 X152.014 Y138.377 E0.01515
G1 X152.268 Y138.755 E0.01515
G1 X152.452 Y139.172 E0.01516
G1 X152.561 Y139.614 E0.01514
G1 X152.6 Y140.048 E0.01449
G1 X152.6 Y159.296 E0.64019
G1 X152.591 Y160.023 E0.02418
G1 X152.545 Y160.477 E0.01518
G1 X152.421 Y160.915 E0.01514
G1 X152.223 Y161.325 E0.01514
G1 X151.956 Y161.694 E0.01515
G1 X151.628 Y162.011 E0.01517
G1 X151.25 Y162.266 E0.01517
G1 X150.834 Y162.451 E0.01514
G1 X150.392 Y162.56 E0.01514
G1 X149.955 Y162.6 E0.0146
G1 X130.673 Y162.6 E0.64132
G1 X129.975 Y162.591 E0.02322
G1 X129.522 Y162.545 E0.01514
G1 X129.084 Y162.421 E0.01514
G1 X128.674 Y162.222 E0.01516
G1 X128.305 Y161.955 E0.01515
G1 X127.988 Y161.627 E0.01517
G1 X127.734 Y161.249 E0.01515
G1 X127.549 Y160.833 E0.01514
G1 X127.44 Y160.39 E0.01517
G1 X127.4 Y159.951 E0.01466
G1 X127.4 Y140.639 E0.64232
G1 X127.409 Y139.974 E0.02212
G1 X127.455 Y139.521 E0.01514
G1 X127.58 Y139.082 E0.01518
G1 X127.779 Y138.672 E0.01516
G1 X128.046 Y138.304 E0.01512
G1 X128.087 Y138.265 E0.00188
G0 F1620 X128.374 Y137.987
G0 F6000 X128.761 Y138.198
G1 F1800 X129.127 Y137.994 E0.01394
G1 X129.525 Y137.863 E0.01394
G1 X130.027 Y137.8 E0.01683
G1 X149.325 Y137.8 E0.64185
G1 X150.023 Y137.81 E0.02322
G1 X150.439 Y137.856 E0.01392
G1 X150.839 Y137.98 E0.01393
G1 X151.209 Y138.178 E0.01396
G1 X151.534 Y138.442 E0.01393
G1 X151.803 Y138.763 E0.01393
G1 X152.007 Y139.129 E0.01394
G1 X152.137 Y139.527 E0.01393
G1 X152.2 Y140.027 E0.01676
G1 X152.2 Y159.291 E0.64072
G1 X152.191 Y160.018 E0.02418
G1 X152.146 Y160.435 E0.01395
G1 X152.023 Y160.835 E0.01392
G1 X151.826 Y161.205 E0.01394
G1 X151.562 Y161.531 E0.01395
G1 X151.242 Y161.801 E0.01393
G1 X150.876 Y162.005 E0.01394
G1 X150.478 Y162.136 E0.01394
G1 X149.974 Y162.2 E0.0169
G1 X130.679 Y162.2 E0.64175
G1 X129.981 Y162.191 E0.02322
G1 X129.564 Y162.146 E0.01395
G1 X129.164 Y162.022 E0.01393
G1 X128.794 Y161.825 E0.01394
G1 X128.468 Y161.561 E0.01395
G1 X128.198 Y161.241 E0.01393
G1 X127.994 Y160.875 E0.01394
G1 X127.863 Y160.477 E0.01394
G1 X127.8 Y159.969 E0.01703
G1 X127.8 Y140.644 E0.64275
G1 X127.809 Y139.979 E0.02212
G1 X127.855 Y139.563 E0.01392
G1 X127.978 Y139.162 E0.01395
G1 X128.176 Y138.793 E0.01393
G1 X128.44 Y138.467 E0.01395
G1 X128.454 Y138.455 E0.00061
G0 F1620 X128.761 Y138.198
G1 F2100 E-0.4
;MESH:Cube
G0 F6000 X130.504 Y140.504
G0 X130.24 Y140.24
;TYPE:WALL-OUTER
G1 F2100 E0.4
G1 F1800 X130.24 Y159.76 E0.77909
G1 X149.76 Y159.76 E0.77909
G1 X149.76 Y150 E0.38954
G1 X149.76 Y140.24 E0.38954
G1 X130.573 Y140.24 E0.76579
G0 F1620 X130.24 Y140.24
G0 F6000 X130.24 Y140.49
G0 X130.72 Y140.72
;TYPE:WALL-INNER
G1 F1800 X130.72 Y159.28 E0.74077
G1 X149.28 Y159.28 E0.74077
G1 X149.28 Y150 E0.37038
G1 X149.28 Y140.72 E0.37038
G1 X131.053 Y140.72 E0.72748
G0 F1620 X130.72 Y140.72
G0 F6000 X131.233 Y141.233
;TYPE:SKIN
G1 F1800 X131.233 Y158.767 E0.87477
G1 X148.767 Y158.767 E0.87477
G1 X148.767 Y150 E0.43739
G1 X148.767 Y141.233 E0.43739
G1 X131.499 Y141.233 E0.8615
G0 F1620 X131.233 Y141.233
G0 F6000 X131.833 Y141.833
G1 F1800 X131.833 Y158.167 E0.81491
G1 X148.167 Y158.167 E0.81491
G1 X148.167 Y150 E0.40745
G1 X148.167 Y141.833 E0.40745
G1 X132.099 Y141.833 E0.80164
G0 F1620 X131.833 Y141.833
G0 F6000 X132.433 Y142.433
G1 F1800 X132.433 Y157.567 E0.75504
G1 X147.567 Y157.567 E0.75504
G1 X147.567 Y150 E0.37752
G1 X147.567 Y142.433 E0.37752
G1 X132.699 Y142.433 E0.74177
G0 F1620 X132.433 Y142.433
G0 F6000 X133.033 Y143.033
G1 F1800 X133.033 Y156.967 E0.69517
G1 X146.967 Y156.967 E0.69517
G1 X146.967 Y150 E0.34759
G1 X146.967 Y143.033 E0.34759
G1 X133.299 Y143.033 E0.6819
G0 F1620 X133.033 Y143.033
G0 F6000 X133.633 Y143.633
G1 F1800 X133.633 Y156.367 E0.6353
G1 X146.367 Y156.367 E0.6353
G1 X146.367 Y150 E0.31765
G1 X146.367 Y143.633 E0.31765
G1 X133.899 Y143.633 E0.62203
G0 F1620 X133.633 Y143.633
G0 F6000 X134.233 Y144.233
G1 F1800 X134.233 Y155.767 E0.57543
G1 X145.767 Y155.767 E0.57543
G1 X145.767 Y150 E0.28772
G1 X145.767 Y144.233 E0.28772
G1 X134.499 Y144.233 E0.56216
G0 F1620 X134.233 Y144.233
G0 F6000 X134.833 Y144.833
G1 F1800 X134.833 Y155.167 E0.51557
G1 X145.167 Y155.167 E0.51557
G1 X145.167 Y150 E0.25778
G1 X145.167 Y144.833 E0.25778
G1 X135.099 Y144.833 E0.50229
G0 F1620 X134.833 Y144.833
G0 F6000 X135.433 Y145.433
G1 F1800 X135.433 Y154.567 E0.4557
G1 X144.567 Y154.567 E0.4557
G1 X144.567 Y150 E0.22785
G1 X144.567 Y145.433 E0.22785
G1 X135.699 Y145.433 E0.44243
G0 F1620 X135.433 Y145.433
G0 F6000 X136.033 Y146.033
G1 F1800 X136.033 Y150 E0.19791
G1 X136.033 Y153.967 E0.19791
G1 X143.967 Y153.967 E0.39583
G1 X143.967 Y146.033 E0.39583
G1 X136.299 Y146.033 E0.38256
G0 F1620 X136.033 Y146.033
G0 F6000 X136.633 Y146.633
G1 F1800 X136.633 Y153.367 E0.33596
G1 X143.367 Y153.367 E0.33596
G1 X143.367 Y146.633 E0.33596
G1 X136.899 Y146.633 E0.32269
G0 F1620 X136.633 Y146.633
G0 F6000 X137.233 Y147.233
G1 F1800 X137.233 Y152.767 E0.27609
G1 X142.767 Y152.767 E0.27609
G1 X142.767 Y150 E0.13805
G1 X142.767 Y147.233 E0.13805
G1 X137.499 Y147.233 E0.26282
G0 F1620 X137.233 Y147.233
G0 F6000 X137.833 Y147.833
G1 F1800 X137.833 Y152.167 E0.21622
G1 X142.167 Y152.167 E0.21622
G1 X142.167 Y150 E0.10811
G1 X142.167 Y147.833 E0.10811
G1 X138.099 Y147.833 E0.20295
G0 F1620 X137.833 Y147.833
G0 F6000 X138.433 Y148.433
G1 F1800 X138.433 Y151.567 E0.15636
G1 X141.567 Y151.567 E0.15636
G1 X141.567 Y150 E0.07818
G1 X141.567 Y148.433 E0.07818
G1 X138.699 Y148.433 E0.14309
G0 F1620 X138.433 Y148.433
G0 F6000 X139.033 Y149.033
G1 F1800 X139.033 Y150.967 E0.09649
G1 X140.967 Y150.967 E0.09649
G1 X140.967 Y150 E0.04824
G1 X140.967 Y149.033 E0.04824
G1 X139.255 Y149.033 E0.08541
G0 F1620 X139.033 Y149.033
G0 F6000 X139.666 Y149.666
G1 F1619.2 X139.666 Y150.334 E0.03705
G1 X140.334 Y150.334 E0.03705
G1 X140.334 Y150 E0.01852
G1 X140.334 Y149.666 E0.01852
G1 X139.742 Y149.666 E0.03283
G0 F1620 X139.666 Y149.666
G1 F2100 E-0.4
;MESH:NONMESH
G0 F600 X139.666 Y149.666 Z0.5
G0 F6000 X130.56 Y140.56
G1 F2100 E0.4
G0 F6000 X130.24 Y140.24
;TIME_ELAPSED:34.442200
;LAYER:1
G1 F2100 E-0.4
M106 S255
;TYPE:WALL-OUTER
;MESH:Cube
G1 F2100 E0.4
G1 F1403.6 X130.24 Y159.76 E1.16863
G1 X149.76 Y159.76 E1.16863
G1 X149.76 Y150 E0.58431
G1 X149.76 Y140.24 E0.58431
G1 X130.46 Y140.24 E1.15546
G0 F1263.2 X130.24 Y140.24
G0 F12000 X130.24 Y140.49
G0 X130.72 Y140.72
;TYPE:WALL-INNER
G1 F2807.1 X130.72 Y159.28 E1.11115
G1 X149.28 Y159.28 E1.11115
G1 X149.28 Y150 E0.55558
G1 X149.28 Y140.72 E0.55558
G1 X130.94 Y140.72 E1.09798
G0 F2526.4 X130.72 Y140.72
G0 F12000 X131.47 Y141.329
G1 F2100 E-0.4
;MESH:NONMESH
G0 F600 X131.47 Y141.329 Z0.8
G1 F2100 E0.4
G0 F12000 X130.24 Y140.24
;TIME_ELAPSED:39.653277
;LAYER:2
G1 F2100 E-0.4
;TYPE:WALL-OUTER
;MESH:Cube
G1 F2100 E0.4
G1 F1387.1 X130.24 Y159.76 E1.16863
G1 X149.76 Y159.76 E1.16863
G1 X149.76 Y150 E0.58431
G1 X149.76 Y140.24 E0.58431
G1 X130.46 Y140.24 E1.15546
G0 F1248.4 X130.24 Y140.24
G0 F12000 X130.24 Y140.49
G0 X130.72 Y140.72
;TYPE:WALL-INNER
G1 F2774.2 X130.72 Y159.28 E1.11115
G1 X149.28 Y159.28 E1.11115
G1 X149.28 Y150 E0.55558
G1 X149.28 Y140.72 E0.55558
G1 X130.94 Y140.72 E1.09798
G0 F2496.8 X130.72 Y140.72
G0 F12000 X131.47 Y141.329
G1 F2100 E-0.4
;MESH:NONMESH
G0 F600 X131.47 Y141.329 Z1.1
G1 F2100 E0.4
G0 F12000 X130.24 Y140.24
;TIME_ELAPSED:44.922187
;LAYER:3
G1 F2100 E-0.4
;TYPE:WALL-OUTER
;MESH:Cube
G1 F2100 E0.4
G1 F1387.1 X130.24 Y159.76 E1.16863
G1 X149.76 Y159.76 E1.16863
G1 X149.76 Y150 E0.58431
G1 X149.76 Y140.24 E0.58431
G1 X130.46 Y140.24 E1.15546
G0 F1248.4 X130.24 Y140.24
G0 F12000 X130.24 Y140.49
G0 X130.72 Y140.72
;TYPE:WALL-INNER
G1 F2774.2 X130.72 Y159.28 E1.11115
G1 X149.28 Y159.28 E1.11115
G1 X149.28 Y150 E0.55558
G1 X149.28 Y140.72 E0.55558
G1 X130.94 Y140.72 E1.09798
G0 F2496.8 X130.72 Y140.72
G0 F12000 X131.47 Y141.329
G1 F2100 E-0.4
;MESH:NONMESH
G0 F600 X131.47 Y141.329 Z1.4
G1 F2100 E0.4
G0 F12000 X130.24 Y140.24
;TIME_ELAPSED:50.191098
;LAYER:4
G1 F2100 E-0.4
;TYPE:WALL-OUTER
;MESH:Cube
G1 F2100 E0.4
G1 F1387.1 X130.24 Y159.76 E1.16863
G1 X149.76 Y159.76 E1.16863
G1 X149.76 Y150 E0.58431
G1 X149.76 Y140.24 E0.58431
G1 X130.46 Y140.24 E1.15546
G0 F1248.4 X130.24 Y140.24
G0 F12000 X130.24 Y140.49
G0 X130.72 Y140.72
;TYPE:WALL-INNER
G1 F2774.2 X130.72 Y159.28 E1.11115
G1 X149.28 Y159.28 E1.11115
G1 X149.28 Y150 E0.55558
G1 X149.28 Y140.72 E0.55558
G1 X130.94 Y140.72 E1.09798
G0 F2496.8 X130.72 Y140.72
G0 F12000 X131.47 Y141.329
G1 F2100 E-0.4
;MESH:NONMESH
G0 F600 X131.47 Y141.329 Z1.7
G1 F2100 E0.4
G0 F12000 X130.24 Y140.24
;TIME_ELAPSED:55.460008
;LAYER:5
G1 F2100 E-0.4
;TYPE:WALL-OUTER
;MESH:Cube
G1 F2100 E0.4
G1 F1387.1 X130.24 Y159.76 E1.16863
G1 X149.76 Y159.76 E1.16863
G1 X149.76 Y150 E0.58431
G1 X149.76 Y140.24 E0.58431
G1 X130.46 Y140.24 E1.15546
G0 F1248.4 X130.24 Y140.24
G0 F12000 X130.24 Y140.49
G0 X130.72 Y140.72
;TYPE:WALL-INNER
G1 F2774.2 X130.72 Y159.28 E1.11115
G1 X149.28 Y159.28 E1.11115
G1 X149.28 Y150 E0.55558
G1 X149.28 Y140.72 E0.55558
G1 X130.94 Y140.72 E1.09798
G0 F2496.8 X130.72 Y140.72
G0 F12000 X131.47 Y141.329
G1 F2100 E-0.4
;MESH:NONMESH
G0 F600 X131.47 Y141.329 Z2
G1 F2100 E0.4
G0 F12000 X130.24 Y140.24
;TIME_ELAPSED:60.728918
;LAYER:6
G1 F2100 E-0.4
;TYPE:WALL-OUTER
;MESH:Cube
G1 F2100 E0.4
G1 F1387.1 X130.24 Y150 E0.58431
G1 X130.24 Y159.76 E0.58431
G1 X149.76 Y159.76 E1.16863
G1 X149.76 Y140.24 E1.16863
G1 X130.46 Y140.24 E1.15546
G0 F1248.4 X130.24 Y140.24
G0 F12000 X130.24 Y140.49
G0 X130.72 Y140.72
;TYPE:WALL-INNER
G1 F2774.2 X130.72 Y150 E0.55558
G1 X130.72 Y159.28 E0.55558
G1 X149.28 Y159.28 E1.11115
G1 X149.28 Y140.72 E1.11115
G1 X130.94 Y140.72 E1.09798
G0 F2496.8 X130.72 Y140.72
G0 F12000 X131.47 Y141.329
G1 F2100 E-0.4
;MESH:NONMESH
G0 F600 X131.47 Y141.329 Z2.3
G1 F2100 E0.4
G0 F12000 X130.24 Y140.24
;TIME_ELAPSED:65.997828
;LAYER:7
G1 F2100 E-0.4
;TYPE:WALL-OUTER
;MESH:Cube
G1 F2100 E0.4
G1 F1387.1 X130.24 Y159.76 E1.16863
G1 X149.76 Y159.76 E1.16863
G1 X149.76 Y150 E0.58431
G1 X149.76 Y140.24 E0.58431
G1 X130.46 Y140.24 E1.15546
G0 F1248.4 X130.24 Y140.24
G0 F12000 X130.24 Y140.49
G0 X130.72 Y140.72
;TYPE:WALL-INNER
G1 F2774.2 X130.72 Y159.28 E1.11115
G1 X149.28 Y159.28 E1.11115
G1 X149.28 Y150 E0.55558
G1 X149.28 Y140.72 E0.55558
G1 X130.94 Y140.72 E1.09798
G0 F2496.8 X130.72 Y140.72
G0 F12000 X131.47 Y141.329
G1 F2100 E-0.4
;MESH:NONMESH
G0 F600 X131.47 Y141.329 Z2.6
G1 F2100 E0.4
G0 F12000 X130.24 Y140.24
;TIME_ELAPSED:71.266739
;LAYER:8
G1 F2100 E-0.4
;TYPE:WALL-OUTER
;MESH:Cube
G1 F2100 E0.4
G1 F1387.1 X130.24 Y159.76 E1.16863
G1 X149.76 Y159.76 E1.16863
G1 X149.76 Y150 E0.58431
G1 X149.76 Y140.24 E0.58431
G1 X130.46 Y140.24 E1.15546
G0 F1248.4 X130.24 Y140.24
G0 F12000 X130.24 Y140.49
G0 X130.72 Y140.72
;TYPE:WALL-INNER
G1 F2774.2 X130.72 Y159.28 E1.11115
G1 X149.28 Y159.28 E1.11115
G1 X149.28 Y150 E0.55558
G1 X149.28 Y140.72 E0.55558
G1 X130.94 Y140.72 E1.09798
G0 F2496.8 X130.72 Y140.72
G0 F12000 X131.47 Y141.329
G1 F2100 E-0.4
;MESH:NONMESH
G0 F600 X131.47 Y141.329 Z2.9
G1 F2100 E0.4
G0 F12000 X130.24 Y140.24
;TIME_ELAPSED:76.535649
;LAYER:9
G1 F2100 E-0.4
;TYPE:WALL-OUTER
;MESH:Cube
G1 F2100 E0.4
G1 F1387.1 X130.24 Y159.76 E1.16863
G1 X149.76 Y159.76 E1.16863
G1 X149.76 Y140.24 E1.16863
G1 X130.46 Y140.24 E1.15546
G0 F1248.4 X130.24 Y140.24
G0 F12000 X130.24 Y140.49
G0 X130.72 Y140.72
;TYPE:WALL-INNER
G1 F2774.2 X130.72 Y159.28 E1.11115
G1 X149.28 Y159.28 E1.11115
G1 X149.28 Y140.72 E1.11115
G1 X130.94 Y140.72 E1.09798
G0 F2496.8 X130.72 Y140.72
G0 F12000 X131.47 Y141.329
G1 F2100 E-0.4
;MESH:NONMESH
G0 F600 X131.47 Y141.329 Z3.2
G1 F2100 E0.4
G0 F12000 X130.24 Y140.24
;TIME_ELAPSED:81.804559
;LAYER:10
G1 F2100 E-0.4
;TYPE:WALL-OUTER
;MESH:Cube
G1 F2100 E0.4
G1 F1387.1 X130.24 Y159.76 E1.16863
G1 X149.76 Y159.76 E1.16863
G1 X149.76 Y150 E0.58431
G1 X149.76 Y140.24 E0.58431
G1 X130.46 Y140.24 E1.15546
G0 F1248.4 X130.24 Y140.24
G0 F12000 X130.24 Y140.49
G0 X130.72 Y140.72
;TYPE:WALL-INNER
G1 F2774.2 X130.72 Y159.28 E1.11115
G1 X149.28 Y159.28 E1.11115
G1 X149.28 Y150 E0.55558
G1 X149.28 Y140.72 E0.55558
G1 X130.94 Y140.72 E1.09798
G0 F2496.8 X130.72 Y140.72
G0 F12000 X131.47 Y141.329
G1 F2100 E-0.4
;MESH:NONMESH
G0 F600 X131.47 Y141.329 Z3.5
G1 F2100 E0.4
G0 F12000 X130.24 Y140.24
;TIME_ELAPSED:87.073469
;LAYER:11
G1 F2100 E-0.4
;TYPE:WALL-OUTER
;MESH:Cube
G1 F2100 E0.4
G1 F1387.1 X130.24 Y159.76 E1.16863
G1 X149.76 Y159.76 E1.16863
G1 X149.76 Y150 E0.58431
G1 X149.76 Y140.24 E0.58431
G1 X130.46 Y140.24 E1.15546
G0 F1248.4 X130.24 Y140.24
G0 F12000 X130.24 Y140.49
G0 X130.72 Y140.72
;TYPE:WALL-INNER
G1 F2774.2 X130.72 Y159.28 E1.11115
G1 X149.28 Y159.28 E1.11115
G1 X149.28 Y150 E0.55558
G1 X149.28 Y140.72 E0.55558
G1 X130.94 Y140.72 E1.09798
G0 F2496.8 X130.72 Y140.72
G0 F12000 X131.47 Y141.329
G1 F2100 E-0.4
;MESH:NONMESH
G0 F600 X131.47 Y141.329 Z3.8
G1 F2100 E0.4
G0 F12000 X130.24 Y140.24
;TIME_ELAPSED:92.342380
;LAYER:12
G1 F2100 E-0.4
;TYPE:WALL-OUTER
;MESH:Cube
G1 F2100 E0.4
G1 F1387.1 X130.24 Y159.76 E1.16863
G1 X149.76 Y159.76 E1.16863
G1 X149.76 Y150 E0.58431
G1 X149.76 Y140.24 E0.58431
G1 X130.46 Y140.24 E1.15546
G0 F1248.4 X130.24 Y140.24
G0 F12000 X130.24 Y140.49
G0 X130.72 Y140.72
;TYPE:WALL-INNER
G1 F2774.2 X130.72 Y159.28 E1.11115
G1 X149.28 Y159.28 E1.11115
G1 X149.28 Y150 E0.55558
G1 X149.28 Y140.72 E0.55558
G1 X130.94 Y140.72 E1.09798
G0 F2496.8 X130.72 Y140.72
G0 F12000 X131.47 Y141.329
G1 F2100 E-0.4
;MESH:NONMESH
G0 F600 X131.47 Y141.329 Z4.1
G1 F2100 E0.4
G0 F12000 X130.24 Y140.24
;TIME_ELAPSED:97.611290
;LAYER:13
G1 F2100 E-0.4
;TYPE:WALL-OUTER
;MESH:Cube
G1 F2100 E0.4
G1 F1387.1 X130.24 Y159.76 E1.16863
G1 X149.76 Y159.76 E1.16863
G1 X149.76 Y140.24 E1.16863
G1 X130.46 Y140.24 E1.15546
G0 F1248.4 X130.24 Y140.24
G0 F12000 X130.24 Y140.49
G0 X130.72 Y140.72
;TYPE:WALL-INNER
G1 F2774.2 X130.72 Y159.28 E1.11115
G1 X149.28 Y159.28 E1.11115
G1 X149.28 Y140.72 E1.11115
G1 X130.94 Y140.72 E1.09798
G0 F2496.8 X130.72 Y140.72
G0 F12000 X131.47 Y141.329
G1 F2100 E-0.4
;MESH:NONMESH
G0 F600 X131.47 Y141.329 Z4.4
G1 F2100 E0.4
G0 F12000 X130.24 Y140.24
;TIME_ELAPSED:102.880200
;LAYER:14
G1 F2100 E-0.4
;TYPE:WALL-OUTER
;MESH:Cube
G1 F2100 E0.4
G1 F1387.1 X130.24 Y159.76 E1.16863
G1 X149.76 Y159.76 E1.16863
G1 X149.76 Y150 E0.58431
G1 X149.76 Y140.24 E0.58431
G1 X130.46 Y140.24 E1.15546
G0 F1248.4 X130.24 Y140.24
G0 F12000 X130.24 Y140.49
G0 X130.72 Y140.72
;TYPE:WALL-INNER
G1 F2774.2 X130.72 Y159.28 E1.11115
G1 X149.28 Y159.28 E1.11115
G1 X149.28 Y150 E0.55558
G1 X149.28 Y140.72 E0.55558
G1 X130.94 Y140.72 E1.09798
G0 F2496.8 X130.72 Y140.72
G0 F12000 X131.47 Y141.329
G1 F2100 E-0.4
;MESH:NONMESH
G0 F600 X131.47 Y141.329 Z4.7
G1 F2100 E0.4
G0 F12000 X130.24 Y140.24
;TIME_ELAPSED:108.149110
;LAYER:15
G1 F2100 E-0.4
;TYPE:WALL-OUTER
;MESH:Cube
G1 F2100 E0.4
G1 F1387.1 X130.24 Y159.76 E1.16863
G1 X149.76 Y159.76 E1.16863
G1 X149.76 Y150 E0.58431
G1 X149.76 Y140.24 E0.58431
G1 X130.46 Y140.24 E1.15546
G0 F1248.4 X130.24 Y140.24
G0 F12000 X130.24 Y140.49
G0 X130.72 Y140.72
;TYPE:WALL-INNER
G1 F2774.2 X130.72 Y159.28 E1.11115
G1 X149.28 Y159.28 E1.11115
G1 X149.28 Y150 E0.55558
G1 X149.28 Y140.72 E0.55558
G1 X130.94 Y140.72 E1.09798
G0 F2496.8 X130.72 Y140.72
G0 F12000 X131.47 Y141.329
G1 F2100 E-0.4
;MESH:NONMESH
G0 F600 X131.47 Y141.329 Z5
G1 F2100 E0.4
G0 F12000 X130.24 Y140.24
;TIME_ELAPSED:113.418021
;LAYER:16
G1 F2100 E-0.4
