; generated by SuperSlicer 2.4 on 2022-12-03 at 15:07:53 UTC

; 

; external perimeters extrusion width = 0.45mm
; perimeters extrusion width = 0.45mm
; infill extrusion width = 0.45mm
; solid infill extrusion width = 0.45mm
; top infill extrusion width = 0.45mm
; first layer extrusion width = 0.42mm

; external perimeters extrusion width = 0.45mm
; perimeters extrusion width = 0.45mm
; infill extrusion width = 0.45mm
; solid infill extrusion width = 0.45mm
; top infill extrusion width = 0.45mm
; first layer extrusion width = 0.42mm

; external perimeters extrusion width = 0.45mm
; perimeters extrusion width = 0.45mm
; infill extrusion width = 0.45mm
; solid infill extrusion width = 0.45mm
; top infill extrusion width = 0.45mm
; first layer extrusion width = 0.42mm

; external perimeters extrusion width = 0.45mm
; perimeters extrusion width = 0.45mm
; infill extrusion width = 0.45mm
; solid infill extrusion width = 0.45mm
; top infill extrusion width = 0.45mm
; first layer extrusion width = 0.42mm

; external perimeters extrusion width = 0.45mm
; perimeters extrusion width = 0.45mm
; infill extrusion width = 0.45mm
; solid infill extrusion width = 0.45mm
; top infill extrusion width = 0.45mm
; first layer extrusion width = 0.42mm

; external perimeters extrusion width = 0.45mm
; perimeters extrusion width = 0.45mm
; infill extrusion width = 0.45mm
; solid infill extrusion width = 0.45mm
; top infill extrusion width = 0.45mm
; first layer extrusion width = 0.42mm

; external perimeters extrusion width = 0.45mm
; perimeters extrusion width = 0.45mm
; infill extrusion width = 0.45mm
; solid infill extrusion width = 0.45mm
; top infill extrusion width = 0.45mm
; first layer extrusion width = 0.42mm

; external perimeters extrusion width = 0.45mm
; perimeters extrusion width = 0.45mm
; infill extrusion width = 0.45mm
; solid infill extrusion width = 0.45mm
; top infill extrusion width = 0.45mm
; first layer extrusion width = 0.42mm

; external perimeters extrusion width = 0.45mm
; perimeters extrusion width = 0.45mm
; infill extrusion width = 0.45mm
; solid infill extrusion width = 0.45mm
; top infill extrusion width = 0.45mm
; first layer extrusion width = 0.42mm

; external perimeters extrusion width = 0.45mm
; perimeters extrusion width = 0.45mm
; infill extrusion width = 0.45mm
; solid infill extrusion width = 0.45mm
; top infill extrusion width = 0.45mm
; first layer extrusion width = 0.42mm

; external perimeters extrusion width = 0.45mm
; perimeters extrusion width = 0.45mm
; infill extrusion width = 0.45mm
; solid infill extrusion width = 0.45mm
; top infill extrusion width = 0.45mm
; first layer extrusion width = 0.42mm

; external perimeters extrusion width = 0.45mm
; perimeters extrusion width = 0.45mm
; infill extrusion width = 0.45mm
; solid infill extrusion width = 0.45mm
; top infill extrusion width = 0.45mm
; first layer extrusion width = 0.42mm

; external perimeters extrusion width = 0.45mm
; perimeters extrusion width = 0.45mm
; infill extrusion width = 0.45mm
; solid infill extrusion width = 0.45mm
; top infill extrusion width = 0.45mm
; first layer extrusion width = 0.42mm

; external perimeters extrusion width = 0.45mm
; perimeters extrusion width = 0.45mm
; infill extrusion width = 0.45mm
; solid infill extrusion width = 0.45mm
; top infill extrusion width = 0.45mm
; first layer extrusion width = 0.42mm

; external perimeters extrusion width = 0.45mm
; perimeters extrusion width = 0.45mm
; infill extrusion width = 0.45mm
; solid infill extrusion width = 0.45mm
; top infill extrusion width = 0.45mm
; first layer extrusion width = 0.42mm

; external perimeters extrusion width = 0.45mm
; perimeters extrusion width = 0.45mm
; infill extrusion width = 0.45mm
; solid infill extrusion width = 0.45mm
; top infill extrusion width = 0.45mm
; first layer extrusion width = 0.42mm

; external perimeters extrusion width = 0.45mm
; perimeters extrusion width = 0.45mm
; infill extrusion width = 0.45mm
; solid infill extrusion width = 0.45mm
; top infill extrusion width = 0.45mm
; first layer extrusion width = 0.42mm

; external perimeters extrusion width = 0.45mm
; perimeters extrusion width = 0.45mm
; infill extrusion width = 0.45mm
; solid infill extrusion width = 0.45mm
; top infill extrusion width = 0.45mm
; first layer extrusion width = 0.42mm

; external perimeters extrusion width = 0.45mm
; perimeters extrusion width = 0.45mm
; infill extrusion width = 0.45mm
; solid infill extrusion width = 0.45mm
; top infill extrusion width = 0.45mm
; first layer extrusion width = 0.42mm

; external perimeters extrusion width = 0.45mm
; perimeters extrusion width = 0.45mm
; infill extrusion width = 0.45mm
; solid infill extrusion width = 0.45mm
; top infill extrusion width = 0.45mm
; first layer extrusion width = 0.42mm

; external perimeters extrusion width = 0.45mm
; perimeters extrusion width = 0.45mm
; infill extrusion width = 0.45mm
; solid infill extrusion width = 0.45mm
; top infill extrusion width = 0.45mm
; first layer extrusion width = 0.42mm

; external perimeters extrusion width = 0.45mm
; perimeters extrusion width = 0.45mm
; infill extrusion width = 0.45mm
; solid infill extrusion width = 0.45mm
; top infill extrusion width = 0.45mm
; first layer extrusion width = 0.42mm

; external perimeters extrusion width = 0.45mm
; perimeters extrusion width = 0.45mm
; infill extrusion width = 0.45mm
; solid infill extrusion width = 0.45mm
; top infill extrusion width = 0.45mm
; first layer extrusion width = 0.42mm

; external perimeters extrusion width = 0.45mm
; perimeters extrusion width = 0.45mm
; infill extrusion width = 0.45mm
; solid infill extrusion width = 0.45mm
; top infill extrusion width = 0.45mm
; first layer extrusion width = 0.42mm

; external perimeters extrusion width = 0.45mm
; perimeters extrusion width = 0.45mm
; infill extrusion width = 0.45mm
; solid infill extrusion width = 0.45mm
; top infill extrusion width = 0.45mm
; first layer extrusion width = 0.42mm

; external perimeters extrusion width = 0.45mm
; perimeters extrusion width = 0.45mm
; infill extrusion width = 0.45mm
; solid infill extrusion width = 0.45mm
; top infill extrusion width = 0.45mm
; first layer extrusion width = 0.42mm

; external perimeters extrusion width = 0.45mm
; perimeters extrusion width = 0.45mm
; infill extrusion width = 0.45mm
; solid infill extrusion width = 0.45mm
; top infill extrusion width = 0.45mm
; first layer extrusion width = 0.42mm

; external perimeters extrusion width = 0.45mm
; perimeters extrusion width = 0.45mm
; infill extrusion width = 0.45mm
; solid infill extrusion width = 0.45mm
; top infill extrusion width = 0.45mm
; first layer extrusion width = 0.42mm

; external perimeters extrusion width = 0.45mm
; perimeters extrusion width = 0.45mm
; infill extrusion width = 0.45mm
; solid infill extrusion width = 0.45mm
; top infill extrusion width = 0.45mm
; first layer extrusion width = 0.42mm

; external perimeters extrusion width = 0.45mm
; perimeters extrusion width = 0.45mm
; infill extrusion width = 0.45mm
; solid infill extrusion width = 0.45mm
; top infill extrusion width = 0.45mm
; first layer extrusion width = 0.42mm

; object:{"name":"retraction_calibration","id":"retraction_calibration id:0 copy 0","object_center":[150.442339,53.580866,0.000000],"boundingbox_center":[150.442339,53.580866,5.200000],"boundingbox_size":[33.506751,33.508000,10.500000]}
; object:{"name":"retraction_calibration","id":"retraction_calibration id:1 copy 0","object_center":[156.318592,149.308574,0.000000],"boundingbox_center":[156.318592,149.308574,5.200000],"boundingbox_size":[33.506751,33.508000,10.500000]}
; object:{"name":"retraction_calibration","id":"retraction_calibration id:2 copy 0","object_center":[150.618021,247.808357,0.000000],"boundingbox_center":[150.618021,247.808357,5.200000],"boundingbox_size":[33.506751,33.508000,10.500000]}
; Total objects to print: 3
M486 T3
; plater:{"center":[153.380466,150.694611,0.000000],"boundingbox_center":[153.380466,150.694611,5.200000],"boundingbox_size":[39.383004,227.735491,10.500000]}

G10 P0 R245 ; sets the standby temperature
;TYPE:Custom
M107
G21 ; set units to millimeters
G90 ; use absolute coordinates
M82 ; use absolute distances for extrusion
G92 E0
; custom gcode: start_filament_gcode
; Filament gcode
; custom gcode end: start_filament_gcode
;_TOOLCHANGE 0
G10 P0 S245 ; set temperature
M116 ; wait for temperature to be reached
;LAYER_CHANGE
;Z:0.25
;HEIGHT:0.25
; custom gcode: before_layer_gcode
;BEFORE_LAYER_CHANGE
;0.25
; custom gcode end: before_layer_gcode

G1 Z0.25 F7200
G1 E-0.6 F1800
G1 X132.279 Y39.403 F7200
G1 E0 F1800
;TYPE:Skirt
;WIDTH:0.45
G1 X132.099 Y40.004 E0.02584
G1 X132.033 Y40.469 E0.0452
G1 X132.003 Y65.816 E1.08938
G1 X132.18 Y260.12 E9.09388
G1 X132.275 Y261.386 E9.1462
G1 X132.638 Y262.603 E9.1985
G1 X133.251 Y263.715 E9.25083
G1 X133.754 Y264.34 E9.28386
G1 X134.71 Y265.175 E9.33617
G1 X135.106 Y265.429 E9.35554
G1 X136.263 Y265.952 E9.40784
G1 X137.505 Y266.217 E9.46017
G1 X163.51 Y266.236 E10.53147
G1 X163.966 Y266.188 E10.55036
G1 X164.733 Y266.025 E10.58265
G1 X165.886 Y265.564 E10.63382
G1 X166.284 Y265.335 E10.65275
G1 X167.259 Y264.566 E10.7039
G1 X168.055 Y263.612 E10.75508
G1 X168.446 Y262.933 E10.78738
G1 X168.875 Y261.768 E10.83853
G1 X168.971 Y261.318 E10.85745
G1 X174.762 Y161.936 E14.95853
G1 X174.766 Y136.809 E15.99365
G1 X168.795 Y40.072 E19.9864
G1 X168.7 Y39.622 E20.00532
G1 X168.271 Y38.457 E20.05647
G1 X167.879 Y37.778 E20.08877
G1 X167.084 Y36.823 E20.13996
G1 X166.108 Y36.055 E20.1911
G1 X165.71 Y35.825 E20.21004
G1 X164.557 Y35.365 E20.2612
G1 X163.334 Y35.153 E20.31232
G1 X138.21 Y35.142 E21.34735
G1 X136.864 Y35.239 E21.40294
G1 X136.087 Y35.438 E21.43597
G1 X134.93 Y35.961 E21.48826
G1 X134.534 Y36.215 E21.50764
G1 X133.578 Y37.05 E21.55995
G1 X133.075 Y37.674 E21.59297
G1 X132.462 Y38.787 E21.6453
G1 X132.3 Y39.331 E21.66868
G10 P0 S255 ; set temperature
G92 E0
;WIPE_START
G1 F5760
G1 X132.099 Y40.004 E-0.20845
G1 X132.033 Y40.469 E-0.34802
G1 X132.032 Y41.217 E-0.57
;WIPE_END
G1 E-0.6 F1800
; printing object retraction_calibration id:0 copy 0
M486 S0
G1 X144.768 Y41.658 F7200
G1 E0 F1800
;TYPE:Internal perimeter
;WIDTH:0.42
G1 X156.115 Y41.658 E0.47529
G1 X156.115 Y44.006 E0.57366
G1 X156.116 Y62.756 E1.359
G1 X156.115 Y65.505 E1.47414
G1 X144.768 Y65.505 E1.94943
G1 X144.768 Y41.733 E2.94514
G92 E0
;WIPE_START
G1 F5760
G1 X146.687 Y41.72 E-0.57
;WIPE_END
G1 E-0.6 F1800
G1 X159.743 Y41.349 F7200
G1 E0 F1800
G1 X159.84 Y40.422 E0.03902
G1 X160.045 Y39.792 E0.06679
G1 X160.376 Y39.218 E0.09455
G1 X160.82 Y38.725 E0.12231
G1 X161.356 Y38.335 E0.15008
G1 X161.961 Y38.066 E0.17784
G1 X162.61 Y37.928 E0.2056
G1 X163.273 Y37.928 E0.23336
G1 X163.921 Y38.066 E0.26113
G1 X164.526 Y38.335 E0.28889
G1 X165.063 Y38.725 E0.31665
G1 X165.506 Y39.218 E0.34441
G1 X165.838 Y39.792 E0.37217
G1 X166.042 Y40.422 E0.39994
G1 X166.112 Y41.083 E0.42778
G1 X166.051 Y41.7 E0.45373
G1 X165.871 Y42.295 E0.47977
G1 X165.578 Y42.843 E0.50581
G1 X165.183 Y43.323 E0.53184
G1 X164.703 Y43.718 E0.55788
G1 X164.155 Y44.011 E0.58391
G1 X163.56 Y44.191 E0.60995
G1 X162.67 Y44.279 E0.6474
G1 X161.785 Y44.033 E0.68589
G1 X161.205 Y43.734 E0.71319
G1 X160.699 Y43.323 E0.7405
G1 X160.288 Y42.817 E0.76781
G1 X159.989 Y42.238 E0.79511
G1 X159.763 Y41.421 E0.83062
G92 E0
;WIPE_START
G1 F5760
G1 X159.84 Y40.422 E-0.29743
G1 X160.045 Y39.792 E-0.49421
G1 X160.172 Y39.571 E-0.57
;WIPE_END
G1 E-0.6 F1800
G1 X141.138 Y41.33 F7200
G1 E0 F1800
G1 X141.14 Y41.347 E0.00072
G1 X140.893 Y42.238 E0.03942
G1 X140.594 Y42.817 E0.06673
G1 X140.183 Y43.323 E0.09404
G1 X139.677 Y43.734 E0.12134
G1 X139.098 Y44.033 E0.14865
G1 X138.207 Y44.28 E0.18736
G1 X137.267 Y44.179 E0.22696
G1 X136.624 Y43.965 E0.25534
G1 X136.041 Y43.619 E0.28373
G1 X135.545 Y43.157 E0.31212
G1 X135.159 Y42.601 E0.34051
G1 X134.899 Y41.974 E0.3689
G1 X134.779 Y41.307 E0.39729
G1 X134.803 Y40.63 E0.42568
G1 X134.971 Y39.973 E0.45407
G1 X135.274 Y39.367 E0.48246
G1 X135.699 Y38.839 E0.51085
G1 X136.227 Y38.414 E0.53924
G1 X136.833 Y38.111 E0.56763
G1 X137.49 Y37.943 E0.59602
G1 X138.167 Y37.919 E0.62441
G1 X138.834 Y38.039 E0.6528
G1 X139.461 Y38.299 E0.68119
G1 X140.017 Y38.685 E0.70958
G1 X140.479 Y39.181 E0.73797
G1 X140.825 Y39.764 E0.76636
G1 X141.039 Y40.407 E0.79474
G1 X141.13 Y41.256 E0.83049
G92 E0
;WIPE_START
G1 F5760
G1 X141.14 Y41.347 E-0.02735
G1 X140.893 Y42.238 E-0.30169
G1 X140.594 Y42.817 E-0.49523
G1 X140.435 Y43.013 E-0.57
;WIPE_END
G1 E-0.6 F1800
G1 X138.207 Y62.882 F7200
G1 E0 F1800
G1 X139.098 Y63.129 E0.03871
G1 X139.677 Y63.428 E0.06601
G1 X140.183 Y63.839 E0.09332
G1 X140.594 Y64.345 E0.12063
G1 X140.893 Y64.924 E0.14793
G1 X141.14 Y65.815 E0.18664
G1 X141.039 Y66.755 E0.22624
G1 X140.825 Y67.398 E0.25463
G1 X140.479 Y67.981 E0.28302
G1 X140.017 Y68.477 E0.31141
G1 X139.461 Y68.864 E0.3398
G1 X138.834 Y69.123 E0.36819
G1 X138.167 Y69.243 E0.39658
G1 X137.49 Y69.219 E0.42496
G1 X136.833 Y69.052 E0.45336
G1 X136.227 Y68.748 E0.48174
G1 X135.699 Y68.323 E0.51013
G1 X135.274 Y67.795 E0.53852
G1 X134.971 Y67.189 E0.56691
G1 X134.803 Y66.532 E0.59531
G1 X134.779 Y65.855 E0.62369
G1 X134.899 Y65.188 E0.65208
G1 X135.159 Y64.562 E0.68047
G1 X135.545 Y64.005 E0.70886
G1 X136.041 Y63.543 E0.73725
G1 X136.624 Y63.197 E0.76564
G1 X137.267 Y62.983 E0.79403
G1 X138.133 Y62.89 E0.83049
G92 E0
;WIPE_START
G1 F5760
G1 X139.098 Y63.129 E-0.29515
G1 X139.677 Y63.428 E-0.4887
G1 X139.89 Y63.601 E-0.57
;WIPE_END
G1 E-0.6 F1800
G1 X162.67 Y62.884 F7200
G1 E0 F1800
G1 X163.56 Y62.971 E0.03745
G1 X164.155 Y63.152 E0.06349
G1 X164.703 Y63.445 E0.08952
G1 X165.183 Y63.839 E0.11556
G1 X165.578 Y64.32 E0.14159
G1 X165.871 Y64.868 E0.16763
G1 X166.051 Y65.463 E0.19366
G1 X166.112 Y66.079 E0.21962
G1 X166.042 Y66.74 E0.24746
G1 X165.838 Y67.371 E0.27523
G1 X165.506 Y67.945 E0.30299
G1 X165.063 Y68.437 E0.33075
G1 X164.526 Y68.827 E0.35851
G1 X163.921 Y69.097 E0.38627
G1 X163.273 Y69.234 E0.41403
G1 X162.61 Y69.234 E0.4418
G1 X161.961 Y69.097 E0.46956
G1 X161.356 Y68.827 E0.49732
G1 X160.82 Y68.437 E0.52509
G1 X160.376 Y67.945 E0.55285
G1 X160.045 Y67.371 E0.58061
G1 X159.84 Y66.74 E0.60837
G1 X159.743 Y65.814 E0.6474
G1 X159.989 Y64.924 E0.68605
G1 X160.288 Y64.345 E0.71335
G1 X160.699 Y63.839 E0.74066
G1 X161.205 Y63.428 E0.76797
G1 X161.785 Y63.129 E0.79527
G1 X162.598 Y62.904 E0.83062
G1 X162.5 Y62.551 F7200
;TYPE:External perimeter
G1 F1800
G1 X162.526 Y62.543 E0.83176
G1 X162.526 Y44.619 E1.58253
G1 X161.65 Y44.376 E1.62061
G1 X161.004 Y44.042 E1.65108
G1 X160.439 Y43.584 E1.68156
G1 X159.98 Y43.019 E1.71204
G1 X159.646 Y42.372 E1.74252
G1 X159.403 Y41.496 E1.7806
G1 X156.481 Y41.496 E1.90299
G1 X156.481 Y44.006 E2.00812
G1 X156.482 Y62.756 E2.79347
G1 X156.481 Y65.666 E2.91536
G1 X159.403 Y65.666 E3.03776
G1 X159.646 Y64.79 E3.07583
G1 X159.98 Y64.143 E3.10631
G1 X160.439 Y63.579 E3.13679
G1 X161.004 Y63.12 E3.16727
G1 X161.65 Y62.786 E3.19775
G1 X162.428 Y62.571 E3.23154
;WIPE_START
G1 X162.856 Y62.901 F7200
;WIPE_END
G92 E0
;WIPE_START
G1 F5760
G1 X162.848 Y60.981 E-0.57
;WIPE_END
G1 E-0.6 F1800
G1 X144.401 Y65.666 F7200
G1 E0 F1800
G1 X144.401 Y41.496 E1.01237
G1 X141.479 Y41.496 E1.13476
G1 X141.236 Y42.372 E1.17284
G1 X140.902 Y43.019 E1.20332
G1 X140.444 Y43.584 E1.2338
G1 X139.879 Y44.042 E1.26427
G1 X139.232 Y44.376 E1.29475
G1 X138.356 Y44.619 E1.33283
G1 X138.356 Y62.543 E2.0836
G1 X139.232 Y62.786 E2.12167
G1 X139.879 Y63.12 E2.15215
G1 X140.444 Y63.579 E2.18263
G1 X140.902 Y64.143 E2.21311
G1 X141.236 Y64.79 E2.24359
G1 X141.479 Y65.666 E2.28166
G1 X144.326 Y65.666 E2.40092
;WIPE_START
G1 X144.901 Y65.666 F7200
;WIPE_END
G92 E0
;WIPE_START
G1 F5760
G1 X144.882 Y63.746 E-0.57
;WIPE_END
G1 E-0.6 F1800
G1 X159.38 Y65.871 F7200
G1 E0 F1800
G1 X141.503 Y65.871 E0.74881
G1 X141.399 Y66.833 E0.78935
G1 X141.16 Y67.551 E0.82104
G1 X140.774 Y68.202 E0.85272
G1 X140.259 Y68.756 E0.88441
G1 X139.637 Y69.187 E0.9161
G1 X138.938 Y69.477 E0.94779
G1 X138.194 Y69.611 E0.97948
