; generated by SuperSlicer 2.4 on 2022-08-05 at 11:43:07 UTC

; 

; external perimeters extrusion width = 0.45mm
; perimeters extrusion width = 0.45mm
; infill extrusion width = 0.45mm
; solid infill extrusion width = 0.45mm
; top infill extrusion width = 0.45mm
; first layer extrusion width = 0.42mm

; external perimeters extrusion width = 0.45mm
; perimeters extrusion width = 0.45mm
; infill extrusion width = 0.45mm
; solid infill extrusion width = 0.45mm
; top infill extrusion width = 0.45mm
; first layer extrusion width = 0.42mm

; external perimeters extrusion width = 0.45mm
; perimeters extrusion width = 0.45mm
; infill extrusion width = 0.45mm
; solid infill extrusion width = 0.45mm
; top infill extrusion width = 0.45mm
; first layer extrusion width = 0.42mm

; external perimeters extrusion width = 0.45mm
; perimeters extrusion width = 0.45mm
; infill extrusion width = 0.45mm
; solid infill extrusion width = 0.45mm
; top infill extrusion width = 0.45mm
; first layer extrusion width = 0.42mm

; external perimeters extrusion width = 0.45mm
; perimeters extrusion width = 0.45mm
; infill extrusion width = 0.45mm
; solid infill extrusion width = 0.45mm
; top infill extrusion width = 0.45mm
; first layer extrusion width = 0.42mm

; external perimeters extrusion width = 0.45mm
; perimeters extrusion width = 0.45mm
; infill extrusion width = 0.45mm
; solid infill extrusion width = 0.45mm
; top infill extrusion width = 0.45mm
; first layer extrusion width = 0.42mm

; external perimeters extrusion width = 0.45mm
; perimeters extrusion width = 0.45mm
; infill extrusion width = 0.45mm
; solid infill extrusion width = 0.45mm
; top infill extrusion width = 0.45mm
; first layer extrusion width = 0.42mm

; external perimeters extrusion width = 0.45mm
; perimeters extrusion width = 0.45mm
; infill extrusion width = 0.45mm
; solid infill extrusion width = 0.45mm
; top infill extrusion width = 0.45mm
; first layer extrusion width = 0.42mm

; external perimeters extrusion width = 0.45mm
; perimeters extrusion width = 0.45mm
; infill extrusion width = 0.45mm
; solid infill extrusion width = 0.45mm
; top infill extrusion width = 0.45mm
; first layer extrusion width = 0.42mm

; external perimeters extrusion width = 0.45mm
; perimeters extrusion width = 0.45mm
; infill extrusion width = 0.45mm
; solid infill extrusion width = 0.45mm
; top infill extrusion width = 0.45mm
; first layer extrusion width = 0.42mm

; external perimeters extrusion width = 0.45mm
; perimeters extrusion width = 0.45mm
; infill extrusion width = 0.45mm
; solid infill extrusion width = 0.45mm
; top infill extrusion width = 0.45mm
; first layer extrusion width = 0.42mm

; external perimeters extrusion width = 0.45mm
; perimeters extrusion width = 0.45mm
; infill extrusion width = 0.45mm
; solid infill extrusion width = 0.45mm
; top infill extrusion width = 0.45mm
; first layer extrusion width = 0.42mm

; external perimeters extrusion width = 0.45mm
; perimeters extrusion width = 0.45mm
; infill extrusion width = 0.45mm
; solid infill extrusion width = 0.45mm
; top infill extrusion width = 0.45mm
; first layer extrusion width = 0.42mm

; external perimeters extrusion width = 0.45mm
; perimeters extrusion width = 0.45mm
; infill extrusion width = 0.45mm
; solid infill extrusion width = 0.45mm
; top infill extrusion width = 0.45mm
; first layer extrusion width = 0.42mm

; external perimeters extrusion width = 0.45mm
; perimeters extrusion width = 0.45mm
; infill extrusion width = 0.45mm
; solid infill extrusion width = 0.45mm
; top infill extrusion width = 0.45mm
; first layer extrusion width = 0.42mm

; external perimeters extrusion width = 0.45mm
; perimeters extrusion width = 0.45mm
; infill extrusion width = 0.45mm
; solid infill extrusion width = 0.45mm
; top infill extrusion width = 0.45mm
; first layer extrusion width = 0.42mm

; external perimeters extrusion width = 0.45mm
; perimeters extrusion width = 0.45mm
; infill extrusion width = 0.45mm
; solid infill extrusion width = 0.45mm
; top infill extrusion width = 0.45mm
; first layer extrusion width = 0.42mm

; external perimeters extrusion width = 0.45mm
; perimeters extrusion width = 0.45mm
; infill extrusion width = 0.45mm
; solid infill extrusion width = 0.45mm
; top infill extrusion width = 0.45mm
; first layer extrusion width = 0.42mm

; external perimeters extrusion width = 0.45mm
; perimeters extrusion width = 0.45mm
; infill extrusion width = 0.45mm
; solid infill extrusion width = 0.45mm
; top infill extrusion width = 0.45mm
; first layer extrusion width = 0.42mm

; external perimeters extrusion width = 0.45mm
; perimeters extrusion width = 0.45mm
; infill extrusion width = 0.45mm
; solid infill extrusion width = 0.45mm
; top infill extrusion width = 0.45mm
; first layer extrusion width = 0.42mm

; external perimeters extrusion width = 0.45mm
; perimeters extrusion width = 0.45mm
; infill extrusion width = 0.45mm
; solid infill extrusion width = 0.45mm
; top infill extrusion width = 0.45mm
; first layer extrusion width = 0.42mm

; external perimeters extrusion width = 0.45mm
; perimeters extrusion width = 0.45mm
; infill extrusion width = 0.45mm
; solid infill extrusion width = 0.45mm
; top infill extrusion width = 0.45mm
; first layer extrusion width = 0.42mm

; external perimeters extrusion width = 0.45mm
; perimeters extrusion width = 0.45mm
; infill extrusion width = 0.45mm
; solid infill extrusion width = 0.45mm
; top infill extrusion width = 0.45mm
; first layer extrusion width = 0.42mm

; external perimeters extrusion width = 0.45mm
; perimeters extrusion width = 0.45mm
; infill extrusion width = 0.45mm
; solid infill extrusion width = 0.45mm
; top infill extrusion width = 0.45mm
; first layer extrusion width = 0.42mm

; external perimeters extrusion width = 0.45mm
; perimeters extrusion width = 0.45mm
; infill extrusion width = 0.45mm
; solid infill extrusion width = 0.45mm
; top infill extrusion width = 0.45mm
; first layer extrusion width = 0.42mm

; external perimeters extrusion width = 0.45mm
; perimeters extrusion width = 0.45mm
; infill extrusion width = 0.45mm
; solid infill extrusion width = 0.45mm
; top infill extrusion width = 0.45mm
; first layer extrusion width = 0.42mm

; external perimeters extrusion width = 0.45mm
; perimeters extrusion width = 0.45mm
; infill extrusion width = 0.45mm
; solid infill extrusion width = 0.45mm
; top infill extrusion width = 0.45mm
; first layer extrusion width = 0.42mm

; external perimeters extrusion width = 0.45mm
; perimeters extrusion width = 0.45mm
; infill extrusion width = 0.45mm
; solid infill extrusion width = 0.45mm
; top infill extrusion width = 0.45mm
; first layer extrusion width = 0.42mm

; external perimeters extrusion width = 0.45mm
; perimeters extrusion width = 0.45mm
; infill extrusion width = 0.45mm
; solid infill extrusion width = 0.45mm
; top infill extrusion width = 0.45mm
; first layer extrusion width = 0.42mm

; external perimeters extrusion width = 0.45mm
; perimeters extrusion width = 0.45mm
; infill extrusion width = 0.45mm
; solid infill extrusion width = 0.45mm
; top infill extrusion width = 0.45mm
; first layer extrusion width = 0.42mm

; object:{"name":"retraction_calibration","id":"retraction_calibration id:0 copy 0","object_center":[76.174729,66.413448,0.000000],"boundingbox_center":[76.174729,66.413448,5.200000],"boundingbox_size":[33.506751,33.508000,10.500000]}
; object:{"name":"retraction_calibration","id":"retraction_calibration id:1 copy 0","object_center":[76.570479,157.540271,0.000000],"boundingbox_center":[76.570479,157.540271,5.200000],"boundingbox_size":[33.506751,33.508000,10.500000]}
; object:{"name":"retraction_calibration","id":"retraction_calibration id:2 copy 0","object_center":[78.753822,246.017491,0.000000],"boundingbox_center":[78.753822,246.017491,5.200000],"boundingbox_size":[33.506751,33.508000,10.500000]}
; Total objects to print: 3
M486 T3
; plater:{"center":[77.464276,156.215470,0.000000],"boundingbox_center":[77.464276,156.215470,5.200000],"boundingbox_size":[36.085844,213.112043,10.500000]}

G10 P0 R215 ; sets the standby temperature
G10 P0 S215 ; set temperature
;TYPE:Custom
M107
G21 ; set units to millimeters
G90 ; use absolute coordinates
M82 ; use absolute distances for extrusion
G92 E0
; custom gcode: start_filament_gcode
; Filament gcode
; custom gcode end: start_filament_gcode
G10 P0 S215 ; set temperature
M116 ; wait for temperature to be reached
;LAYER_CHANGE
;Z:0.25
;HEIGHT:0.25
; custom gcode: before_layer_gcode
;BEFORE_LAYER_CHANGE
;0.25
; custom gcode end: before_layer_gcode

G1 Z0.25 F7200
G1 E-0.6 F1800
G1 X59.31 Y49.883 F7200
G1 E0 F1800
;TYPE:Skirt
;WIDTH:0.45
G1 X58.807 Y50.507 E0.03138
G1 X58.194 Y51.619 E0.08109
G1 X57.832 Y52.836 E0.13078
G1 X57.765 Y53.302 E0.14918
G1 X57.735 Y78.656 E1.14144
G1 X58.131 Y169.783 E4.70781
G1 X60.344 Y259.13 E8.20557
G1 X60.609 Y260.372 E8.25528
G1 X61.132 Y261.529 E8.30496
G1 X61.386 Y261.925 E8.32337
G1 X62.222 Y262.881 E8.37306
G1 X62.846 Y263.384 E8.40444
G1 X63.958 Y263.997 E8.45415
G1 X65.175 Y264.36 E8.50384
G1 X65.641 Y264.426 E8.52224
G1 X91.646 Y264.445 E9.53997
G1 X92.102 Y264.397 E9.55792
G1 X92.869 Y264.234 E9.5886
G1 X94.022 Y263.774 E9.63721
G1 X94.42 Y263.544 E9.6552
G1 X95.395 Y262.776 E9.70378
G1 X96.19 Y261.821 E9.75241
G1 X96.582 Y261.142 E9.78309
G1 X97.011 Y259.977 E9.83169
G1 X97.107 Y259.527 E9.84966
G1 X97.201 Y258.518 E9.88934
G1 X97.201 Y233.486 E10.86898
G1 X94.622 Y53.882 E17.89868
G1 X94.528 Y52.904 E17.93713
G1 X94.19 Y51.709 E17.98573
G1 X93.611 Y50.611 E18.03432
G1 X92.816 Y49.656 E18.08295
G1 X91.841 Y48.888 E18.13153
G1 X91.443 Y48.658 E18.14952
G1 X90.289 Y48.197 E18.19813
G1 X89.067 Y47.986 E18.24669
G1 X63.942 Y47.975 E19.22997
G1 X62.596 Y48.072 E19.28278
G1 X61.819 Y48.27 E19.31416
G1 X60.662 Y48.793 E19.36384
G1 X60.267 Y49.047 E19.38224
G1 X59.367 Y49.833 E19.429
G10 P0 S220 ; set temperature
G92 E0
;WIPE_START
G1 F5760
G1 X59.31 Y49.883 E-0.02227
G1 X58.807 Y50.507 E-0.26029
G1 X58.304 Y51.421 E-0.57
;WIPE_END
G1 E-0.6 F1800
; printing object retraction_calibration id:0 copy 0
M486 S0
G1 X70.5 Y54.49 F7200
G1 E0 F1800
;TYPE:Internal perimeter
;WIDTH:0.42
G1 X81.847 Y54.49 E0.45152
G1 X81.847 Y56.839 E0.54498
G1 X81.848 Y75.589 E1.29105
G1 X81.847 Y78.337 E1.40043
G1 X70.5 Y78.337 E1.85196
G1 X70.5 Y54.565 E2.79788
G92 E0
;WIPE_START
G1 F5760
G1 X72.42 Y54.552 E-0.57
;WIPE_END
G1 E-0.6 F1800
G1 X85.475 Y54.181 F7200
G1 E0 F1800
G1 X85.572 Y53.255 E0.03707
G1 X85.777 Y52.624 E0.06345
G1 X86.109 Y52.05 E0.08982
G1 X86.552 Y51.558 E0.1162
G1 X87.088 Y51.168 E0.14257
G1 X87.694 Y50.898 E0.16895
G1 X88.342 Y50.761 E0.19532
G1 X89.005 Y50.761 E0.22169
G1 X89.653 Y50.898 E0.24807
G1 X90.259 Y51.168 E0.27444
G1 X90.795 Y51.558 E0.30082
G1 X91.239 Y52.05 E0.32719
G1 X91.57 Y52.624 E0.35356
G1 X91.775 Y53.255 E0.37994
G1 X91.844 Y53.916 E0.40639
G1 X91.784 Y54.532 E0.43105
G1 X91.603 Y55.127 E0.45578
G1 X91.31 Y55.675 E0.48052
G1 X90.916 Y56.156 E0.50525
G1 X90.435 Y56.55 E0.52998
G1 X89.887 Y56.843 E0.55472
G1 X89.292 Y57.024 E0.57945
G1 X88.402 Y57.111 E0.61503
G1 X87.517 Y56.866 E0.65159
G1 X86.938 Y56.567 E0.67753
G1 X86.432 Y56.156 E0.70348
G1 X86.02 Y55.65 E0.72942
G1 X85.722 Y55.07 E0.75536
G1 X85.495 Y54.253 E0.78909
G92 E0
;WIPE_START
G1 F5760
G1 X85.572 Y53.255 E-0.29743
G1 X85.777 Y52.624 E-0.49421
G1 X85.905 Y52.403 E-0.57
;WIPE_END
G1 E-0.6 F1800
G1 X66.871 Y54.163 F7200
G1 E0 F1800
G1 X66.873 Y54.18 E0.00068
G1 X66.626 Y55.07 E0.03745
G1 X66.327 Y55.65 E0.06339
G1 X65.916 Y56.156 E0.08933
G1 X65.41 Y56.567 E0.11528
G1 X64.83 Y56.866 E0.14122
G1 X63.94 Y57.113 E0.17799
G1 X63 Y57.012 E0.21561
G1 X62.357 Y56.798 E0.24258
G1 X61.774 Y56.452 E0.26955
G1 X61.278 Y55.99 E0.29652
G1 X60.891 Y55.433 E0.32349
G1 X60.632 Y54.807 E0.35046
G1 X60.511 Y54.14 E0.37743
G1 X60.535 Y53.463 E0.40439
G1 X60.703 Y52.806 E0.43137
G1 X61.006 Y52.2 E0.45834
G1 X61.432 Y51.672 E0.48531
G1 X61.96 Y51.247 E0.51228
G1 X62.566 Y50.943 E0.53925
G1 X63.222 Y50.776 E0.56622
G1 X63.9 Y50.751 E0.59319
G1 X64.567 Y50.872 E0.62016
G1 X65.193 Y51.131 E0.64713
G1 X65.75 Y51.518 E0.6741
G1 X66.212 Y52.014 E0.70107
G1 X66.557 Y52.597 E0.72804
G1 X66.771 Y53.24 E0.75501
G1 X66.863 Y54.088 E0.78896
G92 E0
;WIPE_START
G1 F5760
G1 X66.873 Y54.18 E-0.02735
G1 X66.626 Y55.07 E-0.30169
G1 X66.327 Y55.65 E-0.49523
G1 X66.168 Y55.845 E-0.57
;WIPE_END
G1 E-0.6 F1800
G1 X63.94 Y75.715 F7200
G1 E0 F1800
G1 X64.83 Y75.962 E0.03677
G1 X65.41 Y76.261 E0.06271
G1 X65.916 Y76.672 E0.08865
G1 X66.327 Y77.178 E0.11459
G1 X66.626 Y77.757 E0.14054
G1 X66.873 Y78.648 E0.17731
G1 X66.771 Y79.588 E0.21493
G1 X66.557 Y80.231 E0.2419
G1 X66.212 Y80.814 E0.26887
G1 X65.75 Y81.31 E0.29584
G1 X65.193 Y81.696 E0.32281
G1 X64.567 Y81.956 E0.34978
G1 X63.9 Y82.076 E0.37675
G1 X63.222 Y82.052 E0.40371
G1 X62.566 Y81.884 E0.43069
G1 X61.96 Y81.581 E0.45766
G1 X61.432 Y81.155 E0.48463
G1 X61.006 Y80.628 E0.5116
G1 X60.703 Y80.022 E0.53857
G1 X60.535 Y79.365 E0.56554
G1 X60.511 Y78.688 E0.59251
G1 X60.632 Y78.021 E0.61948
G1 X60.891 Y77.394 E0.64645
G1 X61.278 Y76.838 E0.67342
G1 X61.774 Y76.376 E0.70039
G1 X62.357 Y76.03 E0.72736
G1 X63 Y75.816 E0.75433
G1 X63.865 Y75.723 E0.78896
G92 E0
;WIPE_START
G1 F5760
G1 X64.83 Y75.962 E-0.29515
G1 X65.41 Y76.261 E-0.4887
G1 X65.622 Y76.433 E-0.57
;WIPE_END
G1 E-0.6 F1800
G1 X88.161 Y75.783 F7200
G1 E0 F1800
G1 X88.402 Y75.716 E0.00995
G1 X89.292 Y75.804 E0.04553
G1 X89.887 Y75.984 E0.07026
G1 X90.435 Y76.277 E0.09499
G1 X90.916 Y76.672 E0.11973
G1 X91.31 Y77.152 E0.14446
G1 X91.603 Y77.7 E0.1692
G1 X91.784 Y78.295 E0.19393
G1 X91.844 Y78.912 E0.21859
G1 X91.775 Y79.573 E0.24504
G1 X91.57 Y80.203 E0.27141
G1 X91.239 Y80.777 E0.29779
G1 X90.795 Y81.27 E0.32416
G1 X90.259 Y81.66 E0.35054
G1 X89.653 Y81.929 E0.37691
G1 X89.005 Y82.067 E0.40328
G1 X88.342 Y82.067 E0.42966
G1 X87.694 Y81.929 E0.45603
G1 X87.088 Y81.66 E0.4824
G1 X86.552 Y81.27 E0.50878
G1 X86.109 Y80.777 E0.53515
G1 X85.777 Y80.203 E0.56153
G1 X85.572 Y79.573 E0.5879
G1 X85.475 Y78.646 E0.62498
G1 X85.722 Y77.757 E0.66169
G1 X86.02 Y77.178 E0.68764
G1 X86.432 Y76.672 E0.71358
G1 X86.938 Y76.261 E0.73952
G1 X87.517 Y75.962 E0.76546
G1 X88.089 Y75.803 E0.78909
G1 X88.259 Y75.376 F7200
;TYPE:External perimeter
G1 F1800
G1 X88.259 Y57.452 E1.50232
G1 X87.383 Y57.209 E1.53849
G1 X86.736 Y56.875 E1.56745
G1 X86.171 Y56.416 E1.5964
G1 X85.712 Y55.851 E1.62535
G1 X85.379 Y55.205 E1.65431
G1 X85.136 Y54.329 E1.69048
G1 X82.214 Y54.329 E1.80676
G1 X82.214 Y56.839 E1.90663
G1 X82.215 Y75.589 E2.65271
G1 X82.214 Y78.499 E2.76851
G1 X85.136 Y78.499 E2.88478
G1 X85.379 Y77.623 E2.92096
G1 X85.712 Y76.976 E2.94991
G1 X86.171 Y76.411 E2.97887
G1 X86.736 Y75.952 E3.00782
G1 X87.383 Y75.619 E3.03677
G1 X88.186 Y75.396 E3.06996
;WIPE_START
G1 X88.757 Y75.331 F7200
;WIPE_END
G92 E0
;WIPE_START
G1 F5760
G1 X88.703 Y73.412 E-0.57
;WIPE_END
G1 E-0.6 F1800
G1 X70.134 Y78.499 F7200
G1 E0 F1800
G1 X70.134 Y54.329 E0.96175
G1 X67.211 Y54.329 E1.07802
G1 X66.969 Y55.205 E1.1142
G1 X66.635 Y55.851 E1.14315
G1 X66.176 Y56.416 E1.17211
G1 X65.611 Y56.875 E1.20106
G1 X64.965 Y57.209 E1.23002
G1 X64.089 Y57.452 E1.26619
G1 X64.089 Y75.376 E1.97942
G1 X64.965 Y75.619 E2.01559
G1 X65.611 Y75.952 E2.04454
G1 X66.176 Y76.411 E2.0735
G1 X66.635 Y76.976 E2.10245
G1 X66.969 Y77.623 E2.13141
G1 X67.211 Y78.499 E2.16758
G1 X70.059 Y78.499 E2.28087
;WIPE_START
G1 X70.634 Y78.499 F7200
;WIPE_END
G92 E0
;WIPE_START
G1 F5760
G1 X70.594 Y76.579 E-0.57
;WIPE_END
G1 E-0.6 F1800
G1 X85.113 Y78.704 F7200
G1 E0 F1800
G1 X67.235 Y78.704 E0.71137
G1 X67.132 Y79.666 E0.74988
G1 X66.893 Y80.384 E0.77998
G1 X66.507 Y81.034 E0.81009
G1 X65.991 Y81.588 E0.84019
G1 X65.37 Y82.02 E0.8703
G1 X64.671 Y82.309 E0.9004
G1 X63.926 Y82.444 E0.93051
G1 X63.17 Y82.417 E0.96061
G1 X62.437 Y82.229 E0.99072
G1 X61.76 Y81.891 E1.02082
G1 X61.171 Y81.416 E1.05092
G1 X60.697 Y80.827 E1.08103
G1 X60.358 Y80.15 E1.11113
G1 X60.171 Y79.417 E1.14124
G1 X60.144 Y78.661 E1.17134
G1 X60.278 Y77.917 E1.20145
