;FLAVOR:RepRap
;TIME:1449
;Filament used: 2.86535m
;Layer height: 0.24
;MINX:118.37
;MINY:128.37
;MINZ:0.2
;MAXX:161.63
;MAXY:171.63
;MAXZ:23
;Exported with Cura-DuetRRF v1.2.9 plugin by Thomas Kriechbaumer
;LINEARADVANCEPROCESSED
;Generated with Cura_SteamEngine 5.3.0
T0
M104 S215
M109 S215
M82 ;absolute extrusion mode

M83 ;relative extrusion mode
G1 F2700 E-0.6
;LAYER_COUNT:96
M572 S0.050000 D0 ;added by LinearAdvanceSettingPlugin
;LAYER:0
M107
M204 T5000
G1 F600 Z0.4
G0 F12000 X119.81 Y129.371 Z0.4
M204 P6000
;TYPE:SKIRT
G1 F600 Z0.2
G1 F1500 E0.6
G1 F1800 X120.487 Y128.916 E0.03248
G1 X121.153 Y128.59 E0.02953
G1 X122.256 Y128.37 E0.04479
G1 X157.745 Y128.37 E1.41334
G1 X158.747 Y128.57 E0.04069
G1 X159.378 Y128.825 E0.0271
G1 X160.142 Y129.345 E0.03681
G1 X160.629 Y129.81 E0.02682
G1 X161.084 Y130.487 E0.03248
G1 X161.41 Y131.153 E0.02953
G1 X161.63 Y132.256 E0.04479
G1 X161.63 Y167.745 E1.41334
G1 X161.43 Y168.747 E0.04069
G1 X161.175 Y169.378 E0.0271
G1 X160.655 Y170.142 E0.03681
G1 X160.191 Y170.628 E0.02676
G1 X159.204 Y171.288 E0.04729
G1 X158.885 Y171.408 E0.01357
G1 X157.755 Y171.63 E0.04586
G1 X122.255 Y171.63 E1.41378
G1 X121.253 Y171.43 E0.04069
G1 X120.622 Y171.175 E0.0271
G1 X119.858 Y170.655 E0.03681
G1 X119.371 Y170.19 E0.02682
G1 X118.916 Y169.513 E0.03248
G1 X118.59 Y168.847 E0.02953
G1 X118.37 Y167.744 E0.04479
G1 X118.37 Y132.255 E1.41334
G1 X118.57 Y131.253 E0.04069
G1 X118.825 Y130.622 E0.0271
G1 X119.345 Y129.858 E0.03681
G1 X119.81 Y129.371 E0.02682
G0 F12000 X120.134 Y129.756
G1 F1800 X120.766 Y129.331 E0.03033
G1 X121.314 Y129.067 E0.02422
G1 X122.304 Y128.87 E0.0402
G1 X157.697 Y128.87 E1.40952
G1 X158.6 Y129.05 E0.03667
G1 X159.144 Y129.27 E0.02337
G1 X159.824 Y129.733 E0.03276
G1 X160.244 Y130.134 E0.02313
G1 X160.669 Y130.766 E0.03033
G1 X160.933 Y131.314 E0.02422
G1 X161.13 Y132.304 E0.0402
G1 X161.13 Y167.697 E1.40952
G1 X160.95 Y168.6 E0.03667
G1 X160.73 Y169.144 E0.02337
G1 X160.267 Y169.824 E0.03276
G1 X159.868 Y170.242 E0.02301
G1 X158.971 Y170.842 E0.04298
G1 X158.789 Y170.917 E0.00784
G1 X157.705 Y171.13 E0.044
G1 X122.303 Y171.13 E1.40988
G1 X121.4 Y170.95 E0.03667
G1 X120.856 Y170.73 E0.02337
G1 X120.176 Y170.267 E0.03276
G1 X119.756 Y169.866 E0.02313
G1 X119.331 Y169.234 E0.03033
G1 X119.067 Y168.686 E0.02422
G1 X118.87 Y167.696 E0.0402
G1 X118.87 Y132.303 E1.40952
G1 X119.05 Y131.4 E0.03667
G1 X119.27 Y130.856 E0.02337
G1 X119.733 Y130.176 E0.03276
G1 X120.134 Y129.756 E0.02313
G0 F12000 X120.413 Y130.171
G1 F1800 X120.104 Y130.512 E0.01833
G1 X119.714 Y131.092 E0.02783
G1 X119.53 Y131.547 E0.01955
G1 X119.37 Y132.351 E0.03265
G1 X119.37 Y167.649 E1.40574
G1 X119.544 Y168.526 E0.03561
G1 X119.746 Y168.955 E0.01888
G1 X120.171 Y169.587 E0.03033
G1 X120.512 Y169.896 E0.01833
G1 X121.092 Y170.286 E0.02783
G1 X121.547 Y170.47 E0.01955
G1 X122.351 Y170.63 E0.03265
G1 X157.655 Y170.63 E1.40598
G1 X158.693 Y170.426 E0.04213
G1 X159.59 Y169.826 E0.04298
G1 X159.896 Y169.488 E0.01816
G1 X160.286 Y168.908 E0.02783
G1 X160.47 Y168.453 E0.01955
G1 X160.63 Y167.649 E0.03265
G1 X160.63 Y132.351 E1.40574
G1 X160.456 Y131.474 E0.03561
G1 X160.254 Y131.045 E0.01888
G1 X159.829 Y130.413 E0.03033
G1 X159.488 Y130.104 E0.01833
G1 X158.908 Y129.714 E0.02783
G1 X158.453 Y129.53 E0.01955
G1 X157.649 Y129.37 E0.03265
G1 X122.351 Y129.37 E1.40574
G1 X121.474 Y129.544 E0.03561
G1 X121.045 Y129.746 E0.01888
G1 X120.413 Y130.171 E0.03033
G0 F12000 X120.743 Y130.552
G1 F1800 X121.324 Y130.161 E0.02789
G1 X121.631 Y130.022 E0.01342
G1 X122.398 Y129.87 E0.03114
G1 X157.602 Y129.87 E1.40199
G1 X158.312 Y130.011 E0.02883
G1 X158.629 Y130.129 E0.01347
G1 X159.209 Y130.519 E0.02783
G1 X159.448 Y130.743 E0.01305
G1 X159.839 Y131.324 E0.02789
G1 X159.978 Y131.631 E0.01342
G1 X160.13 Y132.398 E0.03114
G1 X160.13 Y167.602 E1.40199
G1 X159.989 Y168.312 E0.02883
G1 X159.871 Y168.629 E0.01347
G1 X159.481 Y169.209 E0.02783
G1 X159.259 Y169.447 E0.01296
G1 X158.502 Y169.954 E0.03628
G1 X157.605 Y170.13 E0.0364
G1 X122.398 Y170.13 E1.40211
G1 X121.688 Y169.989 E0.02883
G1 X121.371 Y169.871 E0.01347
G1 X120.791 Y169.481 E0.02783
G1 X120.552 Y169.257 E0.01305
G1 X120.161 Y168.676 E0.02789
G1 X120.022 Y168.369 E0.01342
G1 X119.87 Y167.602 E0.03114
G1 X119.87 Y132.398 E1.40199
G1 X120.011 Y131.688 E0.02883
G1 X120.129 Y131.371 E0.01347
G1 X120.519 Y130.791 E0.02783
G1 X120.743 Y130.552 E0.01305
G0 F12000 X121.07 Y130.934
G1 F1800 X121.603 Y130.576 E0.02557
G1 X121.785 Y130.501 E0.00784
G1 X122.445 Y130.37 E0.0268
G1 X157.555 Y130.37 E1.39825
G1 X158.215 Y130.501 E0.0268
G1 X158.397 Y130.576 E0.00784
G1 X158.93 Y130.934 E0.02557
G1 X159.066 Y131.07 E0.00766
G1 X159.424 Y131.603 E0.02557
G1 X159.499 Y131.785 E0.00784
G1 X159.63 Y132.445 E0.0268
G1 X159.63 Y167.555 E1.39825
G1 X159.499 Y168.215 E0.0268
G1 X159.424 Y168.397 E0.00784
G1 X159.066 Y168.93 E0.02557
G1 X158.93 Y169.066 E0.00766
G1 X158.311 Y169.481 E0.02968
G1 X157.554 Y169.63 E0.03073
G1 X122.445 Y169.63 E1.39821
G1 X121.785 Y169.499 E0.0268
G1 X121.603 Y169.424 E0.00784
G1 X121.07 Y169.066 E0.02557
G1 X120.934 Y168.93 E0.00766
G1 X120.576 Y168.397 E0.02557
G1 X120.501 Y168.215 E0.00784
G1 X120.37 Y167.555 E0.0268
G1 X120.37 Y132.445 E1.39825
G1 X120.501 Y131.785 E0.0268
G1 X120.576 Y131.603 E0.00784
G1 X120.934 Y131.07 E0.02557
G1 X121.07 Y130.934 E0.00766
G0 F12000 X121.349 Y131.349
G1 F1800 X121.882 Y130.991 E0.02557
G1 X122.492 Y130.87 E0.02477
G1 X157.508 Y130.87 E1.39451
G1 X158.118 Y130.991 E0.02477
G1 X158.651 Y131.349 E0.02557
G1 X159.009 Y131.882 E0.02557
G1 X159.13 Y132.492 E0.02477
G1 X159.13 Y167.508 E1.39451
G1 X159.009 Y168.118 E0.02477
G1 X158.651 Y168.651 E0.02557
G1 X158.118 Y169.009 E0.02557
G1 X157.508 Y169.13 E0.02477
G1 X122.492 Y169.13 E1.39451
G1 X121.882 Y169.009 E0.02477
G1 X121.349 Y168.651 E0.02557
G1 X120.991 Y168.118 E0.02557
G1 X120.87 Y167.508 E0.02477
G1 X120.87 Y132.492 E1.39451
G1 X120.991 Y131.882 E0.02477
G1 X121.349 Y131.349 E0.02557
G1 F2700 E-0.6
G1 F600 Z0.4
G0 F12000 X123.624 Y134.182 Z0.4
G1 F600 Z0.2
G1 F1500 E0.6
G1 F1800 X123.981 Y134.182 E0.01422
G1 X124.128 Y134.134 E0.00616
G1 X124.462 Y133.891 E0.01645
G1 X124.982 Y133.891 E0.02071
G1 X125.402 Y134.197 E0.02069
G1 X125.563 Y134.691 E0.02069
G1 X125.402 Y135.185 E0.02069
G1 X124.982 Y135.491 E0.02069
G1 X124.898 Y135.491 E0.00335
G1 X124.764 Y135.53 E0.00556
G1 X124.66 Y135.664 E0.00676
G1 X124.645 Y135.711 E0.00196
G1 X124.225 Y136.017 E0.02069
G1 X123.705 Y136.017 E0.02071
G1 X123.284 Y135.71 E0.02075
G1 X123.043 Y134.982 E0.03054
G1 X123.204 Y134.488 E0.02069
G1 X123.624 Y134.182 E0.02069
G0 F12000 X123.787 Y134.682
G1 F1800 X123.981 Y134.682 E0.00773
G1 X124.222 Y134.642 E0.00973
G1 X124.422 Y134.538 E0.00898
G1 X124.624 Y134.391 E0.00995
G1 X124.819 Y134.391 E0.00777
G1 X124.977 Y134.506 E0.00778
G1 X125.037 Y134.691 E0.00775
G1 X124.977 Y134.875 E0.00771
G1 X124.795 Y135.008 E0.00898
G1 X124.657 Y135.031 E0.00557
G1 X124.442 Y135.146 E0.00971
G1 X124.275 Y135.324 E0.00972
G1 X124.247 Y135.382 E0.00256
G1 X124.062 Y135.517 E0.00912
G1 X123.868 Y135.517 E0.00773
G1 X123.708 Y135.4 E0.00789
G1 X123.569 Y134.98 E0.01762
G1 X123.629 Y134.798 E0.00763
G1 X123.787 Y134.682 E0.00781
G1 F2700 E-0.6
G1 F600 Z0.4
G0 F12000 X123.719 Y163.996 Z0.4
G1 F600 Z0.2
G1 F1500 E0.6
G1 F1800 X124.239 Y163.996 E0.02071
G1 X124.659 Y164.302 E0.02069
G1 X124.82 Y164.798 E0.02077
G1 X124.444 Y166.007 E0.05042
G1 X124.025 Y166.312 E0.02064
G1 X123.505 Y166.312 E0.02071
G1 X123.085 Y166.006 E0.02069
G1 X122.912 Y165.473 E0.02232
G1 X122.913 Y165.321 E0.00605
G1 X123.294 Y164.306 E0.04318
G1 X123.719 Y163.996 E0.02095
G0 F12000 X123.882 Y164.496
G1 F1800 X124.076 Y164.496 E0.00773
G1 X124.234 Y164.612 E0.00781
G1 X124.296 Y164.801 E0.00792
G1 X124.016 Y165.7 E0.0375
G1 X123.862 Y165.812 E0.00758
G1 X123.668 Y165.812 E0.00773
G1 X123.51 Y165.696 E0.00781
G1 X123.415 Y165.406 E0.01215
G1 X123.709 Y164.622 E0.03335
G1 X123.882 Y164.496 E0.00852
G1 F2700 E-0.6
G1 F600 Z0.4
G0 F12000 X155.001 Y165.314 Z0.4
G1 F600 Z0.2
G1 F1500 E0.6
G1 F1800 X155.354 Y164.292 E0.04306
G1 X155.776 Y163.984 E0.02081
G1 X156.296 Y163.984 E0.02071
G1 X156.716 Y164.29 E0.02069
G1 X156.877 Y164.784 E0.02069
G1 X156.575 Y165.749 E0.04027
G1 X156.098 Y166.112 E0.02387
G1 X155.581 Y166.112 E0.02059
G1 X155.161 Y165.806 E0.02069
G1 X155.001 Y165.314 E0.0206
G0 F12000 X155.528 Y165.32
G1 F1800 X155.775 Y164.603 E0.0302
G1 X155.939 Y164.484 E0.00807
G1 X156.133 Y164.484 E0.00773
G1 X156.291 Y164.6 E0.00781
G1 X156.352 Y164.787 E0.00783
G1 X156.145 Y165.447 E0.02755
G1 X155.929 Y165.612 E0.01082
G1 X155.744 Y165.612 E0.00737
G1 X155.586 Y165.496 E0.00781
G1 X155.528 Y165.32 E0.00738
G1 F2700 E-0.6
G1 F600 Z0.4
G0 F12000 X155.938 Y135.517 Z0.4
G1 F600 Z0.2
G1 F1500 E0.6
G1 F1800 X155.752 Y135.381 E0.00918
G1 X155.697 Y135.275 E0.00476
G1 X155.522 Y135.106 E0.00969
G1 X155.301 Y135.002 E0.00973
G1 X155.201 Y134.988 E0.00402
G1 X155.022 Y134.857 E0.00883
G1 X154.962 Y134.673 E0.00771
G1 X155.022 Y134.489 E0.00771
G1 X155.18 Y134.373 E0.00781
G1 X155.375 Y134.373 E0.00777
G1 X155.519 Y134.478 E0.0071
G1 X155.737 Y134.588 E0.00972
G1 X155.9 Y134.613 E0.00657
G1 X156.088 Y134.75 E0.00926
G1 X156.166 Y134.901 E0.00677
G1 X156.286 Y135.02 E0.00673
G1 X156.35 Y135.217 E0.00825
G1 X156.29 Y135.401 E0.00771
G1 X156.132 Y135.517 E0.00781
G1 X155.938 Y135.517 E0.00773
G0 F12000 X155.775 Y136.017
G1 F1800 X155.355 Y135.711 E0.02069
G1 X155.334 Y135.646 E0.00272
G1 X155.255 Y135.53 E0.00559
G1 X155.096 Y135.473 E0.00673
G1 X155.017 Y135.473 E0.00315
G1 X154.597 Y135.167 E0.02069
G1 X154.436 Y134.673 E0.02069
G1 X154.597 Y134.179 E0.02069
G1 X155.017 Y133.873 E0.02069
G1 X155.537 Y133.873 E0.02071
G1 X155.813 Y134.074 E0.0136
G1 X155.96 Y134.122 E0.00616
G1 X156.076 Y134.122 E0.00462
G1 X156.496 Y134.428 E0.02069
G1 X156.529 Y134.529 E0.00423
G1 X156.62 Y134.654 E0.00616
G1 X156.715 Y134.723 E0.00468
G1 X156.876 Y135.217 E0.02069
G1 X156.715 Y135.711 E0.02069
G1 X156.295 Y136.017 E0.02069
G1 X155.775 Y136.017 E0.02071
G1 F2700 E-0.6
;MESH:4881031_Meishi_trackball_module_ballcase_34mm_top_pla_Black_qty1.stl
G0 F12000 X153.208 Y135.793
G0 X154.192 Y131.951
;TYPE:WALL-INNER
G1 F1500 E0.6
G1 F900 X144.447 Y131.95 E0.38809
G1 X145.364 Y132.181 E0.03766
G1 X147.152 Y132.811 E0.0755
G1 X148.742 Y133.563 E0.07005
G1 X150.374 Y134.54 E0.07575
G1 X151.839 Y135.633 E0.07279
G1 F891.1 X152.723 Y136.427 E0.04779
G1 F894.6 X153.183 Y136.857 E0.02523
G1 F903.6 X154.415 Y138.216 E0.07276
G1 F900 X155.502 Y139.687 E0.07284
G1 X156.438 Y141.257 E0.07279
G1 X157.184 Y142.832 E0.0694
G1 X157.831 Y144.627 E0.07599
G1 X157.873 Y144.842 E0.00872
G1 X158.05 Y145.536 E0.02852
G1 X158.05 Y136.709 E0.35153
G1 X156.424 Y137.647 E0.07476
G1 X156.194 Y137.734 E0.00979
G1 X155.951 Y137.747 E0.00969
G1 X155.576 Y137.647 E0.01546
G1 F905.4 X153.377 Y136.375 E0.10056
G1 F896.4 X153.118 Y136.113 E0.01473
G1 F891.1 X152.977 Y135.655 E0.01928
G1 F900 X152.977 Y133.145 E0.09996
G1 X153.122 Y132.689 E0.01906
G1 X153.4 Y132.408 E0.01574
G1 X154.192 Y131.951 E0.03642
G1 F2700 E-0.6
G0 F12000 X153.262 Y132.347
G0 X143.609 Y131.97
G0 X143.353 Y133.127
G0 X136.646 Y133.126
G0 X134.754 Y132.046
G1 F1500 E0.6
G1 F734.1 X134.59 Y132.017 E0.00813
G1 F751.3 X133.675 Y131.984 E0.04368
G1 F844.3 X132.76 Y131.95 E0.03887
G1 F900 X125.808 Y131.951 E0.27686
G1 X126.6 Y132.408 E0.03642
G1 X126.878 Y132.689 E0.01574
G1 X127.023 Y133.146 E0.01909
G1 X127.023 Y135.654 E0.09988
G1 F889.3 X126.882 Y136.113 E0.01935
G1 F896.4 X126.625 Y136.373 E0.01462
G1 F907.3 X124.424 Y137.647 E0.10047
G1 F900 X124.049 Y137.748 E0.01547
G1 X123.805 Y137.733 E0.00974
G1 X123.576 Y137.647 E0.00974
G1 X121.95 Y136.709 E0.07476
G1 X121.95 Y145.547 E0.35197
G1 X122.144 Y144.799 E0.03077
G1 X122.18 Y144.635 E0.00669
G1 X122.81 Y142.847 E0.0755
G1 X123.56 Y141.261 E0.06987
G1 X124.497 Y139.69 E0.07285
G1 X125.632 Y138.158 E0.07593
G1 F905.4 X126.809 Y136.87 E0.06907
G1 F894.6 X127.277 Y136.427 E0.02582
G1 F889.3 X128.175 Y135.617 E0.04874
G1 F900 X128.339 Y135.493 E0.00819
G1 X128.601 Y134.637 E0.03565
G1 X128.885 Y134.244 E0.01931
G1 X129.208 Y134.064 E0.01473
G1 X129.422 Y134.034 E0.00861
G1 X130.379 Y134.085 E0.03817
G1 X131.257 Y133.562 E0.0407
G1 X132.838 Y132.814 E0.06965
G1 F822.7 X134.754 Y132.046 E0.08993
G1 F2700 E-0.6
G0 F12000 X133.705 Y132.101
G0 X131.354 Y133.772
G0 X131.891 Y134.827
G0 X123.126 Y153.354
G0 X122.047 Y155.246
G1 F1500 E0.6
G1 F734.1 X122.016 Y155.41 E0.00815
G1 F751.3 X121.984 Y156.324 E0.04363
G1 F844.3 X121.951 Y157.239 E0.03887
G1 F900 X121.95 Y163.291 E0.24102
G1 X123.576 Y162.353 E0.07476
G1 X123.807 Y162.266 E0.00983
G1 X124.049 Y162.252 E0.00965
G1 X124.424 Y162.353 E0.01547
G1 F903.6 X126.598 Y163.609 E0.09959
G1 F910.9 X126.815 Y163.798 E0.01132
G1 F912.8 X126.924 Y163.978 E0.00826
G1 F905.4 X127.023 Y164.345 E0.01505
G1 F900 X127.023 Y166.855 E0.09996
G1 X126.878 Y167.311 E0.01906
G1 X126.6 Y167.592 E0.01574
G1 X125.808 Y168.049 E0.03642
G1 X135.544 Y168.049 E0.38773
G1 X134.635 Y167.82 E0.03733
G1 X132.919 Y167.22 E0.0724
G1 X131.259 Y166.439 E0.07306
G1 X129.625 Y165.461 E0.07584
G1 X128.158 Y164.367 E0.07288
G1 F903.6 X126.819 Y163.141 E0.07201
G1 X125.588 Y161.785 E0.07264
G1 F900 X124.54 Y160.374 E0.07
G1 X123.563 Y158.742 E0.07575
G1 X122.815 Y157.161 E0.06965
G1 F822.7 X122.047 Y155.246 E0.08989
G1 F2700 E-0.6
G0 F12000 X122.101 Y156.29
G0 X123.773 Y158.645
G0 X124.83 Y158.113
G0 X143.354 Y166.874
G0 X145.246 Y167.953
G1 F1500 E0.6
G1 F734.1 X145.41 Y167.984 E0.00815
G1 F751.3 X146.324 Y168.016 E0.04363
G1 F844.3 X147.239 Y168.049 E0.03887
G1 F900 X154.192 Y168.049 E0.2769
G1 X153.4 Y167.592 E0.03642
G1 X153.122 Y167.311 E0.01574
G1 X152.977 Y166.855 E0.01906
G1 X152.977 Y164.345 E0.09996
G1 F903.6 X153.075 Y163.977 E0.01511
G1 F909.1 X153.186 Y163.799 E0.00827
G1 X153.402 Y163.609 E0.01134
G1 F903.6 X155.576 Y162.353 E0.09959
G1 F900 X155.951 Y162.253 E0.01546
G1 X156.195 Y162.266 E0.00973
G1 X156.424 Y162.353 E0.00976
G1 X158.05 Y163.293 E0.0748
G1 X158.05 Y157.22 E0.24186
G1 F839.6 X158.014 Y156.312 E0.0388
G1 F740.1 X157.978 Y155.403 E0.04405
G1 F722.3 X157.945 Y155.242 E0.00816
G1 F782.6 X157.567 Y156.197 E0.04704
G1 F857.1 X157.188 Y157.152 E0.04296
G1 F900 X156.404 Y158.803 E0.07279
G1 X155.461 Y160.371 E0.07287
G1 X154.367 Y161.84 E0.07294
G1 F903.6 X153.194 Y163.13 E0.06916
G1 X151.847 Y164.361 E0.07238
G1 F900 X151.66 Y164.506 E0.00942
G1 X151.398 Y165.364 E0.03573
G1 X151.119 Y165.753 E0.01906
G1 X150.797 Y165.935 E0.01473
G1 X150.58 Y165.966 E0.00873
G1 X149.622 Y165.916 E0.0382
G1 X148.75 Y166.433 E0.04037
G1 X147.161 Y167.184 E0.06999
G1 F822.7 X145.246 Y167.953 E0.08991
G0 F12000 X145.142 Y167.382
M204 P800
;TYPE:WALL-OUTER
G1 F839.6 X145.116 Y167.361 E0.00143
G1 F738.9 X143.559 Y167.84 E0.07902
G1 F735.3 X142.678 Y167.937 E0.0432
G1 F827.2 X141.797 Y168.035 E0.03841
G1 F922.1 X140 Y168.102 E0.0699
G1 X138.216 Y168.036 E0.06939
G1 F828.7 X137.345 Y167.94 E0.0379
G1 F741.4 X136.474 Y167.844 E0.04237
G1 F715.4 X136.443 Y167.827 E0.00177
G1 F805 X134.863 Y167.356 E0.07341
G1 F900 X134.8 Y167.348 E0.00253
G1 X133.085 Y166.748 E0.07236
G1 X131.473 Y165.987 E0.07099
G1 X129.923 Y165.059 E0.07195
G1 X128.494 Y163.997 E0.0709
G1 F901.8 X127.188 Y162.806 E0.07025
G1 X126.005 Y161.506 E0.06986
G1 F900 X124.942 Y160.076 E0.07096
G1 X124.015 Y158.528 E0.07186
G1 X123.258 Y156.925 E0.0706
G1 X122.64 Y155.203 E0.07286
G1 X122.634 Y155.124 E0.00316
G1 F803.6 X122.172 Y153.552 E0.07308
G1 F715.4 X122.155 Y153.522 E0.00173
G1 F741.4 X122.06 Y152.659 E0.04198
G1 F828.7 X121.965 Y151.796 E0.03755
G1 F922.1 X121.898 Y150.007 E0.06959
G1 X121.964 Y148.217 E0.06962
G1 F828.7 X122.059 Y147.348 E0.03781
G1 F741.4 X122.155 Y146.478 E0.04232
G1 F715.4 X122.172 Y146.447 E0.00177
G1 F805 X122.644 Y144.861 E0.07368
G1 F900 X122.652 Y144.8 E0.00245
G1 X123.262 Y143.061 E0.07339
G1 X124.012 Y141.475 E0.06987
G1 X124.926 Y139.947 E0.07091
G1 X126.002 Y138.495 E0.07197
G1 F901.8 X127.177 Y137.205 E0.06935
G1 X128.499 Y135.999 E0.07112
