;FLAVOR:RepRap
;TIME:1220
;Filament used: 2.37142m
;Layer height: 0.24
;MINX:118.37
;MINY:128.37
;MINZ:0.2
;MAXX:161.63
;MAXY:171.63
;MAXZ:16.76
;Exported with Cura-DuetRRF v1.2.9 plugin by Thomas Kriechbaumer
;LINEARADVANCEPROCESSED
;Generated with Cura_SteamEngine 5.3.0
T0
M104 S215
M109 S215
M82 ;absolute extrusion mode

M83 ;relative extrusion mode
G1 F2700 E-0.6
;LAYER_COUNT:70
M572 S0.050000 D0 ;added by LinearAdvanceSettingPlugin
;LAYER:0
M107
M204 T5000
G1 F600 Z0.4
G0 F12000 X119.81 Y129.371 Z0.4
M204 P6000
;TYPE:SKIRT
G1 F600 Z0.2
G1 F1500 E0.6
G1 F1800 X120.487 Y128.916 E0.03248
G1 X121.153 Y128.59 E0.02953
G1 X122.256 Y128.37 E0.04479
G1 X157.745 Y128.37 E1.41334
G1 X158.747 Y128.57 E0.04069
G1 X159.378 Y128.825 E0.0271
G1 X160.142 Y129.345 E0.03681
G1 X160.629 Y129.81 E0.02682
G1 X161.084 Y130.487 E0.03248
G1 X161.41 Y131.153 E0.02953
G1 X161.63 Y132.256 E0.04479
G1 X161.63 Y167.745 E1.41334
G1 X161.43 Y168.747 E0.04069
G1 X161.175 Y169.378 E0.0271
G1 X160.655 Y170.142 E0.03681
G1 X160.191 Y170.628 E0.02676
G1 X159.204 Y171.288 E0.04729
G1 X158.885 Y171.408 E0.01357
G1 X157.755 Y171.63 E0.04586
G1 X122.255 Y171.63 E1.41378
G1 X121.253 Y171.43 E0.04069
G1 X120.622 Y171.175 E0.0271
G1 X119.858 Y170.655 E0.03681
G1 X119.371 Y170.19 E0.02682
G1 X118.916 Y169.513 E0.03248
G1 X118.59 Y168.847 E0.02953
G1 X118.37 Y167.744 E0.04479
G1 X118.37 Y132.255 E1.41334
G1 X118.57 Y131.253 E0.04069
G1 X118.825 Y130.622 E0.0271
G1 X119.345 Y129.858 E0.03681
G1 X119.81 Y129.371 E0.02682
G0 F12000 X120.134 Y129.756
G1 F1800 X120.766 Y129.331 E0.03033
G1 X121.314 Y129.067 E0.02422
G1 X122.304 Y128.87 E0.0402
G1 X157.697 Y128.87 E1.40952
G1 X158.6 Y129.05 E0.03667
G1 X159.144 Y129.27 E0.02337
G1 X159.824 Y129.733 E0.03276
G1 X160.244 Y130.134 E0.02313
G1 X160.669 Y130.766 E0.03033
G1 X160.933 Y131.314 E0.02422
G1 X161.13 Y132.304 E0.0402
G1 X161.13 Y167.697 E1.40952
G1 X160.95 Y168.6 E0.03667
G1 X160.73 Y169.144 E0.02337
G1 X160.267 Y169.824 E0.03276
G1 X159.868 Y170.242 E0.02301
G1 X158.971 Y170.842 E0.04298
G1 X158.789 Y170.917 E0.00784
G1 X157.705 Y171.13 E0.044
G1 X122.303 Y171.13 E1.40988
G1 X121.4 Y170.95 E0.03667
G1 X120.856 Y170.73 E0.02337
G1 X120.176 Y170.267 E0.03276
G1 X119.756 Y169.866 E0.02313
G1 X119.331 Y169.234 E0.03033
G1 X119.067 Y168.686 E0.02422
G1 X118.87 Y167.696 E0.0402
G1 X118.87 Y132.303 E1.40952
G1 X119.05 Y131.4 E0.03667
G1 X119.27 Y130.856 E0.02337
G1 X119.733 Y130.176 E0.03276
G1 X120.134 Y129.756 E0.02313
G0 F12000 X120.413 Y130.171
G1 F1800 X120.104 Y130.512 E0.01833
G1 X119.714 Y131.092 E0.02783
G1 X119.53 Y131.547 E0.01955
G1 X119.37 Y132.351 E0.03265
G1 X119.37 Y167.649 E1.40574
G1 X119.544 Y168.526 E0.03561
G1 X119.746 Y168.955 E0.01888
G1 X120.171 Y169.587 E0.03033
G1 X120.512 Y169.896 E0.01833
G1 X121.092 Y170.286 E0.02783
G1 X121.547 Y170.47 E0.01955
G1 X122.351 Y170.63 E0.03265
G1 X157.655 Y170.63 E1.40598
G1 X158.693 Y170.426 E0.04213
G1 X159.59 Y169.826 E0.04298
G1 X159.896 Y169.488 E0.01816
G1 X160.286 Y168.908 E0.02783
G1 X160.47 Y168.453 E0.01955
G1 X160.63 Y167.649 E0.03265
G1 X160.63 Y132.351 E1.40574
G1 X160.456 Y131.474 E0.03561
G1 X160.254 Y131.045 E0.01888
G1 X159.829 Y130.413 E0.03033
G1 X159.488 Y130.104 E0.01833
G1 X158.908 Y129.714 E0.02783
G1 X158.453 Y129.53 E0.01955
G1 X157.649 Y129.37 E0.03265
G1 X122.351 Y129.37 E1.40574
G1 X121.474 Y129.544 E0.03561
G1 X121.045 Y129.746 E0.01888
G1 X120.413 Y130.171 E0.03033
G0 F12000 X120.743 Y130.552
G1 F1800 X121.324 Y130.161 E0.02789
G1 X121.631 Y130.022 E0.01342
G1 X122.398 Y129.87 E0.03114
G1 X157.602 Y129.87 E1.40199
G1 X158.312 Y130.011 E0.02883
G1 X158.629 Y130.129 E0.01347
G1 X159.209 Y130.519 E0.02783
G1 X159.448 Y130.743 E0.01305
G1 X159.839 Y131.324 E0.02789
G1 X159.978 Y131.631 E0.01342
G1 X160.13 Y132.398 E0.03114
G1 X160.13 Y167.602 E1.40199
G1 X159.989 Y168.312 E0.02883
G1 X159.871 Y168.629 E0.01347
G1 X159.481 Y169.209 E0.02783
G1 X159.259 Y169.447 E0.01296
G1 X158.502 Y169.954 E0.03628
G1 X157.605 Y170.13 E0.0364
G1 X122.398 Y170.13 E1.40211
G1 X121.688 Y169.989 E0.02883
G1 X121.371 Y169.871 E0.01347
G1 X120.791 Y169.481 E0.02783
G1 X120.552 Y169.257 E0.01305
G1 X120.161 Y168.676 E0.02789
G1 X120.022 Y168.369 E0.01342
G1 X119.87 Y167.602 E0.03114
G1 X119.87 Y132.398 E1.40199
G1 X120.011 Y131.688 E0.02883
G1 X120.129 Y131.371 E0.01347
G1 X120.519 Y130.791 E0.02783
G1 X120.743 Y130.552 E0.01305
G0 F12000 X121.07 Y130.934
G1 F1800 X121.603 Y130.576 E0.02557
G1 X121.785 Y130.501 E0.00784
G1 X122.445 Y130.37 E0.0268
G1 X157.555 Y130.37 E1.39825
G1 X158.215 Y130.501 E0.0268
G1 X158.397 Y130.576 E0.00784
G1 X158.93 Y130.934 E0.02557
G1 X159.066 Y131.07 E0.00766
G1 X159.424 Y131.603 E0.02557
G1 X159.499 Y131.785 E0.00784
G1 X159.63 Y132.445 E0.0268
G1 X159.63 Y167.555 E1.39825
G1 X159.499 Y168.215 E0.0268
G1 X159.424 Y168.397 E0.00784
G1 X159.066 Y168.93 E0.02557
G1 X158.93 Y169.066 E0.00766
G1 X158.311 Y169.481 E0.02968
G1 X157.554 Y169.63 E0.03073
G1 X122.445 Y169.63 E1.39821
G1 X121.785 Y169.499 E0.0268
G1 X121.603 Y169.424 E0.00784
G1 X121.07 Y169.066 E0.02557
G1 X120.934 Y168.93 E0.00766
G1 X120.576 Y168.397 E0.02557
G1 X120.501 Y168.215 E0.00784
G1 X120.37 Y167.555 E0.0268
G1 X120.37 Y132.445 E1.39825
G1 X120.501 Y131.785 E0.0268
G1 X120.576 Y131.603 E0.00784
G1 X120.934 Y131.07 E0.02557
G1 X121.07 Y130.934 E0.00766
G0 F12000 X121.349 Y131.349
G1 F1800 X121.882 Y130.991 E0.02557
G1 X122.492 Y130.87 E0.02477
G1 X157.508 Y130.87 E1.39451
G1 X158.118 Y130.991 E0.02477
G1 X158.651 Y131.349 E0.02557
G1 X159.009 Y131.882 E0.02557
G1 X159.13 Y132.492 E0.02477
G1 X159.13 Y167.508 E1.39451
G1 X159.009 Y168.118 E0.02477
G1 X158.651 Y168.651 E0.02557
G1 X158.118 Y169.009 E0.02557
G1 X157.508 Y169.13 E0.02477
G1 X122.492 Y169.13 E1.39451
G1 X121.882 Y169.009 E0.02477
G1 X121.349 Y168.651 E0.02557
G1 X120.991 Y168.118 E0.02557
G1 X120.87 Y167.508 E0.02477
G1 X120.87 Y132.492 E1.39451
G1 X120.991 Y131.882 E0.02477
G1 X121.349 Y131.349 E0.02557
G1 F2700 E-0.6
G1 F600 Z0.4
G0 F12000 X144.363 Y137.505 Z0.4
G1 F600 Z0.2
G1 F1500 E0.6
G1 F1800 X146.833 Y135.035 E0.13911
G1 X154.965 Y143.167 E0.458
G1 X152.496 Y145.636 E0.13906
G1 X152.284 Y145.044 E0.02504
G1 X152.198 Y144.835 E0.009
G1 X151.726 Y143.843 E0.04375
G1 X151.629 Y143.662 E0.00818
G1 X151.074 Y142.727 E0.0433
G1 X150.933 Y142.518 E0.01004
G1 X150.284 Y141.66 E0.04284
G1 X150.16 Y141.509 E0.00778
G1 X149.449 Y140.722 E0.04224
G1 X149.288 Y140.561 E0.00907
G1 X148.458 Y139.811 E0.04455
G1 X148.295 Y139.677 E0.0084
G1 X147.459 Y139.053 E0.04155
G1 X147.264 Y138.923 E0.00933
G1 X146.349 Y138.378 E0.04241
G1 X146.162 Y138.278 E0.00845
G1 X145.15 Y137.798 E0.04461
G1 X144.945 Y137.713 E0.00884
G1 X144.363 Y137.505 E0.02461
G0 F12000 X143.777 Y137.826
G1 F1800 X143.609 Y137.775 E0.00699
G1 X143.43 Y137.73 E0.00735
G1 X146.833 Y134.327 E0.19166
G1 X155.673 Y143.167 E0.49788
G1 X152.27 Y146.57 E0.19166
G1 X152.223 Y146.383 E0.00768
G1 X152.173 Y146.215 E0.00698
G1 X151.814 Y145.212 E0.04243
G1 X151.746 Y145.05 E0.007
G1 X151.274 Y144.058 E0.04375
G1 X151.199 Y143.917 E0.00636
G1 X150.644 Y142.982 E0.0433
G1 X150.535 Y142.819 E0.00781
G1 X149.886 Y141.961 E0.04284
G1 X149.789 Y141.844 E0.00605
G1 X149.078 Y141.057 E0.04224
G1 X148.952 Y140.932 E0.00707
G1 X148.122 Y140.182 E0.04455
G1 X147.996 Y140.078 E0.00651
G1 X147.16 Y139.454 E0.04155
G1 X147.009 Y139.352 E0.00726
G1 X146.094 Y138.807 E0.04241
G1 X145.948 Y138.73 E0.00657
G1 X144.936 Y138.25 E0.04461
G1 X144.776 Y138.184 E0.00689
G1 X143.777 Y137.826 E0.04226
G0 F12000 X143.609 Y138.296
G1 F1800 X143.489 Y138.26 E0.00499
G1 X142.452 Y138.002 E0.04256
G1 X146.833 Y133.621 E0.24674
G1 X156.379 Y143.167 E0.53764
G1 X151.997 Y147.549 E0.2468
G1 X151.995 Y147.537 E0.00048
G1 X151.738 Y146.503 E0.04243
G1 X151.702 Y146.384 E0.00495
G1 X151.343 Y145.381 E0.04243
G1 X151.295 Y145.265 E0.005
G1 X150.823 Y144.273 E0.04375
G1 X150.769 Y144.172 E0.00456
G1 X150.214 Y143.237 E0.0433
G1 X150.136 Y143.121 E0.00557
G1 X149.487 Y142.263 E0.04284
G1 X149.418 Y142.179 E0.00433
G1 X148.707 Y141.392 E0.04224
G1 X148.617 Y141.303 E0.00504
G1 X147.787 Y140.553 E0.04455
G1 X147.697 Y140.478 E0.00467
G1 X146.861 Y139.854 E0.04155
G1 X146.753 Y139.782 E0.00517
G1 X145.838 Y139.237 E0.04241
G1 X145.734 Y139.182 E0.00469
G1 X144.722 Y138.702 E0.04461
G1 X144.608 Y138.654 E0.00493
G1 X143.609 Y138.296 E0.04226
G0 F12000 X143.44 Y138.767
G1 F1800 X143.368 Y138.745 E0.003
G1 X142.326 Y138.486 E0.04276
G1 X142.255 Y138.472 E0.00288
G1 X141.4 Y138.346 E0.03442
G1 X146.833 Y132.913 E0.30599
G1 X157.087 Y143.167 E0.57751
G1 X151.655 Y148.599 E0.30593
G1 X151.524 Y147.728 E0.03508
G1 X151.51 Y147.658 E0.00284
G1 X151.253 Y146.624 E0.04243
G1 X151.231 Y146.552 E0.003
G1 X150.872 Y145.549 E0.04243
G1 X150.843 Y145.48 E0.00298
G1 X150.371 Y144.488 E0.04375
G1 X150.339 Y144.427 E0.00274
G1 X149.784 Y143.492 E0.0433
G1 X149.737 Y143.423 E0.00332
G1 X149.088 Y142.565 E0.04284
G1 X149.047 Y142.514 E0.00261
G1 X148.336 Y141.727 E0.04224
G1 X148.282 Y141.674 E0.00301
G1 X147.452 Y140.924 E0.04455
G1 X147.398 Y140.879 E0.0028
G1 X146.562 Y140.255 E0.04155
G1 X146.497 Y140.212 E0.0031
G1 X145.582 Y139.667 E0.04241
G1 X145.519 Y139.633 E0.00285
G1 X144.507 Y139.153 E0.04461
G1 X144.439 Y139.125 E0.00293
G1 X143.44 Y138.767 E0.04226
G0 F12000 X143.271 Y139.238
G1 F1800 X143.247 Y139.23 E0.00101
G1 X142.205 Y138.971 E0.04276
G1 X142.182 Y138.967 E0.00093
G1 X141.139 Y138.813 E0.04199
G1 X141.116 Y138.81 E0.00092
G1 X140.53 Y138.778 E0.02337
G1 X140.456 Y138.584 E0.00827
G1 X146.833 Y132.207 E0.35916
G1 X157.793 Y143.167 E0.61728
G1 X151.415 Y149.545 E0.35921
G1 X151.223 Y149.471 E0.00819
G1 X151.189 Y148.872 E0.02389
G1 X151.186 Y148.849 E0.00092
G1 X151.029 Y147.802 E0.04216
G1 X151.025 Y147.779 E0.00093
G1 X150.768 Y146.745 E0.04243
G1 X150.76 Y146.721 E0.00101
G1 X150.401 Y145.718 E0.04243
G1 X150.392 Y145.695 E0.00098
G1 X149.92 Y144.703 E0.04375
G1 X149.909 Y144.682 E0.00094
G1 X149.354 Y143.747 E0.0433
G1 X149.338 Y143.724 E0.00112
G1 X148.689 Y142.866 E0.04284
G1 X148.676 Y142.849 E0.00085
G1 X147.965 Y142.062 E0.04224
G1 X147.947 Y142.045 E0.00099
G1 X147.117 Y141.295 E0.04455
G1 X147.099 Y141.28 E0.00093
G1 X146.263 Y140.656 E0.04155
G1 X146.241 Y140.641 E0.00106
G1 X145.326 Y140.096 E0.04241
G1 X145.305 Y140.085 E0.00094
G1 X144.293 Y139.605 E0.04461
G1 X144.27 Y139.596 E0.00098
G1 X143.271 Y139.238 E0.04226
G1 F2700 E-0.6
G0 F12000 X145.27 Y137.306
G1 F1500 E0.6
G1 F1800 X146.833 Y135.743 E0.08803
G1 X154.257 Y143.167 E0.41813
G1 X152.695 Y144.729 E0.08797
G1 X152.649 Y144.62 E0.00471
G1 X152.177 Y143.628 E0.04375
G1 X152.059 Y143.406 E0.01001
G1 X151.504 Y142.471 E0.0433
G1 X151.332 Y142.216 E0.01225
G1 X150.683 Y141.358 E0.04284
G1 X150.531 Y141.173 E0.00954
G1 X149.82 Y140.386 E0.04224
G1 X149.623 Y140.19 E0.01107
G1 X148.793 Y139.44 E0.04455
G1 X148.594 Y139.276 E0.01027
G1 X147.758 Y138.652 E0.04155
G1 X147.52 Y138.493 E0.0114
G1 X146.605 Y137.948 E0.04241
G1 X146.377 Y137.826 E0.0103
G1 X145.365 Y137.346 E0.04461
G1 X145.27 Y137.306 E0.00411
G0 F12000 X146.127 Y137.155
G1 F1800 X146.833 Y136.449 E0.03976
G1 X153.551 Y143.167 E0.37836
G1 X152.847 Y143.871 E0.03965
G1 X152.629 Y143.414 E0.02016
G1 X152.489 Y143.151 E0.01187
G1 X151.934 Y142.216 E0.0433
G1 X151.731 Y141.914 E0.01449
G1 X151.082 Y141.056 E0.04284
G1 X150.902 Y140.838 E0.01126
G1 X150.191 Y140.051 E0.04224
G1 X149.958 Y139.819 E0.01309
G1 X149.128 Y139.069 E0.04455
G1 X148.893 Y138.876 E0.01211
G1 X148.057 Y138.252 E0.04155
G1 X147.776 Y138.064 E0.01346
G1 X146.861 Y137.519 E0.04241
G1 X146.591 Y137.375 E0.01219
G1 X146.127 Y137.155 E0.02045
G1 F2700 E-0.6
G0 F12000 X128.777 Y150.529
G1 F1500 E0.6
G1 F1800 X128.807 Y151.054 E0.02094
G1 X128.809 Y151.074 E0.0008
G1 X128.965 Y152.195 E0.04507
G1 X128.971 Y152.223 E0.00114
G1 X129.24 Y153.276 E0.04328
G1 X129.247 Y153.298 E0.00092
G1 X129.607 Y154.301 E0.04244
G1 X129.616 Y154.324 E0.00098
G1 X130.082 Y155.304 E0.04322
G1 X130.093 Y155.325 E0.00094
G1 X130.645 Y156.249 E0.04286
G1 X130.66 Y156.271 E0.00106
G1 X131.294 Y157.116 E0.04207
G1 X131.308 Y157.133 E0.00088
G1 X132.055 Y157.964 E0.0445
G1 X132.074 Y157.983 E0.00107
G1 X132.825 Y158.655 E0.04013
G1 X132.843 Y158.669 E0.00091
G1 X133.748 Y159.344 E0.04496
G1 X133.767 Y159.358 E0.00094
G1 X134.651 Y159.894 E0.04117
G1 X134.674 Y159.906 E0.00103
G1 X135.702 Y160.392 E0.04528
G1 X135.724 Y160.401 E0.00095
G1 X136.682 Y160.749 E0.04059
G1 X136.708 Y160.757 E0.00108
G1 X137.786 Y161.021 E0.0442
G1 X137.807 Y161.025 E0.00085
G1 X138.881 Y161.19 E0.04327
G1 X138.906 Y161.193 E0.001
G1 X139.469 Y161.223 E0.02245
G1 X139.543 Y161.417 E0.00827
G1 X136.933 Y164.027 E0.147
G1 X125.973 Y153.067 E0.61728
G1 X128.585 Y150.455 E0.14711
G1 X128.777 Y150.529 E0.00819
G0 F12000 X128.349 Y151.397
G1 F1800 X128.47 Y152.264 E0.03486
G1 X128.486 Y152.347 E0.00337
G1 X128.755 Y153.4 E0.04328
G1 X128.776 Y153.467 E0.0028
G1 X129.136 Y154.47 E0.04244
G1 X129.165 Y154.539 E0.00298
G1 X129.631 Y155.519 E0.04322
G1 X129.664 Y155.582 E0.00283
G1 X130.216 Y156.506 E0.04286
G1 X130.26 Y156.571 E0.00313
G1 X130.491 Y156.879 E0.01533
G1 X126.679 Y153.067 E0.2147
G1 X128.349 Y151.397 E0.09406
G1 F2700 E-0.6
G0 F12000 X127.999 Y152.455
G1 F1500 E0.6
G1 F1800 X128.002 Y152.47 E0.00061
G1 X128.271 Y153.523 E0.04328
G1 X128.305 Y153.636 E0.0047
G1 X128.5 Y154.18 E0.02301
G1 X127.387 Y153.067 E0.06269
G1 X127.999 Y152.455 E0.03447
G1 F2700 E-0.6
G0 F12000 X133.087 Y159.475
G1 F1500 E0.6
G1 F1800 X133.449 Y159.745 E0.01798
G1 X133.508 Y159.785 E0.00284
G1 X134.392 Y160.321 E0.04117
G1 X134.46 Y160.358 E0.00308
G1 X135.488 Y160.844 E0.04528
G1 X135.553 Y160.871 E0.0028
G1 X136.511 Y161.219 E0.04059
G1 X136.589 Y161.242 E0.00324
G1 X137.667 Y161.506 E0.0442
G1 X137.731 Y161.519 E0.0026
G1 X138.601 Y161.653 E0.03506
G1 X136.933 Y163.321 E0.09394
G1 X133.087 Y159.475 E0.21661
G1 F2700 E-0.6
G0 F12000 X135.82 Y161.5
G1 F1500 E0.6
G1 F1800 X136.34 Y161.689 E0.02203
G1 X136.47 Y161.728 E0.00541
G1 X137.548 Y161.992 E0.0442
G1 X137.553 Y161.993 E0.0002
G1 X136.933 Y162.613 E0.03492
G1 X135.82 Y161.5 E0.06269
G1 F2700 E-0.6
G1 F600 Z0.4
G0 F12000 X134.6 Y166 Z0.4
G1 F600 Z0.2
G1 F1500 E0.6
G1 F1800 X145.4 Y166 E0.43011
G1 X145.4 Y166.6 E0.02389
G1 X134.6 Y166.6 E0.43011
G1 X134.6 Y166 E0.02389
G0 F12000 X134.1 Y165.5
G1 F1800 X145.9 Y165.5 E0.46993
G1 X145.9 Y167.1 E0.06372
G1 X134.1 Y167.1 E0.46993
G1 X134.1 Y165.5 E0.06372
G1 F2700 E-0.6
;MESH:4881030_Meishi_trackball_module_ballcase_34mm_bottom_pla_Black_qty1.stl
G0 F12000 X133.03 Y165.5
G0 X133.039 Y168.049
;TYPE:WALL-INNER
G1 F1500 E0.6
G1 F900 X132.924 Y167.978 E0.00538
G1 X132.8 Y167.549 E0.01778
G1 X132.8 Y164.999 E0.10155
G1 X132.831 Y164.782 E0.00873
G1 X133.003 Y164.485 E0.01367
G1 X133.323 Y164.275 E0.01524
G1 X133.651 Y164.2 E0.0134
G1 X135.266 Y164.199 E0.06432
G1 X124.701 Y153.633 E0.59506
G1 X124.554 Y153.424 E0.01018
G1 X124.493 Y153.232 E0.00802
G1 X124.493 Y152.972 E0.01035
G1 X124.549 Y152.772 E0.00827
G1 X124.734 Y152.466 E0.01424
G1 X128.197 Y149.004 E0.19501
G1 X128.21 Y148.81 E0.00774
G1 X128.367 Y147.741 E0.04303
G1 X128.635 Y146.71 E0.04242
G1 X128.657 Y146.603 E0.00435
G1 X129.032 Y145.514 E0.04587
G1 X129.565 Y144.387 E0.04965
G1 X130.125 Y143.451 E0.04344
G1 X130.833 Y142.49 E0.04754
G1 X131.584 Y141.661 E0.04455
G1 X132.507 Y140.82 E0.04973
G1 X133.382 Y140.17 E0.04341
G1 X134.458 Y139.527 E0.04992
G1 X135.496 Y139.039 E0.04568
G1 X136.722 Y138.6 E0.05186
G1 X136.749 Y138.619 E0.00131
G1 X137.654 Y138.385 E0.03723
G1 X139.02 Y138.181 E0.055
G1 X145.251 Y131.951 E0.35091
G1 X124.863 Y131.95 E0.81195
G1 X125.184 Y132.271 E0.01808
G1 X125.342 Y132.503 E0.01118
G1 X125.55 Y132.983 E0.02083
G1 X125.611 Y133.294 E0.01262
G1 X125.601 Y133.977 E0.0272
G1 X125.319 Y134.625 E0.02814
G1 X124.947 Y135.064 E0.02292
G1 X124.39 Y135.436 E0.02667
G1 X123.76 Y135.57 E0.02565
G1 X123.469 Y135.575 E0.01159
G1 X122.973 Y135.484 E0.02008
G1 X122.697 Y135.376 E0.0118
G1 X122.254 Y135.088 E0.02104
G1 X121.951 Y134.738 E0.01844
G1 X121.951 Y165.262 E1.21561
