;FLAVOR:RepRap
;TIME:1406
;Filament used: 2.55734m
;Layer height: 0.24
;MINX:135.851
;MINY:138.612
;MINZ:0.2
;MAXX:167.53
;MAXY:173.005
;MAXZ:13.88
;Exported with Cura-DuetRRF v1.2.9 plugin by Thomas Kriechbaumer
;Generated with Cura_SteamEngine 5.3.0
T0
M104 S245
M109 S245
M82 ;absolute extrusion mode

M83 ;relative extrusion mode
G1 F1800 E-0.4
;LAYER_COUNT:59
;LAYER:0
M107
G0 F4800 X137.022 Y140.175 Z0.2
;TYPE:SKIRT
G1 F1800 E0.4
G1 X137.782 Y139.729 E0.0403
G1 X138.658 Y139.568 E0.04073
G1 X152.75 Y139.568 E0.64447
G1 X153.472 Y139.665 E0.03332
G1 X153.865 Y139.289 E0.02487
G1 X154.589 Y138.835 E0.03908
G1 X154.755 Y138.769 E0.00817
G1 X155.526 Y138.612 E0.03598
G1 X163.872 Y138.612 E0.38168
G1 X164.751 Y138.811 E0.04122
G1 X164.915 Y138.881 E0.00815
G1 X165.585 Y139.321 E0.03666
G1 X166.823 Y140.559 E0.08007
G1 X167.307 Y141.331 E0.04167
G1 X167.373 Y141.497 E0.00817
G1 X167.53 Y142.268 E0.03598
G1 X167.53 Y154.114 E0.54175
G1 X167.331 Y154.994 E0.04126
G1 X167.261 Y155.159 E0.0082
G1 X166.793 Y155.871 E0.03897
G1 X167.233 Y156.564 E0.03754
G1 X167.299 Y156.73 E0.00817
G1 X167.456 Y157.501 E0.03598
G1 X167.456 Y169.347 E0.54175
G1 X167.257 Y170.226 E0.04122
G1 X167.187 Y170.39 E0.00815
G1 X166.747 Y171.06 E0.03666
G1 X165.509 Y172.298 E0.08007
G1 X164.737 Y172.782 E0.04167
G1 X164.571 Y172.848 E0.00817
G1 X163.8 Y173.005 E0.03598
G1 X155.454 Y173.005 E0.38168
G1 X154.575 Y172.806 E0.04122
G1 X154.411 Y172.736 E0.00815
G1 X153.741 Y172.296 E0.03666
G1 X153.326 Y171.881 E0.02684
G1 X152.773 Y171.982 E0.02571
G1 X138.591 Y171.982 E0.64858
G1 X137.883 Y171.854 E0.0329
G1 X137.367 Y171.632 E0.02569
G1 X136.918 Y171.339 E0.02452
G1 X136.458 Y170.88 E0.02972
G1 X136.012 Y170.12 E0.0403
G1 X135.851 Y169.244 E0.04073
G1 X135.851 Y157.362 E0.5434
G1 X135.979 Y156.654 E0.0329
G1 X136.201 Y156.138 E0.02569
G1 X136.469 Y155.728 E0.0224
G1 X136.081 Y155.066 E0.03509
G1 X135.92 Y154.19 E0.04073
G1 X135.92 Y142.308 E0.5434
G1 X136.048 Y141.6 E0.0329
G1 X136.27 Y141.084 E0.02569
G1 X136.563 Y140.635 E0.02452
G1 X137.022 Y140.175 E0.02972
G0 F4800 X137.331 Y140.573
G1 F1800 X137.958 Y140.205 E0.03325
G1 X138.704 Y140.068 E0.03469
G1 X152.75 Y140.068 E0.64236
G1 X153.282 Y140.144 E0.02458
G1 X153.595 Y140.249 E0.0151
G1 X154.131 Y139.713 E0.03467
G1 X154.855 Y139.259 E0.03908
G1 X155.577 Y139.112 E0.0337
G1 X163.815 Y139.112 E0.37675
G1 X164.641 Y139.299 E0.03873
G1 X165.264 Y139.708 E0.03408
G1 X166.429 Y140.873 E0.07535
G1 X166.883 Y141.597 E0.03908
G1 X167.03 Y142.319 E0.0337
G1 X167.03 Y154.057 E0.53681
G1 X166.843 Y154.884 E0.03878
G1 X166.465 Y155.459 E0.03147
G1 X166.094 Y155.845 E0.02448
G1 X166.385 Y156.154 E0.01941
G1 X166.809 Y156.83 E0.03649
G1 X166.956 Y157.552 E0.0337
G1 X166.956 Y169.29 E0.53681
G1 X166.769 Y170.116 E0.03873
G1 X166.36 Y170.739 E0.03408
G1 X165.195 Y171.904 E0.07535
G1 X164.471 Y172.358 E0.03908
G1 X163.749 Y172.505 E0.0337
G1 X155.511 Y172.505 E0.37675
G1 X154.685 Y172.318 E0.03873
G1 X154.062 Y171.909 E0.03408
G1 X153.47 Y171.317 E0.03829
G1 X153.31 Y171.375 E0.00778
G1 X152.727 Y171.482 E0.02711
G1 X138.636 Y171.482 E0.64442
G1 X138.026 Y171.372 E0.02835
G1 X137.64 Y171.213 E0.01909
G1 X137.234 Y170.948 E0.02217
G1 X136.856 Y170.571 E0.02442
G1 X136.488 Y169.944 E0.03325
G1 X136.351 Y169.198 E0.03469
G1 X136.351 Y157.407 E0.53923
G1 X136.461 Y156.797 E0.02835
G1 X136.62 Y156.411 E0.01909
G1 X136.885 Y156.005 E0.02217
G1 X137.13 Y155.738 E0.01657
G1 X136.925 Y155.517 E0.01379
G1 X136.557 Y154.89 E0.03325
G1 X136.42 Y154.144 E0.03469
G1 X136.42 Y142.353 E0.53923
G1 X136.53 Y141.743 E0.02835
G1 X136.689 Y141.357 E0.01909
G1 X136.954 Y140.951 E0.02217
G1 X137.331 Y140.573 E0.02442
G0 F4800 X137.584 Y141.004
G1 F1800 X138.134 Y140.681 E0.02917
G1 X138.75 Y140.568 E0.02864
G1 X152.75 Y140.568 E0.64026
G1 X153.206 Y140.638 E0.0211
G1 X153.498 Y140.746 E0.01424
G1 X153.685 Y140.867 E0.01019
G1 X154.445 Y140.107 E0.04915
G1 X155.045 Y139.731 E0.03238
G1 X155.628 Y139.612 E0.02721
G1 X163.758 Y139.612 E0.37181
G1 X164.443 Y139.767 E0.03212
G1 X164.943 Y140.095 E0.02735
G1 X166.035 Y141.187 E0.07063
G1 X166.411 Y141.787 E0.03238
G1 X166.53 Y142.37 E0.02721
G1 X166.53 Y154 E0.53187
G1 X166.375 Y154.685 E0.03212
G1 X166.047 Y155.184 E0.02731
G1 X165.386 Y155.845 E0.04275
G1 X165.961 Y156.42 E0.03719
G1 X166.337 Y157.02 E0.03238
G1 X166.456 Y157.603 E0.02721
G1 X166.456 Y169.233 E0.53187
G1 X166.301 Y169.918 E0.03212
G1 X165.973 Y170.418 E0.02735
G1 X164.881 Y171.51 E0.07063
G1 X164.281 Y171.886 E0.03238
G1 X163.698 Y172.005 E0.02721
G1 X155.568 Y172.005 E0.37181
G1 X154.883 Y171.85 E0.03212
G1 X154.383 Y171.522 E0.02735
G1 X153.576 Y170.715 E0.05219
G1 X153.22 Y170.883 E0.018
G1 X152.681 Y170.982 E0.02506
G1 X138.681 Y170.982 E0.64026
G1 X138.115 Y170.88 E0.0263
G1 X137.848 Y170.758 E0.01342
G1 X137.512 Y170.533 E0.01849
G1 X137.287 Y170.318 E0.01423
G1 X136.964 Y169.768 E0.02917
G1 X136.851 Y169.152 E0.02864
G1 X136.851 Y157.452 E0.53507
G1 X136.953 Y156.886 E0.0263
G1 X137.075 Y156.619 E0.01342
G1 X137.3 Y156.283 E0.01849
G1 X137.515 Y156.058 E0.01423
G1 X138.03 Y155.762 E0.02717
G1 X137.581 Y155.479 E0.02427
G1 X137.356 Y155.264 E0.01423
G1 X137.033 Y154.714 E0.02917
G1 X136.92 Y154.098 E0.02864
G1 X136.92 Y142.398 E0.53507
G1 X137.022 Y141.832 E0.0263
G1 X137.144 Y141.565 E0.01342
G1 X137.369 Y141.229 E0.01849
G1 X137.584 Y141.004 E0.01423
G0 F4800 X137.784 Y141.507
G1 F1800 X137.933 Y141.362 E0.00951
G1 X138.31 Y141.157 E0.01963
G1 X138.75 Y141.068 E0.02053
G1 X152.75 Y141.068 E0.64026
G1 X153.123 Y141.131 E0.0173
G1 X153.305 Y141.207 E0.00902
G1 X153.733 Y141.527 E0.02444
G1 X154.759 Y140.501 E0.06636
G1 X155.236 Y140.202 E0.02575
G1 X155.628 Y140.112 E0.01839
G1 X163.7 Y140.112 E0.36915
G1 X164.247 Y140.236 E0.02565
G1 X164.589 Y140.449 E0.01843
G1 X165.641 Y141.501 E0.06804
G1 X165.94 Y141.978 E0.02575
G1 X166.03 Y142.37 E0.01839
G1 X166.03 Y153.942 E0.52922
G1 X165.906 Y154.489 E0.02565
G1 X165.693 Y154.831 E0.01843
G1 X164.679 Y155.846 E0.06561
G1 X165.567 Y156.734 E0.05743
G1 X165.866 Y157.211 E0.02575
G1 X165.956 Y157.603 E0.01839
G1 X165.956 Y169.175 E0.52922
G1 X165.832 Y169.722 E0.02565
G1 X165.619 Y170.064 E0.01843
G1 X164.567 Y171.116 E0.06804
G1 X164.09 Y171.415 E0.02575
G1 X163.698 Y171.505 E0.01839
G1 X155.626 Y171.505 E0.36915
G1 X155.079 Y171.381 E0.02565
G1 X154.737 Y171.168 E0.01843
G1 X153.629 Y170.06 E0.07166
G1 X153.498 Y170.188 E0.00838
G1 X153.121 Y170.393 E0.01963
G1 X152.681 Y170.482 E0.02053
G1 X138.681 Y170.482 E0.64026
G1 X138.308 Y170.419 E0.0173
G1 X138.126 Y170.343 E0.00902
G1 X137.79 Y170.118 E0.01849
G1 X137.645 Y169.969 E0.00951
G1 X137.44 Y169.592 E0.01963
G1 X137.351 Y169.152 E0.02053
G1 X137.351 Y157.452 E0.53507
G1 X137.414 Y157.079 E0.0173
G1 X137.49 Y156.897 E0.00902
G1 X137.715 Y156.561 E0.01849
G1 X137.864 Y156.416 E0.00951
G1 X138.241 Y156.211 E0.01963
G1 X138.681 Y156.122 E0.02053
G1 X152.681 Y156.122 E0.64026
G1 X153.054 Y156.185 E0.0173
G1 X153.236 Y156.261 E0.00902
G1 X153.572 Y156.486 E0.01849
G1 X153.743 Y156.676 E0.01169
G1 X154.648 Y155.772 E0.0585
G1 X153.776 Y154.9 E0.0564
G1 X153.567 Y155.134 E0.01435
G1 X153.19 Y155.339 E0.01963
G1 X152.75 Y155.428 E0.02053
G1 X138.75 Y155.428 E0.64026
G1 X138.377 Y155.365 E0.0173
G1 X138.195 Y155.289 E0.00902
G1 X137.859 Y155.064 E0.01849
G1 X137.714 Y154.915 E0.00951
G1 X137.509 Y154.538 E0.01963
G1 X137.42 Y154.098 E0.02053
G1 X137.42 Y142.398 E0.53507
G1 X137.483 Y142.025 E0.0173
G1 X137.559 Y141.843 E0.00902
G1 X137.784 Y141.507 E0.01849
G0 F4800 X138.199 Y141.785
G1 F1800 X138.423 Y141.644 E0.0121
G1 X138.75 Y141.568 E0.01535
G1 X152.75 Y141.568 E0.64026
G1 X153.027 Y141.622 E0.01291
G1 X153.363 Y141.847 E0.01849
G1 X153.504 Y142.071 E0.0121
G1 X153.58 Y142.398 E0.01535
G1 X153.58 Y154.098 E0.53507
G1 X153.526 Y154.375 E0.01291
G1 X153.301 Y154.711 E0.01849
G1 X153.077 Y154.852 E0.0121
G1 X152.75 Y154.928 E0.01535
G1 X138.75 Y154.928 E0.64026
G1 X138.473 Y154.874 E0.01291
G1 X138.137 Y154.649 E0.01849
G1 X137.996 Y154.425 E0.0121
G1 X137.92 Y154.098 E0.01535
G1 X137.92 Y142.398 E0.53507
G1 X137.974 Y142.121 E0.01291
G1 X138.199 Y141.785 E0.01849
G0 F4800 X138.568 Y142.123
G1 F1800 X138.459 Y142.242 E0.00738
G1 X138.42 Y142.398 E0.00735
G1 X138.42 Y154.098 E0.53507
G1 X138.475 Y154.28 E0.0087
G1 X138.594 Y154.389 E0.00738
G1 X138.75 Y154.428 E0.00735
G1 X152.75 Y154.428 E0.64026
G1 X152.932 Y154.373 E0.0087
G1 X153.041 Y154.254 E0.00738
G1 X153.08 Y154.098 E0.00735
G1 X153.08 Y142.398 E0.53507
G1 X153.025 Y142.216 E0.0087
G1 X152.906 Y142.107 E0.00738
G1 X152.75 Y142.068 E0.00735
G1 X138.75 Y142.068 E0.64026
G1 X138.568 Y142.123 E0.0087
G1 F1800 E-0.4
G0 F4800 X138.568 Y141.733
G0 X153.403 Y141.745
G0 X154.37 Y142.442
G1 F1800 E0.4
G1 X154.37 Y148.157 E0.26136
G1 X154.494 Y148.59 E0.0206
G1 X154.592 Y148.736 E0.00804
G1 X154.772 Y148.892 E0.01089
G1 X154.988 Y148.973 E0.01055
G1 X161.37 Y148.974 E0.29187
G1 X161.37 Y150.54 E0.07162
G1 X154.863 Y150.543 E0.29758
G1 X154.715 Y150.578 E0.00696
G1 X154.593 Y150.683 E0.00736
G1 X154.43 Y150.915 E0.01297
G1 X154.37 Y151.105 E0.00911
G1 X154.37 Y154.014 E0.13304
G1 X154.467 Y154.175 E0.0086
G1 X155.519 Y155.227 E0.06804
G1 X155.7 Y155.272 E0.00853
G1 X163.772 Y155.272 E0.36915
G1 X163.933 Y155.175 E0.0086
G1 X164.985 Y154.123 E0.06804
G1 X165.03 Y153.942 E0.00853
G1 X165.03 Y142.37 E0.52922
G1 X164.933 Y142.209 E0.0086
G1 X163.881 Y141.157 E0.06804
G1 X163.7 Y141.112 E0.00853
G1 X155.628 Y141.112 E0.36915
G1 X155.467 Y141.209 E0.0086
G1 X154.415 Y142.261 E0.06804
G1 X154.37 Y142.442 E0.00853
G1 F1800 E-0.4
G0 F4800 X154.035 Y142.442
G0 X153.403 Y154.751
G0 X138.681 Y156.622
G1 F1800 E0.4
G1 X152.681 Y156.622 E0.64026
G1 X152.958 Y156.676 E0.01291
G1 X153.294 Y156.901 E0.01849
G1 X153.435 Y157.125 E0.0121
G1 X153.511 Y157.452 E0.01535
G1 X153.511 Y169.152 E0.53507
G1 X153.457 Y169.429 E0.01291
G1 X153.232 Y169.765 E0.01849
G1 X153.008 Y169.906 E0.0121
G1 X152.681 Y169.982 E0.01535
G1 X138.681 Y169.982 E0.64026
G1 X138.404 Y169.928 E0.01291
G1 X138.068 Y169.703 E0.01849
G1 X137.927 Y169.479 E0.0121
G1 X137.851 Y169.152 E0.01535
G1 X137.851 Y157.452 E0.53507
G1 X137.905 Y157.175 E0.01291
G1 X138.13 Y156.839 E0.01849
G1 X138.354 Y156.698 E0.0121
G1 X138.681 Y156.622 E0.01535
G0 F4800 X138.499 Y157.177
G1 F1800 X138.681 Y157.122 E0.0087
G1 X152.681 Y157.122 E0.64026
G1 X152.837 Y157.161 E0.00735
G1 X152.956 Y157.27 E0.00738
G1 X153.011 Y157.452 E0.0087
G1 X153.011 Y169.152 E0.53507
G1 X152.972 Y169.308 E0.00735
G1 X152.863 Y169.427 E0.00738
G1 X152.681 Y169.482 E0.0087
G1 X138.681 Y169.482 E0.64026
G1 X138.525 Y169.443 E0.00735
G1 X138.406 Y169.334 E0.00738
G1 X138.351 Y169.152 E0.0087
G1 X138.351 Y157.452 E0.53507
G1 X138.39 Y157.296 E0.00735
G1 X138.499 Y157.177 E0.00738
G1 F1800 E-0.4
G0 F4800 X138.499 Y156.787
G0 X153.334 Y156.799
G0 X153.961 Y157.675
G0 X154.296 Y157.675
G1 F1800 E0.4
G1 X154.341 Y157.494 E0.00853
G1 X155.393 Y156.442 E0.06804
G1 X155.554 Y156.345 E0.0086
G1 X163.626 Y156.345 E0.36915
G1 X163.807 Y156.39 E0.00853
G1 X164.859 Y157.442 E0.06804
G1 X164.956 Y157.603 E0.0086
G1 X164.956 Y169.175 E0.52922
G1 X164.911 Y169.356 E0.00853
G1 X163.859 Y170.408 E0.06804
G1 X163.698 Y170.505 E0.0086
G1 X155.626 Y170.505 E0.36915
G1 X155.445 Y170.46 E0.00853
G1 X154.393 Y169.408 E0.06804
G1 X154.296 Y169.247 E0.0086
G1 X154.296 Y166.333 E0.13327
G1 X154.335 Y166.177 E0.00735
G1 X154.665 Y165.859 E0.02096
G1 X154.883 Y165.776 E0.01067
G1 X161.296 Y165.773 E0.29328
G1 X161.296 Y164.207 E0.07162
G1 X154.918 Y164.206 E0.29168
G1 X154.705 Y164.128 E0.01037
G1 X154.521 Y163.972 E0.01103
G1 X154.42 Y163.823 E0.00823
G1 X154.296 Y163.39 E0.0206
G1 X154.296 Y157.675 E0.26136
G0 F4800 X153.796 Y157.675
G1 F1800 X153.796 Y163.39 E0.26136
G1 X153.939 Y163.961 E0.02692
G1 X154.198 Y164.353 E0.02149
G1 X154.533 Y164.598 E0.01898
G1 X154.918 Y164.706 E0.01829
G1 X160.796 Y164.707 E0.26882
G1 X160.796 Y165.273 E0.02588
G1 X154.883 Y165.276 E0.27042
G1 X154.487 Y165.392 E0.01887
G1 X154.318 Y165.499 E0.00915
G1 X153.988 Y165.817 E0.02096
G1 X153.85 Y166.056 E0.01262
G1 X153.796 Y166.333 E0.01291
G1 X153.796 Y169.247 E0.13327
G1 X153.868 Y169.505 E0.01225
G1 X154.039 Y169.762 E0.01412
G1 X155.091 Y170.814 E0.06804
G1 X155.324 Y170.945 E0.01222
G1 X155.626 Y171.005 E0.01408
G1 X163.698 Y171.005 E0.36915
G1 X163.956 Y170.933 E0.01225
G1 X164.213 Y170.762 E0.01412
G1 X165.265 Y169.71 E0.06804
G1 X165.396 Y169.477 E0.01222
G1 X165.456 Y169.175 E0.01408
G1 X165.456 Y157.603 E0.52922
G1 X165.384 Y157.345 E0.01225
G1 X165.213 Y157.088 E0.01412
G1 X164.161 Y156.036 E0.06804
G1 X163.928 Y155.905 E0.01222
G1 X163.626 Y155.845 E0.01408
G1 X155.554 Y155.845 E0.36915
G1 X155.296 Y155.917 E0.01225
G1 X155.039 Y156.088 E0.01412
G1 X153.987 Y157.14 E0.06804
G1 X153.856 Y157.373 E0.01222
G1 X153.796 Y157.675 E0.01408
G1 F1800 E-0.4
G0 F4800 X155.165 Y155.581
G1 F1800 E0.4
G1 X154.113 Y154.529 E0.06804
G1 X153.942 Y154.272 E0.01412
G1 X153.87 Y154.014 E0.01225
G1 X153.87 Y151.105 E0.13304
G1 X153.953 Y150.764 E0.01605
G1 X154.184 Y150.396 E0.01987
G1 X154.389 Y150.199 E0.013
G1 X154.6 Y150.091 E0.01084
G1 X154.863 Y150.043 E0.01223
G1 X160.87 Y150.04 E0.27472
G1 X160.87 Y149.474 E0.02588
G1 X154.988 Y149.473 E0.269
G1 X154.812 Y149.441 E0.00818
G1 X154.445 Y149.27 E0.01852
G1 X154.265 Y149.114 E0.01089
G1 X154.013 Y148.728 E0.02108
G1 X153.87 Y148.157 E0.02692
G1 X153.87 Y142.442 E0.26136
G1 X153.93 Y142.14 E0.01408
G1 X154.061 Y141.907 E0.01222
G1 X155.113 Y140.855 E0.06804
G1 X155.37 Y140.684 E0.01412
G1 X155.628 Y140.612 E0.01225
G1 X163.7 Y140.612 E0.36915
G1 X164.002 Y140.672 E0.01408
G1 X164.235 Y140.803 E0.01222
G1 X165.287 Y141.855 E0.06804
G1 X165.458 Y142.112 E0.01412
G1 X165.53 Y142.37 E0.01225
G1 X165.53 Y153.942 E0.52922
G1 X165.47 Y154.244 E0.01408
G1 X165.339 Y154.477 E0.01222
G1 X164.287 Y155.529 E0.06804
G1 X164.03 Y155.7 E0.01412
G1 X163.772 Y155.772 E0.01225
G1 X155.7 Y155.772 E0.36915
G1 X155.398 Y155.712 E0.01408
G1 X155.165 Y155.581 E0.01222
G1 F1800 E-0.4
;MESH:Belt_Retainer_Clip.stl(1)
G0 F4800 X153.415 Y153.584
G0 X152.236 Y153.584
G0 X151 Y152.348
;TYPE:WALL-INNER
G1 F1800 E0.4
G1 X151 Y144.148 E0.37501
G1 X140.5 Y144.148 E0.48019
G1 X140.5 Y152.348 E0.37501
G1 X151 Y152.348 E0.48019
G0 F4800 X151.5 Y152.848
G1 F1800 X151.5 Y143.648 E0.42074
G1 X140 Y143.648 E0.52593
G1 X140 Y152.848 E0.42074
G1 X151.5 Y152.848 E0.52593
G0 F4800 X152 Y153.348
G1 F1800 X152 Y143.148 E0.46647
G1 X139.5 Y143.148 E0.57166
G1 X139.5 Y153.348 E0.46647
G1 X152 Y153.348 E0.57166
G0 F4800 X152.5 Y153.848
;TYPE:WALL-OUTER
G1 F1800 X152.5 Y142.648 E0.51221
G1 X139 Y142.648 E0.61739
G1 X139 Y153.848 E0.51221
G1 X152.5 Y153.848 E0.61739
G0 F4800 X152.5 Y153.598
G0 X151.68 Y153.028
G0 X150.85 Y151.873
G0 X150.525 Y151.873
;TYPE:SKIN
G1 F1800 X140.975 Y151.873 E0.43675
G1 X140.975 Y144.623 E0.33156
G1 X150.525 Y144.623 E0.43675
G1 X150.525 Y151.873 E0.33156
G0 F4800 X150.85 Y151.873
G0 X150.778 Y144.37
G0 X150.024 Y145.123
G1 F1800 X149.365 Y145.123 E0.03014
G1 X150.024 Y145.782 E0.04262
G1 X150.024 Y146.489 E0.03233
G1 X148.658 Y145.123 E0.08835
G1 X147.951 Y145.123 E0.03233
G1 X150.024 Y147.196 E0.13407
G1 X150.024 Y147.903 E0.03233
G1 X147.244 Y145.123 E0.1798
G1 X146.537 Y145.123 E0.03233
G1 X150.024 Y148.61 E0.22552
G1 X150.024 Y149.317 E0.03233
G1 X145.83 Y145.123 E0.27125
G1 X145.123 Y145.123 E0.03233
G1 X150.024 Y150.024 E0.31698
G1 X150.024 Y150.731 E0.03233
G1 X144.415 Y145.123 E0.36273
G1 X143.708 Y145.123 E0.03233
G1 X149.957 Y151.371 E0.40413
G1 X149.25 Y151.371 E0.03233
G1 X143.001 Y145.123 E0.40413
G1 X142.294 Y145.123 E0.03233
G1 X148.543 Y151.371 E0.40413
G1 X147.836 Y151.371 E0.03233
G1 X141.587 Y145.123 E0.40413
G1 X141.475 Y145.122 E0.00512
G1 X141.475 Y145.717 E0.02721
G1 X147.129 Y151.371 E0.36568
G1 X146.422 Y151.371 E0.03233
G1 X141.475 Y146.424 E0.31995
G1 X141.475 Y147.131 E0.03233
G1 X145.714 Y151.371 E0.27419
G1 X145.007 Y151.371 E0.03233
G1 X141.475 Y147.839 E0.22843
G1 X141.475 Y148.546 E0.03233
G1 X144.3 Y151.371 E0.18271
