;FLAVOR:RepRap
;TIME:931
;Filament used: 9.34895m
;Layer height: 0.4
;MINX:88.81
;MINY:88.983
;MINZ:0.2
;MAXX:191.204
;MAXY:211.113
;MAXZ:38.028
;ARCWELDERPROCESSED
;Exported with Cura-DuetRRF v1.2.9 plugin by Thomas Kriechbaumer
;LINEARADVANCEPROCESSED
; Postprocessed by [ArcWelder](https://github.com/FormerLurker/ArcWelderLib)
; Copyright(C) 2021 - Brad Hochgesang
; Version: 1.2.0, Branch: HEAD, BuildDate: 2021-11-21T20:25:43Z
; resolution=0.05mm
; path_tolerance=5.0%
; max_radius=9999.00mm
; allow_3d_arcs=True
; default_xyz_precision=3
; default_e_precision=5
; extrusion_rate_variance_percent=5.0%

;Generated with Cura_SteamEngine 5.3.0
T0
M104 S215
M109 S215
M82 ;absolute extrusion mode

M83 ;relative extrusion mode
G1 F2700 E-0.4
;LAYER_COUNT:96
M572 S0.050000 D0 ;added by LinearAdvanceSettingPlugin
;LAYER:0
M107
M204 T6000
G1 F600 Z0.4
G0 F12000 X93.087 Y91.811 Z0.4
M204 P6000
;TYPE:SKIRT
G1 F600 Z0.2
G1 F1500 E0.4
G3 X100.669 Y89.068 I6.353 J5.710 E0.87510 F3600
G1 X101.409 Y89.171 E0.0779
G1 X123.107 Y92.534 E2.28948
G2 X138.066 Y93.689 I14.955 J-96.242 E1.56590
G2 X147.461 Y93.531 I1.911 J-165.740 E0.97991
G2 X156.898 Y92.532 I-5.503 J-97.058 E0.98984
G1 X178.593 Y89.169 E2.28917
G3 X186.953 Y91.864 I1.820 J8.667 E0.95936
G3 X189.048 Y96.582 I-6.525 J5.722 E0.54651
G1 X189.14 Y97.732 E0.12029
G1 X191.148 Y128.732 E3.23916
G3 X190.979 Y131.912 I-9.380 J1.096 E0.33337
G1 X181.903 Y176.28 E4.72208
G3 X178.303 Y182.210 I-8.775 J-1.270 E0.74355
G2 X152.644 Y207.812 I55.114 J80.896 E3.80126
G3 X146.098 Y211.096 I-6.703 J-5.194 E0.78934
G1 X145.092 Y211.112 E0.10491
G1 X134.775 Y211.113 E1.07576
G3 X127.980 Y208.533 I-0.482 J-8.968 E0.78090
G3 X126.833 Y207.078 I6.295 J-6.142 E0.19345
G2 X101.521 Y182.086 I-80.031 J55.742 E3.72972
G3 X98.329 Y177.331 I5.021 J-6.819 E0.60872
G1 X98.073 Y176.168 E0.12417
G1 X89.104 Y132.325 E4.66621
G3 X88.834 Y129.018 I9.390 J-2.431 E0.34735
G1 X90.866 Y97.647 E3.27793
G3 X91.828 Y93.644 I9.127 J0.076 E0.43264
G3 X93.087 Y91.811 I8.936 J4.789 E0.23227
G1 F2700 E-0.4
;MESH:Box.3mf
G0 F12000 X95.973 Y93.683
G0 X100.36 Y92.247
M204 P800
;TYPE:WALL-OUTER
G1 F1500 E0.4
G1 F3600 X130.332 Y96.889 E3.16246
G1 X149.696 Y96.886 E2.01909
G1 X179.564 Y92.243 E3.15176
G1 X179.576 Y92.254 E0.0017
G3 X185.896 Y97.175 I0.957 J5.290 E0.94183
G1 X188.016 Y129.891 E3.41847
G3 X187.895 Y131.024 I-6.409 J-0.112 E0.11893
G1 X178.632 Y176.298 E4.81854
G3 X174.913 Y180.354 I-5.247 J-1.078 E0.60223
G1 X161.509 Y184.353 E1.45852
G2 X158.377 Y187.578 I1.329 J4.424 E0.48929
G1 X156.568 Y194.673 E0.76347
G3 X155.969 Y196.126 I-5.292 J-1.332 E0.16439
G1 X150.532 Y205.263 E1.10864
G3 X145.899 Y207.911 I-4.633 J-2.729 E0.58190
G1 X134.128 Y207.913 E1.22737
G3 X129.480 Y205.285 I-0.016 J-5.396 E0.58207
G1 X124.037 Y196.132 E1.11039
G3 X123.432 Y194.673 I4.516 J-2.727 E0.16525
G1 X121.641 Y187.637 E0.75704
G2 X118.531 Y184.367 I-4.476 J1.143 E0.49128
G1 X105.099 Y180.358 E1.46161
G3 X101.367 Y176.296 I1.523 J-5.145 E0.60377
G1 X92.105 Y131.024 E4.81831
G3 X91.985 Y129.899 I6.192 J-1.229 E0.11809
G1 X94.102 Y97.203 E3.41637
G3 X100.360 Y92.247 I5.357 J0.335 E0.93857
G0 F12000 X100.349 Y92.233
G0 X100.117 Y92.213
G0 X100.092 Y92.465
G0 X100.251 Y93.292
M204 P6000
;TYPE:SKIN
G1 F3600 X130.212 Y97.933 E3.16131
G1 X149.733 Y97.94 E2.03547
G1 X179.707 Y93.285 E3.16287
G1 X179.732 Y93.293 E0.00274
G3 X184.826 Y96.917 I0.779 J4.297 E0.72652
G1 X186.962 Y129.897 E3.44605
G1 X186.918 Y130.555 E0.06876
G1 X177.543 Y176.376 E4.87676
G3 X174.576 Y179.358 I-4.207 J-1.219 E0.45729
G1 X161.168 Y183.359 E1.45898
G2 X157.358 Y187.325 I1.653 J5.401 E0.59845
G1 X155.479 Y194.699 E0.79346
G1 X155.2 Y195.364 E0.0752
G1 X149.647 Y204.695 E1.1322
G3 X145.860 Y206.860 I-3.754 J-2.172 E0.47628
G1 X134.167 Y206.863 E1.21924
G3 X130.362 Y204.714 I-0.043 J-4.367 E0.47685
G1 X124.955 Y195.619 E1.10327
G3 X124.443 Y194.385 I2.796 J-1.883 E0.14000
G1 X122.649 Y187.343 E0.75773
G2 X118.868 Y183.373 I-5.478 J1.432 E0.59648
G1 X105.097 Y179.261 E1.49856
G3 X102.578 Y176.762 I1.750 J-4.283 E0.37962
G1 X102.39 Y176.055 E0.07628
G1 X93.082 Y130.554 E4.84267
G1 X93.039 Y129.905 E0.06782
G1 X95.172 Y96.954 E3.44301
G3 X100.251 Y93.292 I4.345 J0.673 E0.72841
G0 F12000 X100.335 Y92.751
G0 X130.34 Y97.078
G0 X149.725 Y97.073
G0 X177.517 Y92.73
G0 X181.248 Y92.73
G0 X181.034 Y94.484
G3 X183.631 Y97.081 I-0.508 J3.105 E0.40928 F3600
G1 X181.034 Y94.484 E0.38296
G2 X180.404 Y94.427 I-0.482 J1.818 E0.06619
G1 X179.386 Y94.533 E0.10672
G1 X183.75 Y98.897 E0.64352
G1 X183.868 Y100.712 E0.18965
G1 X177.932 Y94.776 E0.87533
G1 X176.462 Y95.004 E0.15511
G1 X183.985 Y102.526 E1.10927
G1 X184.103 Y104.341 E0.18965
G1 X174.994 Y95.232 E1.34322
G1 X173.525 Y95.46 E0.15501
G1 X184.22 Y106.155 E1.57709
G1 X184.338 Y107.97 E0.18965
G1 X172.056 Y95.689 E1.81104
G1 X170.587 Y95.916 E0.15499
G1 X184.455 Y109.785 E2.04506
G1 X184.573 Y111.599 E0.18955
G1 X169.118 Y96.145 E2.27893
G1 X167.65 Y96.373 E0.1549
G1 X184.69 Y113.414 E2.51281
G1 X184.808 Y115.229 E0.18965
G1 X166.181 Y96.602 E2.74675
G1 X164.712 Y96.829 E0.15499
G1 X184.926 Y117.043 E2.98077
G1 X185.043 Y118.858 E0.18964
G1 X163.243 Y97.058 E3.21465
G1 X161.774 Y97.286 E0.15501
G1 X185.16 Y120.672 E3.44852
G1 X185.278 Y122.487 E0.18965
G1 X160.306 Y97.514 E3.68246
G1 X158.836 Y97.742 E0.15511
G1 X185.396 Y124.302 E3.91656
G1 X185.513 Y126.116 E0.18954
G1 X157.368 Y97.971 E4.15028
G1 X155.899 Y98.199 E0.15501
G1 X185.631 Y127.931 E4.3843
G1 X185.749 Y129.746 E0.18965
G1 X154.43 Y98.427 E4.61832
G1 X152.961 Y98.655 E0.15501
G1 X185.551 Y131.246 E4.80582
G1 X185.263 Y132.654 E0.14985
G1 X151.492 Y98.883 E4.9799
G1 X150.024 Y99.112 E0.15492
G1 X184.974 Y134.063 E5.15383
G1 X184.687 Y135.472 E0.14993
G1 X148.354 Y99.139 E5.35769
G1 X146.656 Y99.139 E0.17705
G1 X184.398 Y136.881 E5.56547
G1 X184.11 Y138.289 E0.14985
G1 X144.959 Y99.138 E5.77324
G1 X143.261 Y99.137 E0.17705
G1 X183.822 Y139.698 E5.98116
G1 X183.533 Y141.107 E0.14998
G1 X141.564 Y99.137 E6.18886
G1 X139.866 Y99.137 E0.17705
G1 X183.245 Y142.515 E6.39663
G1 X182.957 Y143.925 E0.15006
G1 X138.168 Y99.136 E6.60462
G1 X136.47 Y99.135 E0.17705
G1 X182.669 Y145.333 E6.81247
G1 X182.38 Y146.742 E0.14998
G1 X134.773 Y99.135 E7.02017
G1 X133.076 Y99.134 E0.17695
G1 X182.092 Y148.151 E7.22801
G1 X181.804 Y149.56 E0.14995
G1 X131.378 Y99.134 E7.43586
G1 X130.106 Y99.133 E0.13263
G1 X129.602 Y99.055 E0.05318
G1 X181.515 Y150.968 E7.65513
G1 X181.227 Y152.377 E0.14995
G1 X127.594 Y98.744 E7.90876
G1 X125.585 Y98.432 E0.21199
G1 X180.939 Y153.786 E8.16254
G1 X180.65 Y155.195 E0.14998
G1 X123.577 Y98.121 E8.4161
G1 X121.569 Y97.81 E0.21187
G1 X180.363 Y156.604 E8.66981
G1 X180.074 Y158.012 E0.14987
G1 X119.56 Y97.498 E8.92344
G1 X117.552 Y97.187 E0.21187
G1 X179.786 Y159.422 E9.17715
G1 X179.498 Y160.83 E0.14985
G1 X115.544 Y96.876 E9.43071
G1 X113.535 Y96.564 E0.21199
G1 X179.209 Y162.239 E9.68441
G1 X178.922 Y163.648 E0.14993
G1 X111.527 Y96.253 E9.93812
G1 X109.518 Y95.942 E0.21197
G1 X178.633 Y165.057 E10.19175
G1 X178.345 Y166.465 E0.14985
G1 X107.509 Y95.63 E10.44546
G1 X105.501 Y95.319 E0.21187
G1 X178.057 Y167.874 E10.69909
G1 X177.768 Y169.283 E0.14998
G1 X103.493 Y95.008 E10.95265
G1 X101.484 Y94.696 E0.21199
G1 X177.48 Y170.692 E11.20643
G1 X177.192 Y172.101 E0.14995
G1 X99.533 Y94.441 E11.45173
G1 X99.257 Y94.43 E0.0288
G2 X98.133 Y94.739 I0.151 J2.748 E0.12220
G1 X176.903 Y173.509 E11.61549
G1 X176.615 Y174.918 E0.14995
G1 X97.163 Y95.466 E11.71605
G2 X96.527 Y96.527 I1.719 J1.752 E0.13028
G1 X176.283 Y176.283 E11.76088
G3 X175.648 Y177.345 I-2.755 J-0.926 E0.12974
G1 X96.306 Y98.003 E11.69983
G1 X96.203 Y99.597 E0.16655
G1 X174.646 Y178.041 E11.56734
G1 X174.482 Y178.133 E0.01961
G1 X173.372 Y178.463 E0.12075
G1 X96.1 Y101.191 E11.39459
G1 X95.996 Y102.785 E0.16656
G1 X172.065 Y178.854 E11.21719
G1 X170.759 Y179.244 E0.14212
G1 X95.893 Y104.378 E11.0398
G1 X95.79 Y105.972 E0.16655
G1 X169.451 Y179.634 E10.86218
G1 X168.145 Y180.024 E0.14212
G1 X95.687 Y107.566 E10.68471
G1 X95.583 Y109.16 E0.16656
G1 X166.838 Y180.414 E10.50724
G1 X165.53 Y180.804 E0.14232
G1 X95.481 Y110.754 E10.32955
G1 X95.378 Y112.348 E0.16655
G1 X164.224 Y181.194 E10.15209
G1 X162.917 Y181.585 E0.14225
G1 X95.274 Y113.942 E9.97469
G1 X95.171 Y115.536 E0.16655
G1 X161.609 Y181.974 E9.797
G2 X160.331 Y182.393 I2.212 J8.904 E0.14032
G1 X95.068 Y117.13 E9.62373
G1 X94.965 Y118.723 E0.16645
G1 X159.191 Y182.95 E9.47089
G2 X158.232 Y183.688 I2.741 J4.554 E0.12634
G1 X94.861 Y120.317 E9.34474
G1 X94.758 Y121.911 E0.16655
G1 X157.418 Y184.571 E9.23989
G1 X157.264 Y184.757 E0.02518
G1 X156.739 Y185.589 E0.10258
G1 X94.655 Y123.505 E9.15496
G1 X94.552 Y125.099 E0.16655
G1 X156.252 Y186.799 E9.09833
G1 X155.907 Y188.151 E0.14549
G1 X94.448 Y126.693 E9.06272
G1 X94.345 Y128.286 E0.16645
G1 X155.563 Y189.504 E9.02725
G1 X155.219 Y190.857 E0.14557
G1 X94.242 Y129.88 E8.99172
G1 X94.274 Y130.393 E0.05359
G1 X94.586 Y131.922 E0.16271
G1 X154.874 Y192.21 E8.89012
G1 X154.53 Y193.562 E0.14547
G1 X95.023 Y134.055 E8.77495
G1 X95.459 Y136.188 E0.22701
G1 X154.113 Y194.843 E8.64924
G1 X153.48 Y195.906 E0.129
G1 X95.895 Y138.322 E8.49146
G1 X96.332 Y140.456 E0.22713
G1 X152.847 Y196.97 E8.33367
G1 X152.213 Y198.034 E0.12915
G1 X96.768 Y142.589 E8.17596
G1 X97.205 Y144.722 E0.22703
G1 X151.581 Y199.098 E8.01833
G1 X150.947 Y200.162 E0.12915
G1 X97.641 Y146.856 E7.86054
G1 X98.077 Y148.989 E0.22701
G1 X150.314 Y201.226 E7.70291
G1 X149.681 Y202.289 E0.129
G1 X98.514 Y151.122 E7.54513
G1 X98.951 Y153.256 E0.22713
G1 X149.048 Y203.354 E7.38742
G1 X148.414 Y204.417 E0.12906
G1 X99.387 Y155.39 E7.22956
G1 X99.823 Y157.523 E0.22701
G1 X147.497 Y205.197 E7.03005
G3 X146.240 Y205.637 I-1.578 J-2.492 E0.13976
G1 X100.259 Y159.656 E6.78039
G1 X100.696 Y161.79 E0.22713
G1 X144.565 Y205.659 E6.46896
G1 X142.868 Y205.659 E0.17695
G1 X123.597 Y186.388 E2.84172
G3 X124.237 Y188.726 I-16.695 J5.827 E0.25287
G1 X141.172 Y205.66 E2.49717
G1 X139.475 Y205.66 E0.17695
G1 X124.819 Y191.004 E2.16119
G1 X125.399 Y193.281 E0.24501
G1 X137.779 Y205.661 E1.82556
G1 X136.082 Y205.662 E0.17695
G1 X126.81 Y196.389 E1.36733
G1 X129.298 Y200.574 E0.50766
G1 X134.397 Y205.674 E0.75198
G1 X133.55 Y205.62 E0.0885
G3 X131.528 Y204.326 I0.729 J-3.365 E0.25542
G0 F12000 X130.094 Y205.298
G0 X124.184 Y195.218
G0 X121.937 Y186.927
G0 X123.597 Y186.388
G2 X119.556 Y182.347 I-6.343 J2.302 E0.61522 F3600
G1 X101.133 Y163.924 E2.71667
G1 X101.569 Y166.057 E0.22701
G1 X117.106 Y181.594 E2.2911
G1 X114.686 Y180.871 E0.26336
G1 X102.005 Y168.191 E1.86988
G1 X102.442 Y170.324 E0.22703
G1 X112.265 Y180.148 E1.44858
G1 X109.846 Y179.425 E0.26326
G1 X102.878 Y172.457 E1.02751
G1 X103.315 Y174.591 E0.22713
G1 X107.425 Y178.702 E0.60614
G1 X105.53 Y178.136 E0.20622
G3 X104.585 Y177.560 I1.449 J-3.440 E0.11570
G1 F2700 E-0.4
;MESH:NOMESH
G0 F600 X104.585 Y177.56 Z0.6
G0 F12000 X103.501 Y178.937
G0 X102.231 Y177.161
G0 X92.626 Y130.577
G0 X90.73 Y130.093
G0 X92.841 Y97.094
G0 X98.83 Y97.095
;TIME_ELAPSED:134.919640
;LAYER:1
M106 S255
;TYPE:WALL-INNER
;MESH:Box.3mf
G1 F1500 E0.4
G1 F4800 X98.688 Y97.452 E0.0607
G1 X96.579 Y129.996 E5.15227
G1 X105.883 Y175.471 E7.33322
G2 X106.352 Y175.941 I0.829 J-0.359 E0.10674
G1 X119.959 Y180.002 E2.24341
G3 X126.044 Y186.336 I-2.759 J8.741 E1.44670
G1 X127.916 Y193.677 E1.19689
G1 X133.363 Y202.827 E1.68232
G2 X134.069 Y203.321 I0.784 J-0.368 E0.14158
G1 X145.736 Y203.322 E1.84322
G2 X146.566 Y202.953 I0.104 J-0.883 E0.14953
G1 X152.085 Y193.678 E1.70511
G1 X153.958 Y186.324 E1.19892
G3 X160.087 Y179.988 I8.847 J2.425 E1.45227
G1 X173.626 Y175.948 E2.23217
G2 X174.118 Y175.461 I-0.336 J-0.832 E0.11198
G1 X183.421 Y129.987 E7.33304
G1 X181.314 Y97.453 E5.15067
G2 X180.522 Y96.769 I-0.779 J0.101 E0.17971
G1 X179.967 Y96.825 E0.08813
G1 X150.451 Y101.415 E4.71915
G1 X149.838 Y101.475 E0.09731
G1 X130.154 Y101.475 E3.10979
G1 X129.668 Y101.433 E0.07707
G1 X99.664 Y96.782 E4.79681
G2 X98.830 Y97.095 I-0.182 J0.782 E0.14840
G0 F12000 X98.141 Y96.356
G1 F4800 X97.898 Y96.703 E0.06693
G2 X97.694 Y97.321 I1.849 J0.953 E0.10313
G1 X95.581 Y129.924 E5.16161
G1 X95.639 Y130.39 E0.07419
G1 X104.907 Y175.684 E7.30407
G1 X105.2 Y176.267 E0.10308
G2 X106.220 Y176.946 I1.481 J-1.120 E0.19688
G1 X119.605 Y180.941 E2.20682
G3 X125.083 Y186.613 I-2.395 J7.795 E1.29961
G1 X126.89 Y193.704 E1.15608
G1 X127.051 Y194.179 E0.07924
G1 X132.5 Y203.336 E1.68344
G2 X133.979 Y204.321 I1.642 J-0.862 E0.29171
G1 X145.765 Y204.322 E1.86202
G2 X147.377 Y203.546 I0.096 J-1.863 E0.29372
G1 X152.833 Y194.377 E1.68563
G1 X153.056 Y193.917 E0.08076
G1 X154.918 Y186.614 E1.19068
G3 X160.395 Y180.940 I7.884 J2.130 E1.29958
G1 X173.997 Y176.881 E2.24256
G2 X174.805 Y176.260 I-0.729 J-1.784 E0.16243
G1 X175.092 Y175.691 E0.10068
G1 X184.36 Y130.39 E7.30515
G1 X184.419 Y129.915 E0.07562
G1 X182.306 Y97.298 E5.16382
G2 X180.472 Y95.768 I-1.798 J0.291 E0.41153
G1 X179.875 Y95.827 E0.09478
G1 X150.194 Y100.441 E4.74549
G1 X149.796 Y100.476 E0.06312
G1 X130.291 Y100.479 E3.08151
G1 X129.799 Y100.441 E0.07796
G1 X99.818 Y95.792 E4.79317
G2 X98.141 Y96.356 I-0.321 J1.821 E0.29107
G0 F12000 X97.396 Y95.687
G1 F4800 X97.019 Y96.224 E0.10366
G2 X96.701 Y97.175 I2.793 J1.462 E0.15891
G1 X94.594 Y129.69 E5.14768
G1 X94.604 Y130.32 E0.09954
G1 X103.943 Y175.964 E7.36049
G2 X105.910 Y177.897 I2.717 J-0.798 E0.45396
G1 X119.297 Y181.893 E2.20717
G3 X124.152 Y186.999 I-2.101 J6.859 E1.16299
G1 X125.996 Y194.246 E1.1814
G1 X126.297 Y194.866 E0.10888
G1 X131.793 Y204.104 E1.69823
G2 X133.885 Y205.321 I2.363 J-1.655 E0.39356
G1 X145.794 Y205.322 E1.88145
G2 X148.189 Y204.137 I0.064 J-2.884 E0.43809
G1 X153.705 Y194.866 E1.70433
G1 X154.007 Y194.236 E0.11038
G1 X155.879 Y186.892 E1.19735
G3 X160.702 Y181.892 I6.929 J1.857 E1.14518
G1 X174.364 Y177.815 E2.25246
G2 X176.055 Y175.975 I-1.072 J-2.682 E0.40728
G1 X185.344 Y130.568 E7.32222
G1 X185.422 Y129.925 E0.10233
G1 X183.301 Y97.18 E5.18408
G1 X183.085 Y96.436 E0.12239
G2 X180.596 Y94.750 I-2.626 J1.197 E0.49947
G1 X179.79 Y94.835 E0.12804
G1 X179.783 Y94.829 E0.00146
G1 X149.892 Y99.477 E4.7791
G1 X130.312 Y99.479 E3.09336
G1 X129.929 Y99.45 E0.06068
G1 X99.978 Y94.808 E4.78832
G2 X97.396 Y95.687 I-0.507 J2.742 E0.44931
G0 F12000 X96.953 Y94.717
G1 F4800 X96.376 Y95.361 E0.13661
G2 X95.708 Y97.032 I3.404 J2.330 E0.28639
G1 X93.578 Y129.908 E5.20483
G1 X93.618 Y130.49 E0.09216
G1 X102.981 Y176.251 E7.37936
G2 X103.587 Y177.457 I4.114 J-1.312 E0.21382
G2 X105.600 Y178.848 I3.064 J-2.282 E0.39271
G1 X118.989 Y182.844 E2.20747
G3 X123.161 Y187.169 I-1.813 J5.923 E0.99091
G1 X124.963 Y194.243 E1.15328
G1 X125.254 Y195.069 E0.13836
G1 X130.81 Y204.407 E1.71665
G2 X134.175 Y206.322 I3.338 J-1.952 E0.64049
G1 X145.823 Y206.322 E1.84022
G2 X149.192 Y204.408 I0.028 J-3.873 E0.64084
G1 X154.578 Y195.355 E1.66423
G1 X154.956 Y194.559 E0.13922
G1 X156.84 Y187.169 E1.20486
G3 X160.958 Y182.861 I5.979 J1.593 E0.98192
G1 X174.734 Y178.749 E2.2713
G1 X175.556 Y178.294 E0.14843
G2 X176.658 Y177.077 I-2.203 J-3.102 E0.26092
G1 X177.018 Y176.258 E0.14134
G1 X186.389 Y130.453 E7.38642
G1 X186.405 Y129.636 E0.1291
G1 X184.294 Y97.04 E5.16049
G2 X179.691 Y93.832 I-3.844 J0.609 E0.99188
G1 X149.779 Y98.48 E4.78238
G1 X130.194 Y98.479 E3.09415
G1 X100.134 Y93.82 E4.80575
G2 X96.953 Y94.717 I-0.651 J3.780 E0.53941
G0 F12000 X95.905 Y94.349
G1 F4800 X95.558 Y94.783 E0.08779
G2 X94.690 Y97.263 I3.935 J2.769 E0.42026
G1 X92.575 Y129.906 E5.16794
G1 X92.625 Y130.62 E0.11308
G1 X101.936 Y176.135 E7.33964
G2 X105.290 Y179.799 I4.696 J-0.932 E0.82469
G1 X118.681 Y183.795 E2.20777
G3 X122.201 Y187.446 I-1.510 J4.978 E0.83623
G1 X124.084 Y194.843 E1.20589
G2 X124.554 Y195.849 I5.366 J-1.894 E0.17563
G1 X129.964 Y204.943 E1.67173
G2 X134.147 Y207.322 I4.144 J-2.420 E0.79580
G1 X145.852 Y207.322 E1.84922
G2 X150.037 Y204.944 I0.035 J-4.810 E0.79588
G1 X155.611 Y195.576 E1.72218
G1 X155.916 Y194.84 E0.12587
G1 X157.8 Y187.447 E1.20532
G3 X161.285 Y183.806 I5.026 J1.322 E0.83076
G1 X174.71 Y179.799 E2.21342
