;FLAVOR:RepRap
;TIME:170
;Filament used: 0.241369m
;Layer height: 0.3
;MINX:124.693
;MINY:138.629
;MINZ:0.2
;MAXX:155.4
;MAXY:161.372
;MAXZ:7.1
;ARCWELDERPROCESSED
;Exported with Cura-DuetRRF v1.2.9 plugin by Thomas Kriechbaumer
; Postprocessed by [ArcWelder](https://github.com/FormerLurker/ArcWelderLib)
; Copyright(C) 2021 - Brad Hochgesang
; Version: 1.2.0, Branch: HEAD, BuildDate: 2021-11-21T20:25:43Z
; resolution=0.05mm
; path_tolerance=5.0%
; max_radius=9999.00mm
; default_xyz_precision=3
; default_e_precision=5
; extrusion_rate_variance_percent=5.0%

;Generated with Cura_SteamEngine 5.3.0
T0
M104 S215
M109 S215
M82 ;absolute extrusion mode

M83 ;relative extrusion mode
G1 F2700 E-0.8
;LAYER_COUNT:24
;LAYER:0
M107
M204 T5000
G1 F600 Z0.4
G0 F6000 X126.993 Y141.11 Z0.4
M204 P6000
;TYPE:SKIRT
G1 F600 Z0.2
G1 F1500 E0.8
G3 X134.389 Y139.710 I4.700 J4.592 E0.34832 F1800
G2 X149.984 Y144.021 I33.957 J-92.477 E0.70372
G3 X154.840 Y151.085 I-1.528 J6.252 E0.40735
G3 X150.686 Y156.394 I-6.425 J-0.748 E0.30798
G2 X141.919 Y159.850 I31.374 J92.436 E0.40957
G1 X140.309 Y160.527 E0.07588
G3 X132.794 Y157.932 I-2.093 J-6.119 E0.37210
G2 X126.729 Y149.836 I-79.829 J53.483 E0.43969
G3 X125.213 Y146.173 I4.868 J-4.160 E0.17516
G3 X126.993 Y141.110 I6.490 J-0.563 E0.24040
G0 F6000 X126.632 Y140.762
G1 F1800 X127.541 Y139.973 E0.05229
G1 X128.401 Y139.423 E0.04435
G3 X134.555 Y139.238 I3.272 J6.399 E0.27644
G2 X150.084 Y143.531 I33.766 J-91.908 E0.70074
G3 X155.030 Y148.078 I-1.594 J6.698 E0.30461
G3 X155.333 Y151.169 I-6.126 J2.161 E0.13614
G3 X154.844 Y153.006 I-5.254 J-0.415 E0.08293
G1 X154.339 Y154.031 E0.04964
G3 X150.852 Y156.866 I-6.087 J-3.925 E0.19851
G2 X142.113 Y160.311 I31.012 J91.475 E0.40826
G1 X140.503 Y160.988 E0.07588
G3 X132.383 Y158.217 I-2.291 J-6.568 E0.40167
G2 X126.328 Y150.135 I-79.560 J53.297 E0.43893
G3 X124.717 Y146.237 I5.265 J-4.458 E0.18628
G3 X126.632 Y140.762 I7.010 J-0.620 E0.25988
G1 F2700 E-0.8
;MESH:button V2 reten.IGS_Predeterminado.STEP_Predeterminado_BOTCH.3mf(2)
G2 X129.006 Y143.007 I17.505 J-16.133 F6000
G0 X131.697 Y145.566
;TYPE:WALL-INNER
G1 F1500 E0.8
G2 X131.726 Y145.615 I-0.027 J0.049 E0.01122 F1974
G0 F6000 X131.521 Y146.09
G1 F1800 X131.792 Y146.096 E0.01178
G2 X132.045 Y145.934 I-0.107 J-0.446 E0.01324
G1 X132.161 Y145.627 E0.01426
G2 X131.238 Y145.863 I-0.494 J-0.008 E0.07782
G1 X131.521 Y146.09 E0.01576
G0 F6000 X131.372 Y146.57
G2 X130.803 Y146.115 I0.291 J-0.947 E0.23782 F1800
G2 X131.372 Y146.570 I1.049 J-0.728 E0.03198
G0 F6000 X130.365 Y146.363
G1 F1800 X130.75 Y146.785 E0.02482
G1 X131.228 Y147.052 E0.02379
G2 X130.189 Y145.823 I0.440 J-1.426 E0.33341
G1 X130.365 Y146.363 E0.02468
G0 F6000 X131.925 Y147.598
G2 X130.091 Y146.839 I-0.256 J-1.976 E0.45375 F1800
G2 X131.925 Y147.598 I1.558 J-1.169 E0.09005
G0 F6000 X131.664 Y148.117
G1 F1800 X132.299 Y148.035 E0.02782
G1 X132.984 Y147.75 E0.03223
G2 X132.795 Y143.382 I-1.344 J-2.130 E0.22996
G1 X132.048 Y143.144 E0.03406
G2 X129.490 Y146.859 I-0.364 J2.488 E0.24266
G2 X131.664 Y148.117 I2.199 J-1.293 E0.11385
G0 F6000 X131.665 Y148.618
G1 F1800 X132.426 Y148.52 E0.03334
G2 X131.654 Y142.622 I-0.762 J-2.900 E0.37633
G1 X130.834 Y142.732 E0.03594
G2 X130.366 Y148.317 I0.840 J2.882 E0.31344
G2 X131.665 Y148.618 I1.326 J-2.768 E0.05845
G0 F6000 X130.652 Y148.98
G1 F1800 X131.262 Y149.093 E0.02695
G2 X133.739 Y142.800 I0.405 J-3.475 E0.39875
G2 X130.134 Y148.762 I-2.071 J2.819 E0.50450
G1 X130.652 Y148.98 E0.02442
G0 F6000 X130.508 Y149.462
M204 P800
;TYPE:WALL-OUTER
G2 X128.252 Y143.539 I1.155 J-3.831 E0.77468 F1800
G2 X129.902 Y149.207 I3.415 J2.080 E0.28823
G1 X130.508 Y149.462 E0.02856
G0 F6000 X130.754 Y149.507
G0 X130.986 Y148.279
G1 F2700 E-0.8
;MESH:button V2 reten.IGS_Predeterminado.STEP_Predeterminado_BOTCH.3mf(1)
G0 F6000 X133.633 Y148.803
G2 X135.732 Y151.566 I1732.595 J-1314.042
G0 X138.239 Y154.338
M204 P6000
;TYPE:WALL-INNER
G1 F1500 E0.8
G2 X138.268 Y154.387 I-0.027 J0.049 E0.01127 F1965
G0 F6000 X137.837 Y154.064
G1 F1800 X137.72 Y154.372 E0.01431
G2 X137.837 Y154.064 I0.489 J0.009 E0.11861
G0 F6000 X138.375 Y155.364
G1 F1800 X138.668 Y155.268 E0.0134
G2 X137.942 Y155.341 I-0.455 J-0.879 E0.23773
G1 X138.375 Y155.364 E0.01884
G0 F6000 X138.896 Y155.715
G2 X139.692 Y154.184 I-0.715 J-1.344 E0.07959 F1800
G1 X139.516 Y153.637 E0.02496
G2 X138.896 Y155.715 I-1.298 J0.744 E0.30225
G0 F6000 X138.54 Y156.356
G1 F1800 X139.123 Y156.163 E0.02668
G1 X139.652 Y155.764 E0.02879
G2 X136.332 Y153.726 I-1.440 J-1.378 E0.30886
G2 X138.540 Y156.356 I1.888 J0.657 E0.17932
G0 F6000 X138.623 Y156.852
G1 F1800 X139.35 Y156.611 E0.03328
G2 X139.537 Y152.272 I-1.138 J-2.223 E0.22835
G1 X138.859 Y151.97 E0.03225
G2 X137.582 Y151.966 I-0.646 J2.413 E0.05595
G1 X136.893 Y152.254 E0.03244
G2 X136.817 Y156.461 I1.348 J2.129 E0.21626
G1 X137.538 Y156.793 E0.03449
G2 X138.623 Y156.852 I0.697 J-2.817 E0.04741
G0 F6000 X138.705 Y157.347
G1 F1800 X139.164 Y157.224 E0.02065
G2 X137.086 Y151.604 I-0.956 J-2.841 E0.41673
G2 X136.174 Y152.172 I0.965 J2.565 E0.04691
G2 X135.244 Y154.844 I2.152 J2.247 E0.12750
G2 X138.229 Y157.379 I2.988 J-0.493 E0.18524
G1 X138.705 Y157.347 E0.02073
G0 F6000 X136.442 Y157
G0 X136.254 Y157.294
G1 F1800 X136.761 Y157.566 E0.025
G2 X136.897 Y151.140 I1.451 J-3.184 E0.60094
G2 X136.254 Y157.294 I1.344 J3.251 E0.32890
G0 F6000 X136.442 Y157
G0 X138.732 Y157.498
G0 X138.87 Y158.339
M204 P800
;TYPE:WALL-OUTER
G2 X141.026 Y151.536 I-0.686 J-3.961 E0.38164 F1800
G2 X138.870 Y158.339 I-2.810 J2.853 E0.70983
G0 F6000 X139.111 Y158.274
G0 X138.787 Y157.067
G1 F2700 E-0.8
;MESH:button V2 reten.IGS_Predeterminado.STEP_Predeterminado_BOTCH.3mf
G0 F6000 X141.85 Y153.555
G0 X142.986 Y153.225
G3 X145.026 Y151.898 I5.456 J6.156
G0 X148.458 Y150.315
M204 P6000
;TYPE:WALL-INNER
G1 F1500 E0.8
G3 X148.373 Y150.266 I-0.057 J-0.000 E0.00908 F1957
G1 X148.429 Y150.266 E0.00224
G0 F6000 X148.896 Y150.338
G2 X148.809 Y150.582 I-0.484 J-0.035 E0.12198 F1800
G1 X148.896 Y150.338 E0.01125
G0 F6000 X148.234 Y151.296
G2 X148.854 Y149.431 I0.169 J-0.979 E0.12223 F1800
G1 X148.396 Y149.323 E0.02044
G2 X148.234 Y151.296 I0.016 J0.995 E0.12720
G0 F6000 X148.602 Y151.796
G1 F1800 X148.914 Y151.72 E0.01395
G2 X147.411 Y149.202 I-0.509 J-1.404 E0.22782
G2 X148.602 Y151.796 I0.990 J1.116 E0.16503
G0 F6000 X148.642 Y152.296
G1 F1800 X149.084 Y152.192 E0.01973
G2 X148.642 Y152.296 I-0.674 J-1.875 E0.52406
G0 F6000 X148.681 Y152.796
G1 F1800 X149.254 Y152.663 E0.02556
G2 X150.476 Y148.924 I-0.851 J-2.347 E0.19663
G2 X145.929 Y149.934 I-2.070 J1.422 E0.25971
G1 X145.934 Y150.726 E0.03441
G2 X148.681 Y152.796 I2.476 J-0.428 E0.16426
G0 F6000 X148.721 Y153.296
G1 F1800 X149.424 Y153.134 E0.03134
G2 X151.297 Y151.097 I-1.025 J-2.822 E0.12489
G2 X151.371 Y149.839 I-3.036 J-0.810 E0.05501
G2 X146.461 Y148.035 I-2.966 J0.488 E0.27554
G1 X145.91 Y148.636 E0.03542
G2 X146.298 Y152.450 I2.590 J1.663 E0.18018
G2 X148.721 Y153.296 I2.110 J-2.151 E0.11497
G0 F6000 X148.761 Y153.796
G1 F1800 X149.162 Y153.731 E0.01765
G2 X148.761 Y153.796 I-0.759 J-3.412 E0.93685
G0 F6000 X148.801 Y154.296
M204 P800
;TYPE:WALL-OUTER
G2 X145.498 Y147.571 I-0.395 J-3.979 E0.66982 F1800
G2 X145.596 Y153.165 I2.863 J2.748 E0.26929
G1 X146.32 Y153.73 E0.0399
G2 X148.801 Y154.296 I2.080 J-3.399 E0.11238
G0 F6000 X149.047 Y154.257
G0 X148.85 Y153.021
G1 F2700 E-0.8
;MESH:NOMESH
G0 F600 X148.85 Y153.021 Z0.5
G0 F6000 X144.705 Y149.75
G0 X143.559 Y149.455
G0 X136.313 Y147.211
G3 X131.765 Y145.880 I43.882 J-158.381
;TIME_ELAPSED:22.217984
;LAYER:1
M106 S255
M204 P6000
;TYPE:WALL-INNER
;MESH:button V2 reten.IGS_Predeterminado.STEP_Predeterminado_BOTCH.3mf(2)
G1 F1500 E0.8
G2 X131.676 Y145.899 I-0.102 J-0.261 E0.10186 F2826
G1 X131.765 Y145.88 E0.00566
G0 F12000 X131.684 Y146.414
G1 F2967.1 X132.017 Y146.33 E0.02035
G1 X132.335 Y146.049 E0.02514
G2 X131.261 Y146.300 I-0.666 J-0.429 E0.22172
G1 X131.684 Y146.414 E0.02595
G0 F12000 X131.702 Y146.916
G2 X131.048 Y146.754 I-0.029 J-1.285 E0.43930 F2967
G2 X131.702 Y146.916 I0.685 J-1.363 E0.04017
G0 F12000 X131.72 Y147.418
G1 F2967.1 X132.068 Y147.372 E0.0208
G2 X130.835 Y147.208 I-0.395 J-1.745 E0.59108
G2 X131.720 Y147.418 I0.900 J-1.824 E0.05422
G0 F12000 X131.738 Y147.92
G1 F2967.1 X132.18 Y147.862 E0.02641
G2 X129.863 Y144.203 I-0.527 J-2.229 E0.51859
G2 X129.477 Y144.933 I1.788 J1.412 E0.04910
G1 X129.375 Y145.609 E0.0405
G2 X131.057 Y147.828 I2.283 J0.016 E0.17708
G1 X131.738 Y147.92 E0.04071
G0 F12000 X131.756 Y148.422
G2 X129.512 Y147.399 I-0.083 J-2.791 E0.88833 F2967
G2 X131.756 Y148.422 I2.204 J-1.862 E0.15086
G0 F12000 X131.774 Y148.924
G1 F2967.1 X132.404 Y148.841 E0.03765
G2 X128.708 Y147.073 I-0.735 J-3.211 E0.96426
G2 X131.774 Y148.924 I2.986 J-1.481 E0.22357
G0 F12000 X131.792 Y149.426
G1 F2967.1 X132.516 Y149.331 E0.04326
G2 X128.259 Y147.294 I-0.845 J-3.700 E1.11117
G2 X131.792 Y149.426 I3.437 J-1.702 E0.25772
G0 F12000 X131.81 Y149.928
M204 P800
;TYPE:WALL-OUTER
G2 X127.370 Y145.700 I-0.145 J-4.293 E1.19580 F1800
G1 X127.487 Y146.618 E0.05483
G2 X131.810 Y149.928 I4.207 J-1.017 E0.34837
G0 F12000 X132.058 Y149.896
G0 X131.9 Y148.655
G1 F2700 E-0.8
;MESH:button V2 reten.IGS_Predeterminado.STEP_Predeterminado_BOTCH.3mf(1)
G0 F12000 X134.148 Y148.806
G2 X138.203 Y154.662 I5498.813 J-3803.333
M204 P6000
;TYPE:WALL-INNER
G1 F1500 E0.8
G2 X138.453 Y154.240 I0.010 J-0.279 E0.03650 F2820
G2 X138.075 Y154.623 I-0.227 J0.154 E0.06197 F2826
G1 F2820.4 X138.203 Y154.662 E0.00834
G0 F12000 X138.973 Y154.611
G2 X138.773 Y154.943 I-0.754 J-0.228 E0.26985 F2967
G1 X138.973 Y154.611 E0.02296
G0 F12000 X136.956 Y154.675
G2 X138.833 Y153.249 I1.258 J-0.292 E0.30401 F2967
G1 X138.318 Y153.094 E0.03186
G2 X136.956 Y154.675 I-0.112 J1.281 E0.14353
G0 F12000 X138.216 Y156.177
G1 F2967.1 X138.766 Y156.087 E0.03302
G1 X139.301 Y155.814 E0.03558
G2 X137.848 Y156.140 I-1.083 J-1.424 E0.57525
G1 X138.216 Y156.177 E0.02191
G0 F12000 X138.22 Y156.677
G2 X136.733 Y152.632 I-0.009 J-2.292 E0.52098 F2967
G1 X136.28 Y153.137 E0.04019
G2 X136.675 Y156.082 I1.940 J1.239 E0.19093
G1 X137.259 Y156.471 E0.04157
G2 X138.220 Y156.677 I0.945 J-2.062 E0.05858
G0 F12000 X140.611 Y155.818
G1 F2967.1 X140.881 Y155.221 E0.03882
G2 X140.207 Y152.424 I-2.659 J-0.839 E0.17879
G1 X139.589 Y151.933 E0.04676
G2 X135.688 Y155.578 I-1.347 J2.469 E0.41757
G2 X140.611 Y155.818 I2.526 J-1.193 E0.35717
G0 F12000 X138.228 Y157.679
G1 F2967.1 X138.939 Y157.598 E0.0424
G2 X138.228 Y157.679 I-0.726 J-3.213 E1.18291
G0 F12000 X138.232 Y158.179
G1 F2967.1 X139.049 Y158.086 E0.04872
G2 X138.232 Y158.179 I-0.835 J-3.704 E1.36336
G0 F12000 X137.326 Y158.59
M204 P800
;TYPE:WALL-OUTER
G2 X133.985 Y153.601 I0.880 J-4.203 E1.20564 F1800
G1 X133.895 Y154.333 E0.04369
G2 X137.326 Y158.590 I4.434 J-0.062 E0.34978
G0 F12000 X137.574 Y158.614
G0 X137.763 Y157.392
G1 F2700 E-0.8
;MESH:button V2 reten.IGS_Predeterminado.STEP_Predeterminado_BOTCH.3mf
G0 F12000 X142.004 Y153.014
G0 X144.694 Y151.925
G0 X148.474 Y150.046
M204 P6000
;TYPE:WALL-INNER
G1 F1500 E0.8
G1 F2820.4 X148.32 Y150.052 E0.00961
G1 X148.146 Y150.212 E0.01473
G2 X148.474 Y150.046 I0.259 J0.104 E0.08305
G0 F12000 X148.309 Y151.105
G1 F2967.1 X148.677 Y151.061 E0.02196
G2 X148.073 Y149.599 I-0.273 J-0.743 E0.15031
G1 X147.72 Y149.916 E0.02811
G2 X148.309 Y151.105 I0.687 J0.400 E0.09259
G0 F12000 X149.536 Y150.941
G1 F2967.1 X149.692 Y150.423 E0.03205
G2 X148.591 Y149.037 I-1.281 J-0.112 E0.11526
G1 X148.076 Y149.066 E0.03056
G2 X149.536 Y150.941 I0.328 J1.251 E0.30181
G0 F12000 X148.441 Y152.112
G1 F2967.1 X148.814 Y152.064 E0.02228
G2 X146.706 Y150.896 I-0.409 J-1.749 E0.51006
G1 X147.004 Y151.44 E0.03675
G2 X148.441 Y152.112 I1.408 J-1.137 E0.09710
G0 F12000 X148.449 Y152.612
G1 F2967.1 X148.93 Y152.551 E0.02872
G2 X148.449 Y152.612 I-0.528 J-2.234 E0.82382
G0 F12000 X148.458 Y153.113
G1 F2967.1 X149.047 Y153.038 E0.03518
G2 X148.458 Y153.113 I-0.646 J-2.721 E1.00363
G0 F12000 X148.466 Y153.614
G1 F2967.1 X149.163 Y153.525 E0.04163
G2 X148.073 Y153.598 I-0.762 J-3.203 E1.16051
G1 X148.466 Y153.614 E0.0233
G0 F12000 X148.475 Y154.114
G2 X151.712 Y148.450 I-0.073 J-3.799 E0.46424 F2967
G1 X151.228 Y147.754 E0.05022
G2 X148.475 Y154.114 I-2.807 J2.561 E0.89767
G0 F12000 X148.483 Y154.615
M204 P800
;TYPE:WALL-OUTER
G2 X152.144 Y148.196 I-0.082 J-4.300 E0.52630 F1800
G1 X151.607 Y147.422 E0.05581
G2 X147.097 Y154.412 I-3.177 J2.900 E0.93367
G2 X148.483 Y154.615 I1.302 J-4.055 E0.08325
G0 F12000 X148.731 Y154.584
G0 X148.642 Y153.35
G1 F2700 E-0.8
;MESH:NOMESH
G0 F600 X148.642 Y153.35 Z0.8
G0 F12000 X144.401 Y150.777
G0 X143.221 Y150.849
G0 X136.404 Y147.796
G0 X135.353 Y147.25
G0 X131.676 Y145.896
;TIME_ELAPSED:32.598731
;LAYER:2
M204 P6000
;TYPE:WALL-INNER
;MESH:button V2 reten.IGS_Predeterminado.STEP_Predeterminado_BOTCH.3mf(2)
G1 F1500 E0.8
G2 X131.499 Y145.841 I-0.011 J-0.278 E0.09570 F2826
G1 X131.676 Y145.896 E0.0116
G0 F12000 X131.686 Y146.413
G1 F2983.8 X132.016 Y146.329 E0.02017
G1 X132.335 Y146.049 E0.02515
G2 X131.261 Y146.300 I-0.667 J-0.430 E0.22146
G1 X131.686 Y146.413 E0.02605
G0 F12000 X131.703 Y146.915
G2 X131.048 Y146.754 I-0.031 J-1.287 E0.43940 F2984
G2 X131.703 Y146.915 I0.681 J-1.356 E0.04021
G0 F12000 X131.721 Y147.417
G1 F2983.8 X132.068 Y147.372 E0.02073
G2 X130.835 Y147.208 I-0.395 J-1.746 E0.59116
G2 X131.721 Y147.417 I0.894 J-1.808 E0.05427
G0 F12000 X131.738 Y147.919
G1 F2983.8 X132.18 Y147.862 E0.0264
G2 X130.079 Y143.956 I-0.529 J-2.233 E0.49907
G2 X131.057 Y147.828 I1.588 J1.659 E0.28627
G1 X131.738 Y147.919 E0.0407
G0 F12000 X130.41 Y148.116
G2 X129.937 Y147.815 I1.257 J-2.497 E1.00589 F2984
G1 X130.41 Y148.116 E0.03322
G0 F12000 X131.773 Y148.923
G2 X130.070 Y142.736 I-0.108 J-3.298 E0.70530 F2984
G1 X129.384 Y143.232 E0.05015
G2 X131.773 Y148.923 I2.294 J2.384 E0.47001
G0 F12000 X131.79 Y149.425
G1 F2983.8 X132.515 Y149.331 E0.04331
G2 X128.477 Y147.678 I-0.843 J-3.699 E1.13737
G2 X131.790 Y149.425 I3.216 J-2.084 E0.23143
G0 F12000 X131.808 Y149.927
M204 P800
;TYPE:WALL-OUTER
G2 X127.485 Y146.612 I-0.141 J-4.292 E1.25036 F1800
G2 X131.808 Y149.927 I4.208 J-1.011 E0.34863
G0 F12000 X132.056 Y149.895
G0 X131.899 Y148.655
G1 F2700 E-0.8
;MESH:button V2 reten.IGS_Predeterminado.STEP_Predeterminado_BOTCH.3mf(1)
G0 F12000 X134.255 Y148.709
G0 X135.897 Y151.081
G0 X138.453 Y154.239
M204 P6000
;TYPE:WALL-INNER
G1 F1500 E0.8
G2 X138.252 Y154.659 I-0.238 J0.144 E0.07319 F2842
G2 X138.453 Y154.239 I-0.043 J-0.279 E0.03369
G0 F12000 X138.195 Y153.588
G1 F2983.8 X137.866 Y153.671 E0.0201
G2 X138.582 Y153.689 I0.340 J0.714 E0.24899
G1 X138.195 Y153.588 E0.0237
G0 F12000 X137.805 Y155.61
G2 X139.458 Y154.732 I0.405 J-1.232 E0.12359 F2984
G1 X139.495 Y154.202 E0.03148
G2 X137.805 Y155.610 I-1.280 J0.182 E0.32422
G0 F12000 X138.219 Y156.176
G1 F2983.8 X138.766 Y156.087 E0.03283
G1 X139.301 Y155.814 E0.03558
G2 X138.219 Y156.176 I-1.078 J-1.425 E0.59740
G0 F12000 X138.222 Y156.677
G1 F2983.8 X138.717 Y156.621 E0.02951
G2 X138.823 Y152.174 I-0.509 J-2.237 E0.35953
G1 X138.142 Y152.082 E0.04071
G2 X136.675 Y156.082 I0.087 J2.301 E0.32226
G1 X137.259 Y156.471 E0.04157
G2 X138.222 Y156.677 I0.953 J-2.100 E0.05868
G0 F12000 X139.589 Y151.933
G1 F2983.8 X138.961 Y151.691 E0.03987
G2 X140.207 Y152.424 I-0.746 J2.693 E0.95267
G1 X139.589 Y151.933 E0.04676
G0 F12000 X138.23 Y157.679
G2 X137.864 Y157.661 I-0.022 J-3.289 E1.20381 F2984
G1 X138.23 Y157.679 E0.02171
G0 F12000 X138.233 Y158.179
G2 X136.632 Y157.836 I-0.024 J-3.797 E1.31453 F2984
G2 X138.233 Y158.179 I1.571 J-3.426 E0.09759
G0 F12000 X138.235 Y157.83
G0 X137.31 Y158.586
M204 P800
;TYPE:WALL-OUTER
G2 X133.985 Y153.601 I0.899 J-4.201 E1.20690 F1800
G1 X133.895 Y154.333 E0.04369
G2 X137.310 Y158.586 I4.433 J-0.062 E0.34873
G0 F12000 X137.557 Y158.624
G0 X137.755 Y157.391
G1 F2700 E-0.8
G1 F600 Z1
;MESH:button V2 reten.IGS_Predeterminado.STEP_Predeterminado_BOTCH.3mf
G0 F12000 X137.755 Y157.391 Z1
G0 X148.437 Y150.595
M204 P6000
;TYPE:WALL-INNER
G1 F600 Z0.8
G1 F1500 E0.8
G2 X148.682 Y150.312 I-0.044 J-0.286 E0.02484 F2836
