;FLAVOR:RepRap
;TIME:2651
;Filament used: 4.63944m
;Layer height: 0.3
;MINX:12.786
;MINY:8.09
;MINZ:0.2
;MAXX:267.214
;MAXY:291.91
;MAXZ:0.8
;Exported with Cura-DuetRRF v1.2.9 plugin by Thomas Kriechbaumer
;Generated with Cura_SteamEngine 5.2.2
T0
M104 S215
M109 S215
M82 ;absolute extrusion mode

M83 ;relative extrusion mode
G1 F2100 E-0.4
;LAYER_COUNT:3
;LAYER:0
M107
G0 F6000 X13.479 Y9.453 Z0.2
;TYPE:SKIRT
G1 F2100 E0.4
G1 F1800 X13.737 Y9.123 E0.01652
G1 X14.112 Y8.806 E0.01936
G1 X14.453 Y8.578 E0.01618
G1 X14.993 Y8.316 E0.02367
G1 X15.756 Y8.114 E0.03112
G1 X16.97 Y8.09 E0.04788
G1 X21.222 Y8.09 E0.16767
G1 X21.893 Y8.099 E0.02646
G1 X22.552 Y8.195 E0.02626
G1 X23.739 Y8.573 E0.04912
G1 X24.684 Y8.888 E0.03928
G1 X27.367 Y9.701 E0.11055
G1 X30.031 Y10.425 E0.10886
G1 X32.725 Y11.076 E0.10929
G1 X35.408 Y11.644 E0.10814
G1 X38.115 Y12.14 E0.10852
G1 X40.89 Y12.566 E0.11071
G1 X43.602 Y12.904 E0.10777
G1 X46.083 Y13.13 E0.09824
G1 X47.655 Y13.29 E0.06231
G1 X48.372 Y13.385 E0.02852
G1 X49.087 Y13.501 E0.02856
G1 X51.846 Y13.907 E0.10997
G1 X54.607 Y14.234 E0.10964
G1 X57.334 Y14.479 E0.10797
G1 X60.106 Y14.65 E0.10952
G1 X62.878 Y14.741 E0.10937
G1 X64.577 Y14.759 E0.067
G1 X68.18 Y14.761 E0.14208
G1 X70.988 Y14.726 E0.11074
G1 X73.723 Y14.615 E0.10794
G1 X76.492 Y14.424 E0.10945
G1 X79.259 Y14.153 E0.10963
G1 X82.023 Y13.805 E0.10985
G1 X82.479 Y13.738 E0.01817
G1 X83.566 Y13.604 E0.04319
G1 X84.413 Y13.625 E0.03341
G1 X87.781 Y14.198 E0.13472
G1 X90.524 Y14.591 E0.10927
G1 X93.279 Y14.906 E0.10935
G1 X96.042 Y15.144 E0.10936
G1 X98.779 Y15.302 E0.10811
G1 X101.553 Y15.383 E0.10943
G1 X104.327 Y15.385 E0.10939
G1 X107.066 Y15.31 E0.10805
G1 X109.871 Y15.154 E0.11078
G1 X112.585 Y14.926 E0.1074
G1 X114.049 Y14.771 E0.05805
G1 X114.579 Y14.75 E0.02092
G1 X115.972 Y14.744 E0.05493
G1 X116.127 Y14.758 E0.00614
G1 X122.881 Y14.762 E0.26633
G1 X126.006 Y15.261 E0.12479
G1 X128.778 Y15.621 E0.11023
G1 X131.538 Y15.899 E0.10939
G1 X134.271 Y16.097 E0.10805
G1 X137.043 Y16.219 E0.10941
G1 X139.819 Y16.264 E0.10948
G1 X142.591 Y16.229 E0.10932
G1 X145.328 Y16.117 E0.10802
G1 X148.097 Y15.926 E0.10945
G1 X150.862 Y15.655 E0.10956
G1 X153.605 Y15.309 E0.10902
G1 X157.139 Y14.76 E0.14103
G1 X159.588 Y14.755 E0.09657
G1 X160.174 Y14.762 E0.02311
G1 X163.997 Y14.758 E0.15075
G1 X165.082 Y14.75 E0.04279
G1 X165.836 Y14.761 E0.02974
G1 X167.342 Y14.909 E0.05967
G1 X170.107 Y15.144 E0.10943
G1 X172.913 Y15.301 E0.11082
G1 X175.649 Y15.377 E0.10793
G1 X178.426 Y15.376 E0.10951
G1 X181.198 Y15.298 E0.10935
G1 X183.933 Y15.142 E0.10803
G1 X186.699 Y14.905 E0.10947
G1 X189.454 Y14.591 E0.10934
G1 X192.184 Y14.201 E0.10875
G1 X195.382 Y13.656 E0.12793
G1 X196.264 Y13.597 E0.03486
G1 X196.95 Y13.662 E0.02717
G1 X199.543 Y14.013 E0.10318
G1 X202.3 Y14.315 E0.10937
G1 X205.061 Y14.538 E0.10923
G1 X207.834 Y14.683 E0.1095
G1 X210.571 Y14.749 E0.10796
G1 X210.985 Y14.747 E0.01633
G1 X212.28 Y14.762 E0.05107
G1 X216.874 Y14.747 E0.18116
G1 X219.652 Y14.662 E0.1096
G1 X222.384 Y14.501 E0.10792
G1 X225.18 Y14.257 E0.11067
G1 X227.886 Y13.943 E0.10742
G1 X231.024 Y13.483 E0.12506
G1 X231.625 Y13.386 E0.02401
G1 X232.347 Y13.29 E0.02872
G1 X233.144 Y13.208 E0.03159
G1 X235.617 Y12.99 E0.0979
G1 X238.377 Y12.668 E0.10957
G1 X241.118 Y12.269 E0.10923
G1 X243.82 Y11.798 E0.10816
G1 X246.547 Y11.243 E0.10974
G1 X249.24 Y10.616 E0.10903
G1 X251.904 Y9.914 E0.10864
G1 X254.596 Y9.123 E0.11064
G1 X255.938 Y8.697 E0.05552
G1 X257.413 Y8.217 E0.06117
G1 X257.884 Y8.112 E0.01903
G1 X259.025 Y8.09 E0.045
G1 X263.332 Y8.09 E0.16984
G1 X263.995 Y8.099 E0.02615
G1 X264.57 Y8.184 E0.02292
G1 X265.271 Y8.426 E0.02924
G1 X265.849 Y8.781 E0.02675
G1 X266.179 Y9.039 E0.01652
G1 X266.723 Y9.751 E0.03533
G1 X266.991 Y10.304 E0.02423
G1 X267.192 Y11.075 E0.03142
G1 X267.214 Y12.197 E0.04425
G1 X267.214 Y26.527 E0.56508
G1 X267.204 Y27.228 E0.02765
G1 X267.166 Y28.144 E0.03615
G1 X267.089 Y30.903 E0.10884
G1 X267.089 Y33.662 E0.1088
G1 X267.175 Y36.196 E0.09998
G1 X267.214 Y38.222 E0.07991
G1 X267.214 Y52.527 E0.56409
G1 X267.204 Y53.233 E0.02784
G1 X267.155 Y54.414 E0.04661
G1 X267.077 Y57.176 E0.10896
G1 X267.077 Y59.935 E0.1088
G1 X267.18 Y62.988 E0.12046
G1 X267.214 Y64.721 E0.06835
G1 X267.214 Y79.027 E0.56413
G1 X267.204 Y79.728 E0.02765
G1 X267.166 Y80.644 E0.03615
G1 X267.089 Y83.403 E0.10884
G1 X267.089 Y86.162 E0.1088
G1 X267.175 Y88.696 E0.09998
G1 X267.214 Y90.722 E0.07991
G1 X267.214 Y105.027 E0.56409
G1 X267.204 Y105.728 E0.02765
G1 X267.166 Y106.644 E0.03615
G1 X267.089 Y109.403 E0.10884
G1 X267.089 Y112.162 E0.1088
G1 X267.175 Y114.696 E0.09998
G1 X267.214 Y116.722 E0.07991
G1 X267.214 Y131.027 E0.56409
G1 X267.204 Y131.728 E0.02765
G1 X267.166 Y132.644 E0.03615
G1 X267.089 Y135.403 E0.10884
G1 X267.089 Y138.162 E0.1088
G1 X267.175 Y140.696 E0.09998
G1 X267.214 Y142.722 E0.07991
G1 X267.214 Y157.027 E0.56409
G1 X267.204 Y157.733 E0.02784
G1 X267.155 Y158.914 E0.04661
G1 X267.077 Y161.676 E0.10896
G1 X267.077 Y164.435 E0.1088
G1 X267.18 Y167.488 E0.12046
G1 X267.214 Y169.221 E0.06835
G1 X267.214 Y183.527 E0.56413
G1 X267.204 Y184.228 E0.02765
G1 X267.166 Y185.144 E0.03615
G1 X267.089 Y187.903 E0.10884
G1 X267.089 Y190.662 E0.1088
G1 X267.175 Y193.196 E0.09998
G1 X267.214 Y195.222 E0.07991
G1 X267.214 Y209.527 E0.56409
G1 X267.204 Y210.228 E0.02765
G1 X267.166 Y211.144 E0.03615
G1 X267.089 Y213.903 E0.10884
G1 X267.089 Y216.662 E0.1088
G1 X267.175 Y219.196 E0.09998
G1 X267.214 Y221.222 E0.07991
G1 X267.214 Y235.527 E0.56409
G1 X267.204 Y236.228 E0.02765
G1 X267.166 Y237.144 E0.03615
G1 X267.089 Y239.903 E0.10884
G1 X267.089 Y242.662 E0.1088
G1 X267.175 Y245.196 E0.09998
G1 X267.214 Y247.222 E0.07991
G1 X267.214 Y261.526 E0.56405
G1 X267.205 Y262.196 E0.02642
G1 X267.122 Y262.765 E0.02267
G1 X266.886 Y263.452 E0.02864
G1 X266.453 Y264.155 E0.03256
G1 X265.983 Y264.728 E0.02922
G1 X264.858 Y266.06 E0.06875
G1 X263.104 Y268.259 E0.11092
G1 X261.468 Y270.435 E0.10735
G1 X259.873 Y272.687 E0.10882
G1 X258.018 Y275.485 E0.13238
G1 X257.017 Y277.051 E0.07329
G1 X256.758 Y277.381 E0.01654
G1 X256.048 Y277.921 E0.03518
G1 X255.507 Y278.184 E0.02372
G1 X254.744 Y278.386 E0.03112
G1 X253.53 Y278.41 E0.04788
G1 X249.278 Y278.41 E0.16767
G1 X248.607 Y278.401 E0.02646
G1 X247.948 Y278.305 E0.02626
G1 X246.761 Y277.927 E0.04912
G1 X245.816 Y277.612 E0.03928
G1 X243.133 Y276.799 E0.11055
G1 X240.469 Y276.075 E0.10886
G1 X237.775 Y275.424 E0.10929
G1 X235.092 Y274.856 E0.10814
G1 X232.385 Y274.36 E0.10852
G1 X229.61 Y273.934 E0.11071
G1 X226.898 Y273.596 E0.10777
G1 X224.417 Y273.37 E0.09824
G1 X222.845 Y273.21 E0.06231
G1 X222.128 Y273.115 E0.02852
G1 X221.413 Y272.999 E0.02856
G1 X218.654 Y272.593 E0.10997
G1 X215.893 Y272.266 E0.10964
G1 X213.166 Y272.021 E0.10797
G1 X210.394 Y271.85 E0.10952
G1 X207.622 Y271.759 E0.10937
G1 X205.923 Y271.741 E0.067
G1 X202.32 Y271.739 E0.14208
G1 X199.512 Y271.774 E0.11074
G1 X196.777 Y271.885 E0.10794
G1 X194.008 Y272.076 E0.10945
G1 X191.241 Y272.347 E0.10963
G1 X188.477 Y272.695 E0.10985
G1 X188.021 Y272.762 E0.01817
G1 X186.932 Y272.896 E0.04327
G1 X186.118 Y272.875 E0.03211
G1 X184.963 Y272.748 E0.04582
G1 X182.196 Y272.48 E0.10962
G1 X179.432 Y272.293 E0.10924
G1 X176.695 Y272.185 E0.10801
G1 X173.921 Y272.153 E0.1094
G1 X171.148 Y272.201 E0.10936
G1 X168.374 Y272.327 E0.1095
G1 X165.644 Y272.529 E0.10795
G1 X162.848 Y272.815 E0.11083
G1 X160.128 Y273.171 E0.10817
G1 X157.429 Y273.602 E0.10778
G1 X154.652 Y274.127 E0.11145
G1 X151.987 Y274.709 E0.10757
G1 X149.312 Y275.372 E0.10868
G1 X146.651 Y276.113 E0.10892
G1 X143.958 Y276.946 E0.11116
G1 X141.399 Y277.818 E0.10661
G1 X138.737 Y278.81 E0.11202
G1 X136.243 Y279.819 E0.10609
G1 X133.68 Y280.944 E0.11037
G1 X130.823 Y282.299 E0.12469
G1 X129.98 Y282.714 E0.03705
G1 X128.891 Y283.136 E0.04605
G1 X127.109 Y283.785 E0.07479
G1 X126.37 Y284.042 E0.03085
G1 X124.424 Y284.743 E0.08156
G1 X123.453 Y285.103 E0.04084
G1 X123.048 Y285.21 E0.01652
G1 X122.693 Y285.24 E0.01405
G1 X120.412 Y285.245 E0.08995
G1 X119.826 Y285.238 E0.02311
G1 X116.003 Y285.242 E0.15075
G1 X114.918 Y285.25 E0.04279
G1 X114.164 Y285.239 E0.02974
G1 X112.658 Y285.091 E0.05967
G1 X109.893 Y284.856 E0.10943
G1 X107.087 Y284.699 E0.11082
G1 X104.351 Y284.623 E0.10793
G1 X101.574 Y284.624 E0.10951
G1 X98.802 Y284.702 E0.10935
G1 X96.067 Y284.858 E0.10803
G1 X93.301 Y285.095 E0.10947
G1 X90.546 Y285.409 E0.10934
G1 X87.816 Y285.799 E0.10875
G1 X84.618 Y286.344 E0.12793
G1 X83.736 Y286.403 E0.03486
G1 X83.05 Y286.338 E0.02717
G1 X80.457 Y285.987 E0.10318
G1 X77.7 Y285.685 E0.10937
G1 X74.939 Y285.462 E0.10923
G1 X72.166 Y285.317 E0.1095
G1 X69.429 Y285.251 E0.10796
G1 X69.015 Y285.253 E0.01633
G1 X67.72 Y285.238 E0.05107
G1 X63.126 Y285.253 E0.18116
G1 X60.348 Y285.338 E0.1096
G1 X57.616 Y285.499 E0.10792
G1 X54.82 Y285.743 E0.11067
G1 X52.114 Y286.057 E0.10742
G1 X48.976 Y286.517 E0.12506
G1 X48.375 Y286.614 E0.02401
G1 X47.653 Y286.71 E0.02872
G1 X46.856 Y286.792 E0.03159
G1 X44.383 Y287.01 E0.0979
G1 X41.623 Y287.332 E0.10957
G1 X38.882 Y287.731 E0.10923
G1 X36.18 Y288.202 E0.10816
G1 X33.453 Y288.757 E0.10974
G1 X30.76 Y289.384 E0.10903
G1 X28.096 Y290.086 E0.10864
G1 X25.409 Y290.876 E0.11044
G1 X24.062 Y291.303 E0.05572
G1 X22.587 Y291.783 E0.06117
G1 X22.116 Y291.888 E0.01903
G1 X20.975 Y291.91 E0.045
G1 X16.668 Y291.91 E0.16984
G1 X16.005 Y291.901 E0.02615
G1 X15.43 Y291.816 E0.02292
G1 X14.729 Y291.574 E0.02924
G1 X14.151 Y291.219 E0.02675
G1 X13.821 Y290.961 E0.01652
G1 X13.277 Y290.249 E0.03533
G1 X13.009 Y289.696 E0.02423
G1 X12.808 Y288.925 E0.03142
G1 X12.786 Y287.755 E0.04615
G1 X12.786 Y273.462 E0.56362
G1 X12.796 Y272.752 E0.028
G1 X12.845 Y271.585 E0.04606
G1 X12.923 Y268.824 E0.10892
G1 X12.923 Y266.065 E0.1088
G1 X12.82 Y263.012 E0.12046
G1 X12.786 Y261.257 E0.06922
G1 X12.786 Y246.973 E0.56326
G1 X12.796 Y246.267 E0.02784
G1 X12.834 Y245.356 E0.03595
G1 X12.911 Y242.597 E0.10884
G1 X12.911 Y239.838 E0.1088
G1 X12.825 Y237.304 E0.09998
G1 X12.786 Y235.278 E0.07991
G1 X12.786 Y220.973 E0.56409
G1 X12.796 Y220.267 E0.02784
G1 X12.834 Y219.356 E0.03595
G1 X12.911 Y216.597 E0.10884
G1 X12.911 Y213.838 E0.1088
G1 X12.825 Y211.304 E0.09998
G1 X12.786 Y209.278 E0.07991
G1 X12.786 Y194.973 E0.56409
G1 X12.796 Y194.267 E0.02784
G1 X12.834 Y193.356 E0.03595
G1 X12.911 Y190.597 E0.10884
G1 X12.911 Y187.838 E0.1088
G1 X12.825 Y185.304 E0.09998
G1 X12.786 Y183.278 E0.07991
G1 X12.786 Y168.974 E0.56405
G1 X12.796 Y168.245 E0.02875
G1 X12.845 Y167.078 E0.04606
G1 X12.923 Y164.318 E0.10888
G1 X12.923 Y161.562 E0.10868
G1 X12.819 Y158.49 E0.12121
G1 X12.786 Y156.778 E0.06752
G1 X12.786 Y142.473 E0.56409
G1 X12.796 Y141.767 E0.02784
G1 X12.834 Y140.856 E0.03595
G1 X12.911 Y138.097 E0.10884
G1 X12.911 Y135.338 E0.1088
G1 X12.825 Y132.804 E0.09998
G1 X12.786 Y130.778 E0.07991
G1 X12.786 Y116.473 E0.56409
G1 X12.796 Y115.767 E0.02784
G1 X12.834 Y114.856 E0.03595
G1 X12.911 Y112.097 E0.10884
G1 X12.911 Y109.338 E0.1088
G1 X12.825 Y106.804 E0.09998
G1 X12.786 Y104.778 E0.07991
G1 X12.786 Y90.473 E0.56409
G1 X12.796 Y89.767 E0.02784
G1 X12.834 Y88.856 E0.03595
G1 X12.911 Y86.097 E0.10884
G1 X12.911 Y83.338 E0.1088
G1 X12.825 Y80.804 E0.09998
G1 X12.786 Y78.778 E0.07991
G1 X12.786 Y64.474 E0.56405
G1 X12.796 Y63.745 E0.02875
G1 X12.845 Y62.578 E0.04606
G1 X12.923 Y59.818 E0.10888
G1 X12.923 Y57.062 E0.10868
G1 X12.819 Y53.99 E0.12121
G1 X12.786 Y52.278 E0.06752
G1 X12.786 Y37.973 E0.56409
G1 X12.796 Y37.267 E0.02784
G1 X12.834 Y36.356 E0.03595
G1 X12.911 Y33.597 E0.10884
G1 X12.911 Y30.838 E0.1088
G1 X12.825 Y28.304 E0.09998
G1 X12.786 Y26.278 E0.07991
G1 X12.786 Y11.975 E0.56401
G1 X12.795 Y11.303 E0.0265
G1 X12.879 Y10.73 E0.02284
G1 X13.116 Y10.044 E0.02862
G1 X13.27 Y9.794 E0.01158
G0 F1620 X13.479 Y9.453
G1 F2100 E-0.4
;MESH:Cam_Holder_450mAh_Dipole_Rev-01_42pcs.3mf(24)
G0 F6000 X15.749 Y11.264
;TYPE:WALL-OUTER
G1 F2100 E0.4
G1 F1822.8 X16.021 Y11.01 E0.01739
G1 F1807.5 X21.804 Y11.01 E0.27251
G1 F1811.3 X21.984 Y11.091 E0.00928
G1 F1815.1 X22.154 Y11.301 E0.01268
G1 F1800 X22.183 Y11.496 E0.00933
G1 F1803.8 X22.183 Y27.162 E0.73977
G1 F1811.3 X21.986 Y27.406 E0.01475
G1 F1803.8 X21.815 Y27.49 E0.009
G1 F1807.5 X16.025 Y27.49 E0.27284
G1 F1796.3 X15.847 Y27.349 E0.01077
G1 X15.706 Y27.171 E0.01077
G1 F1807.5 X15.706 Y11.383 E0.74397
G1 F1815.1 X15.749 Y11.264 E0.00594
G0 F6000 X15.931 Y11.094
G1 F2100 E-0.4
G0 F6000 X31.41 Y17.154
G0 X31.996 Y19.097
G1 F2100 E0.4
G0 F6000 X31.142 Y19.097
G1 F1800 X30.875 Y19.25 E0.01456
G1 X28.227 Y18.29 E0.13328
G1 X25.533 Y18.289 E0.12748
G1 X25.423 Y18.244 E0.00562
G1 F1796.3 X25.346 Y18.153 E0.00565
G1 X24.936 Y17.27 E0.04616
G1 F1800 X24.502 Y17.472 E0.02265
G1 F1788.8 X24.747 Y18.006 E0.02798
G1 F1785.1 X24.726 Y18.153 E0.00709
G1 F1796.3 X24.558 Y18.285 E0.01013
G1 F1800 X22.906 Y18.29 E0.07817
G1 F1781.4 X22.669 Y18.113 E0.01414
G1 F1777.8 X22.665 Y11.472 E0.31818
G1 F1800 X22.591 Y11.097 E0.01809
G1 F1788.8 X22.39 Y10.806 E0.01684
G1 F1800 X22.091 Y10.597 E0.01726
G1 F1815.1 X21.86 Y10.53 E0.01129
G1 F1803.8 X16.03 Y10.53 E0.2753
G1 F1811.3 X15.801 Y10.597 E0.01122
G1 F1803.8 X15.5 Y10.805 E0.01728
G1 X15.293 Y11.105 E0.01721
G1 F1811.3 X15.226 Y11.336 E0.01131
G1 F1800 X15.226 Y27.164 E0.74898
G1 F1811.3 X15.293 Y27.395 E0.01131
G1 F1803.8 X15.5 Y27.695 E0.01721
G1 X15.801 Y27.903 E0.01728
G1 F1811.3 X16.03 Y27.97 E0.01122
G1 F1800 X21.86 Y27.97 E0.27587
G1 F1815.1 X22.091 Y27.903 E0.01129
G1 F1800 X22.39 Y27.694 E0.01726
G1 F1792.5 X22.592 Y27.401 E0.01691
G1 F1803.8 X22.665 Y27.024 E0.01813
G1 F1792.5 X22.665 Y20.45 E0.31238
G1 F1796.3 X22.906 Y20.21 E0.01613
G1 F1800 X24.558 Y20.215 E0.07817
G1 X24.725 Y20.348 E0.0101
G1 X24.724 Y20.551 E0.00961
G1 X24.502 Y21.028 E0.0249
G1 X24.936 Y21.23 E0.02265
G1 X25.347 Y20.348 E0.04605
G1 X25.423 Y20.256 E0.00565
G1 X25.533 Y20.211 E0.00562
G1 X28.227 Y20.21 E0.12748
G1 X30.875 Y19.25 E0.13328
G1 X31.142 Y19.403 E0.01456
G1 X31.146 Y21.61 E0.10444
G1 X32.106 Y21.61 E0.04543
G1 X32.106 Y20.45 E0.05489
G1 X32.264 Y20.211 E0.01356
G1 X34.008 Y20.213 E0.08253
G1 X35.233 Y20.829 E0.06488
G1 X36.447 Y21.355 E0.06261
G1 X37.679 Y21.806 E0.06208
G1 X38.922 Y22.178 E0.0614
G1 X40.199 Y22.482 E0.06212
G1 X41.461 Y22.706 E0.06065
G1 X42.791 Y22.864 E0.06338
G1 X44.127 Y22.94 E0.06332
G1 X45.449 Y22.938 E0.06256
G1 X46.704 Y22.865 E0.05949
G1 X48.044 Y22.706 E0.06385
G1 X49.31 Y22.482 E0.06084
G1 X50.587 Y22.177 E0.06213
G1 X51.843 Y21.802 E0.06203
G1 X53.084 Y21.346 E0.06256
G1 X54.277 Y20.829 E0.06153
G1 X55.502 Y20.211 E0.06493
G1 X62.111 Y20.215 E0.31274
G1 X62.277 Y20.348 E0.01007
G1 X62.277 Y20.551 E0.00961
G1 X62.056 Y21.028 E0.02488
G1 X62.49 Y21.23 E0.02265
G1 X62.901 Y20.348 E0.04605
G1 X62.977 Y20.256 E0.00565
G1 X63.087 Y20.211 E0.00562
G1 X64.77 Y20.215 E0.07964
G1 X64.936 Y20.348 E0.01007
G1 X64.936 Y20.551 E0.00961
G1 X64.715 Y21.028 E0.02488
G1 X65.149 Y21.23 E0.02265
G1 X65.56 Y20.348 E0.04605
G1 X65.636 Y20.256 E0.00565
G1 X65.746 Y20.211 E0.00562
G1 X67.429 Y20.215 E0.07964
G1 X67.595 Y20.348 E0.01007
G1 X67.595 Y20.551 E0.00961
G1 X67.374 Y21.028 E0.02488
G1 X67.808 Y21.23 E0.02265
G1 X68.219 Y20.348 E0.04605
G1 X68.295 Y20.256 E0.00565
G1 X68.405 Y20.211 E0.00562
G1 X70.088 Y20.215 E0.07964
G1 X70.254 Y20.348 E0.01007
G1 X70.254 Y20.551 E0.00961
G1 X70.033 Y21.028 E0.02488
G1 X70.467 Y21.23 E0.02265
G1 X70.878 Y20.348 E0.04605
G1 X70.954 Y20.256 E0.00565
G1 X71.064 Y20.211 E0.00562
G1 X72.747 Y20.215 E0.07964
G1 X72.913 Y20.348 E0.01007
G1 X72.913 Y20.551 E0.00961
G1 X72.692 Y21.028 E0.02488
G1 X73.126 Y21.23 E0.02265
G1 X73.537 Y20.348 E0.04605
G1 X73.613 Y20.256 E0.00565
G1 X73.723 Y20.211 E0.00562
G1 X77.714 Y20.21 E0.18885
G1 X80.361 Y19.25 E0.13324
G1 F1752.5 X80.544 Y19.287 E0.00907
G1 F1707.5 X80.615 Y19.37 E0.00545
G1 F1749 X80.701 Y19.939 E0.02803
G1 F1796.3 X80.834 Y20.39 E0.0223
G1 F1803.8 X81.034 Y20.821 E0.02244
G1 F1796.3 X81.293 Y21.211 E0.0222
G1 F1785.1 X81.608 Y21.563 E0.02254
G1 X81.97 Y21.865 E0.02249
G1 F1792.5 X82.37 Y22.111 E0.02231
G1 F1796.3 X82.82 Y22.3 E0.02314
