;FLAVOR:RepRap
;TIME:3155
;Filament used: 5.27063m
;Layer height: 0.3
;MINX:23.199
;MINY:6.715
;MINZ:0.2
;MAXX:256.801
;MAXY:293.285
;MAXZ:0.8
;Exported with Cura-DuetRRF v1.2.9 plugin by Thomas Kriechbaumer
;Generated with Cura_SteamEngine 5.2.2
T0
M104 S215
M109 S215
M82 ;absolute extrusion mode

M83 ;relative extrusion mode
G1 F2100 E-0.4
;LAYER_COUNT:3
;LAYER:0
M107
G0 F6000 X24.171 Y18.475 Z0.2
;TYPE:SKIRT
G1 F2100 E0.4
G1 F1800 X24.567 Y18.07 E0.02193
G1 X25.796 Y16.844 E0.0672
G1 X27.707 Y14.826 E0.10759
G1 X29.544 Y12.774 E0.10662
G1 X31.324 Y10.667 E0.10678
G1 X33.053 Y8.501 E0.10729
G1 X33.507 Y7.915 E0.0287
G1 X33.794 Y7.61 E0.01621
G1 X34.367 Y7.203 E0.02721
G1 X34.907 Y6.941 E0.02323
G1 X35.67 Y6.739 E0.03055
G1 X36.884 Y6.715 E0.047
G1 X40.638 Y6.715 E0.14532
G1 X41.34 Y6.725 E0.02718
G1 X41.771 Y6.774 E0.01679
G1 X43.089 Y7.057 E0.05218
G1 X45.813 Y7.602 E0.10754
G1 X48.513 Y8.064 E0.10604
G1 X51.267 Y8.457 E0.10769
G1 X54.013 Y8.767 E0.10698
G1 X56.753 Y9.001 E0.10646
G1 X59.526 Y9.157 E0.10752
G1 X63.706 Y9.245 E0.16185
G1 X64.87 Y9.256 E0.04506
G1 X65.609 Y9.288 E0.02863
G1 X66.337 Y9.34 E0.02825
G1 X67.069 Y9.415 E0.02849
G1 X67.759 Y9.507 E0.02695
G1 X68.49 Y9.625 E0.02866
G1 X71.261 Y10.033 E0.10843
G1 X74.021 Y10.36 E0.10759
G1 X76.75 Y10.605 E0.10607
G1 X79.519 Y10.776 E0.1074
G1 X82.296 Y10.868 E0.10756
G1 X84.041 Y10.886 E0.06756
G1 X91.734 Y10.887 E0.29781
G1 X92.78 Y10.918 E0.04051
G1 X95.578 Y10.964 E0.10833
G1 X98.68 Y10.921 E0.12009
G1 X100.265 Y10.875 E0.06138
G1 X102.553 Y10.869 E0.08857
G1 X102.705 Y10.883 E0.00591
G1 X104.066 Y10.885 E0.05269
G1 X105.478 Y11.007 E0.05486
G1 X108.224 Y11.206 E0.10658
G1 X110.997 Y11.328 E0.10745
G1 X113.77 Y11.372 E0.10736
G1 X116.547 Y11.336 E0.10751
G1 X119.307 Y11.224 E0.10693
G1 X122.32 Y11.01 E0.11693
G1 X123.869 Y10.876 E0.06019
G1 X125.567 Y10.869 E0.06573
G1 X125.721 Y10.883 E0.00599
G1 X132.288 Y10.885 E0.25422
G1 X133.478 Y10.952 E0.04614
G1 X134.412 Y11.019 E0.03625
G1 X137.188 Y11.138 E0.10756
G1 X139.963 Y11.18 E0.10744
G1 X142.736 Y11.142 E0.10736
G1 X145.5 Y11.027 E0.10709
G1 X147.711 Y10.885 E0.08577
G1 X149.992 Y10.88 E0.0883
G1 X150.579 Y10.887 E0.02273
G1 X154.402 Y10.883 E0.14799
G1 X155.488 Y10.875 E0.04204
G1 X156.333 Y10.894 E0.03272
G1 X159.159 Y11.136 E0.1098
G1 X161.96 Y11.294 E0.1086
G1 X164.7 Y11.371 E0.10611
G1 X167.474 Y11.371 E0.10739
G1 X170.248 Y11.293 E0.10743
G1 X172.98 Y11.138 E0.10593
G1 X175.953 Y10.884 E0.11551
G1 X179.419 Y10.875 E0.13417
G1 X180.282 Y10.888 E0.03341
G1 X182.803 Y10.96 E0.09763
G1 X185.58 Y10.96 E0.1075
G1 X188.334 Y10.885 E0.10665
G1 X190.628 Y10.88 E0.0888
G1 X191.209 Y10.887 E0.02249
G1 X193.287 Y10.88 E0.08044
G1 X193.868 Y10.887 E0.02249
G1 X196.636 Y10.878 E0.10715
G1 X197.574 Y10.862 E0.03632
G1 X200.343 Y10.776 E0.10724
G1 X203.08 Y10.613 E0.10614
G1 X205.883 Y10.366 E0.10893
G1 X208.579 Y10.052 E0.10507
G1 X211.64 Y9.604 E0.11976
G1 X212.211 Y9.511 E0.0224
G1 X212.934 Y9.415 E0.02823
G1 X213.602 Y9.346 E0.026
G1 X214.436 Y9.285 E0.03237
G1 X215.097 Y9.257 E0.02561
G1 X219.153 Y9.205 E0.15703
G1 X221.925 Y9.088 E0.1074
G1 X224.661 Y8.894 E0.10618
G1 X227.421 Y8.62 E0.10737
G1 X230.171 Y8.268 E0.10733
G1 X232.881 Y7.842 E0.1062
G1 X235.625 Y7.332 E0.10804
G1 X238.172 Y6.786 E0.10084
G1 X238.588 Y6.737 E0.01622
G1 X239.664 Y6.715 E0.04166
G1 X243.418 Y6.715 E0.14532
G1 X244.081 Y6.724 E0.02567
G1 X244.656 Y6.809 E0.0225
G1 X245.357 Y7.051 E0.02871
G1 X245.935 Y7.406 E0.02626
G1 X246.341 Y7.723 E0.01994
G1 X248.494 Y10.447 E0.13441
G1 X250.286 Y12.578 E0.10779
G1 X252.115 Y14.633 E0.1065
G1 X254.005 Y16.641 E0.10675
G1 X255.818 Y18.466 E0.09958
G1 X256.334 Y19.166 E0.03366
G1 X256.532 Y19.535 E0.01621
G1 X256.661 Y19.956 E0.01705
G1 X256.791 Y20.791 E0.03271
G1 X256.801 Y21.488 E0.02698
G1 X256.801 Y30.749 E0.35851
G1 X256.791 Y31.455 E0.02733
G1 X256.738 Y32.72 E0.04901
G1 X256.66 Y35.481 E0.10693
G1 X256.66 Y38.258 E0.1075
G1 X256.736 Y40.968 E0.10495
G1 X256.791 Y42.285 E0.05103
G1 X256.801 Y43.014 E0.02822
G1 X256.801 Y52.249 E0.3575
G1 X256.791 Y52.955 E0.02733
G1 X256.738 Y54.22 E0.04901
G1 X256.66 Y56.981 E0.10693
G1 X256.66 Y59.758 E0.1075
G1 X256.736 Y62.468 E0.10495
G1 X256.791 Y63.785 E0.05103
G1 X256.801 Y64.514 E0.02822
G1 X256.801 Y73.749 E0.3575
G1 X256.791 Y74.455 E0.02733
G1 X256.738 Y75.72 E0.04901
G1 X256.66 Y78.481 E0.10693
G1 X256.66 Y81.258 E0.1075
G1 X256.736 Y83.968 E0.10495
G1 X256.791 Y85.285 E0.05103
G1 X256.801 Y86.014 E0.02822
G1 X256.801 Y95.24 E0.35715
G1 X256.791 Y95.954 E0.02764
G1 X256.73 Y97.397 E0.05591
G1 X256.735 Y97.446 E0.00191
G1 X256.701 Y98.128 E0.02643
G1 X256.641 Y100.957 E0.10954
G1 X256.66 Y103.689 E0.10576
G1 X256.729 Y105.801 E0.0818
G1 X256.791 Y107.278 E0.05723
G1 X256.801 Y108.011 E0.02838
G1 X256.801 Y117.249 E0.35762
G1 X256.791 Y117.956 E0.02737
G1 X256.738 Y119.22 E0.04897
G1 X256.66 Y121.981 E0.10693
G1 X256.66 Y124.757 E0.10746
G1 X256.736 Y127.468 E0.10499
G1 X256.791 Y128.785 E0.05103
G1 X256.801 Y129.514 E0.02822
G1 X256.801 Y138.749 E0.3575
G1 X256.791 Y139.456 E0.02737
G1 X256.738 Y140.72 E0.04897
G1 X256.66 Y143.481 E0.10693
G1 X256.66 Y146.257 E0.10746
G1 X256.736 Y148.968 E0.10499
G1 X256.791 Y150.285 E0.05103
G1 X256.801 Y151.014 E0.02822
G1 X256.801 Y160.249 E0.3575
G1 X256.791 Y160.956 E0.02737
G1 X256.738 Y162.22 E0.04897
G1 X256.66 Y164.981 E0.10693
G1 X256.66 Y167.757 E0.10746
G1 X256.736 Y170.468 E0.10499
G1 X256.791 Y171.785 E0.05103
G1 X256.801 Y172.514 E0.02822
G1 X256.801 Y181.749 E0.3575
G1 X256.791 Y182.456 E0.02737
G1 X256.738 Y183.72 E0.04897
G1 X256.66 Y186.481 E0.10693
G1 X256.66 Y189.257 E0.10746
G1 X256.736 Y191.968 E0.10499
G1 X256.791 Y193.285 E0.05103
G1 X256.801 Y194.014 E0.02822
G1 X256.801 Y203.249 E0.3575
G1 X256.791 Y203.956 E0.02737
G1 X256.738 Y205.22 E0.04897
G1 X256.66 Y207.981 E0.10693
G1 X256.66 Y210.757 E0.10746
G1 X256.736 Y213.468 E0.10499
G1 X256.791 Y214.785 E0.05103
G1 X256.801 Y215.514 E0.02822
G1 X256.801 Y224.749 E0.3575
G1 X256.791 Y225.456 E0.02737
G1 X256.738 Y226.72 E0.04897
G1 X256.66 Y229.481 E0.10693
G1 X256.66 Y232.257 E0.10746
G1 X256.736 Y234.968 E0.10499
G1 X256.791 Y236.285 E0.05103
G1 X256.801 Y237.014 E0.02822
G1 X256.801 Y246.249 E0.3575
G1 X256.791 Y246.956 E0.02737
G1 X256.738 Y248.22 E0.04897
G1 X256.66 Y250.981 E0.10693
G1 X256.66 Y253.757 E0.10746
G1 X256.736 Y256.468 E0.10499
G1 X256.791 Y257.785 E0.05103
G1 X256.801 Y258.514 E0.02822
G1 X256.801 Y267.749 E0.3575
G1 X256.791 Y268.456 E0.02737
G1 X256.738 Y269.72 E0.04897
G1 X256.66 Y272.481 E0.10693
G1 X256.66 Y275.257 E0.10746
G1 X256.736 Y277.968 E0.10499
G1 X256.791 Y279.285 E0.05103
G1 X256.801 Y280.014 E0.02822
G1 X256.801 Y289.227 E0.35665
G1 X256.79 Y289.963 E0.02849
G1 X256.654 Y290.821 E0.03363
G1 X256.532 Y291.222 E0.01623
G1 X256.31 Y291.631 E0.01801
G1 X255.798 Y292.305 E0.03277
G1 X255.141 Y292.793 E0.03168
G1 X254.596 Y293.058 E0.02346
G1 X253.83 Y293.261 E0.03068
G1 X252.616 Y293.285 E0.047
G1 X248.862 Y293.285 E0.14532
G1 X248.16 Y293.275 E0.02718
G1 X247.729 Y293.226 E0.01679
G1 X246.411 Y292.943 E0.05218
G1 X243.687 Y292.398 E0.10754
G1 X240.987 Y291.936 E0.10604
G1 X238.233 Y291.543 E0.10769
G1 X235.487 Y291.233 E0.10698
G1 X232.747 Y290.999 E0.10646
G1 X229.974 Y290.843 E0.10752
G1 X225.794 Y290.755 E0.16185
G1 X224.63 Y290.744 E0.04506
G1 X223.891 Y290.712 E0.02863
G1 X223.163 Y290.66 E0.02825
G1 X222.431 Y290.585 E0.02849
G1 X221.741 Y290.493 E0.02695
G1 X221.01 Y290.375 E0.02866
G1 X218.239 Y289.967 E0.10843
G1 X215.479 Y289.64 E0.10759
G1 X212.75 Y289.395 E0.10607
G1 X209.981 Y289.224 E0.1074
G1 X207.204 Y289.132 E0.10756
G1 X205.459 Y289.114 E0.06756
G1 X197.766 Y289.113 E0.29781
G1 X196.72 Y289.082 E0.04051
G1 X193.922 Y289.036 E0.10833
G1 X190.82 Y289.079 E0.12009
G1 X189.235 Y289.125 E0.06138
G1 X186.947 Y289.131 E0.08857
G1 X186.795 Y289.117 E0.00591
G1 X185.434 Y289.115 E0.05269
G1 X184.022 Y288.993 E0.05486
G1 X181.276 Y288.794 E0.10658
G1 X178.503 Y288.672 E0.10745
G1 X175.73 Y288.628 E0.10736
G1 X172.953 Y288.664 E0.10751
G1 X170.193 Y288.776 E0.10693
G1 X167.18 Y288.99 E0.11693
G1 X165.631 Y289.124 E0.06019
G1 X163.933 Y289.131 E0.06573
G1 X163.779 Y289.117 E0.00599
G1 X157.029 Y289.114 E0.2613
G1 X153.99 Y288.63 E0.11913
G1 X151.249 Y288.275 E0.10699
G1 X148.483 Y287.995 E0.10762
G1 X145.752 Y287.796 E0.106
G1 X142.979 Y287.673 E0.10745
G1 X140.206 Y287.628 E0.10736
G1 X137.432 Y287.663 E0.10739
G1 X134.694 Y287.774 E0.10608
G1 X131.926 Y287.965 E0.10741
G1 X129.164 Y288.233 E0.10742
G1 X126.413 Y288.58 E0.10734
G1 X124.549 Y288.869 E0.07302
G1 X124.483 Y288.873 E0.00256
G1 X122.966 Y289.115 E0.05947
G1 X120.508 Y289.12 E0.09515
G1 X119.921 Y289.113 E0.02273
G1 X116.098 Y289.117 E0.14799
G1 X115.012 Y289.125 E0.04204
G1 X114.167 Y289.106 E0.03272
G1 X111.341 Y288.864 E0.1098
G1 X108.54 Y288.706 E0.1086
G1 X105.8 Y288.629 E0.10611
G1 X103.026 Y288.629 E0.10739
G1 X100.252 Y288.707 E0.10743
G1 X97.52 Y288.862 E0.10593
G1 X94.547 Y289.116 E0.11551
G1 X91.081 Y289.125 E0.13417
G1 X90.218 Y289.112 E0.03341
G1 X87.697 Y289.04 E0.09763
G1 X84.92 Y289.04 E0.1075
G1 X82.166 Y289.115 E0.10665
G1 X79.872 Y289.12 E0.0888
G1 X79.291 Y289.113 E0.02249
G1 X77.213 Y289.12 E0.08044
G1 X76.632 Y289.113 E0.02249
G1 X73.864 Y289.122 E0.10715
G1 X72.926 Y289.138 E0.03632
G1 X70.157 Y289.224 E0.10724
G1 X67.42 Y289.387 E0.10614
G1 X64.617 Y289.634 E0.10893
G1 X61.921 Y289.948 E0.10507
G1 X58.86 Y290.396 E0.11976
G1 X58.289 Y290.489 E0.0224
G1 X57.566 Y290.585 E0.02823
G1 X56.898 Y290.654 E0.026
G1 X56.064 Y290.715 E0.03237
G1 X55.403 Y290.743 E0.02561
G1 X51.347 Y290.795 E0.15703
G1 X48.575 Y290.912 E0.1074
G1 X45.839 Y291.106 E0.10618
G1 X43.079 Y291.38 E0.10737
G1 X40.329 Y291.732 E0.10733
G1 X37.619 Y292.158 E0.1062
G1 X34.875 Y292.668 E0.10804
G1 X32.328 Y293.214 E0.10084
G1 X31.912 Y293.263 E0.01622
G1 X30.836 Y293.285 E0.04166
G1 X27.082 Y293.285 E0.14532
G1 X26.419 Y293.276 E0.02567
G1 X25.844 Y293.191 E0.0225
G1 X25.143 Y292.949 E0.02871
G1 X24.565 Y292.594 E0.02626
G1 X24.235 Y292.336 E0.01622
G1 X23.917 Y291.959 E0.01909
G1 X23.468 Y291.214 E0.03367
G1 X23.339 Y290.793 E0.01705
G1 X23.209 Y289.956 E0.03279
G1 X23.199 Y289.203 E0.02915
G1 X23.199 Y280.001 E0.35622
G1 X23.209 Y279.28 E0.02791
G1 X23.262 Y278.019 E0.04886
G1 X23.34 Y275.258 E0.10693
G1 X23.34 Y272.482 E0.10746
G1 X23.263 Y269.741 E0.10615
G1 X23.209 Y268.454 E0.04987
G1 X23.199 Y267.737 E0.02776
G1 X23.199 Y258.501 E0.35754
G1 X23.209 Y257.78 E0.02791
G1 X23.262 Y256.519 E0.04886
G1 X23.34 Y253.758 E0.10693
G1 X23.34 Y250.982 E0.10746
G1 X23.263 Y248.241 E0.10615
G1 X23.209 Y246.954 E0.04987
G1 X23.199 Y246.237 E0.02776
G1 X23.199 Y237.001 E0.35754
G1 X23.209 Y236.28 E0.02791
G1 X23.262 Y235.019 E0.04886
G1 X23.34 Y232.258 E0.10693
G1 X23.34 Y229.482 E0.10746
G1 X23.263 Y226.741 E0.10615
G1 X23.209 Y225.454 E0.04987
G1 X23.199 Y224.737 E0.02776
G1 X23.199 Y215.501 E0.35754
G1 X23.209 Y214.78 E0.02791
G1 X23.262 Y213.519 E0.04886
G1 X23.34 Y210.758 E0.10693
G1 X23.34 Y207.982 E0.10746
G1 X23.263 Y205.241 E0.10615
G1 X23.209 Y203.954 E0.04987
G1 X23.199 Y203.237 E0.02776
G1 X23.199 Y194.001 E0.35754
G1 X23.209 Y193.28 E0.02791
G1 X23.262 Y192.019 E0.04886
G1 X23.34 Y189.258 E0.10693
G1 X23.34 Y186.482 E0.10746
G1 X23.263 Y183.741 E0.10615
G1 X23.209 Y182.454 E0.04987
G1 X23.199 Y181.737 E0.02776
G1 X23.199 Y172.501 E0.35754
G1 X23.209 Y171.78 E0.02791
G1 X23.262 Y170.519 E0.04886
G1 X23.34 Y167.758 E0.10693
G1 X23.34 Y164.982 E0.10746
G1 X23.263 Y162.241 E0.10615
G1 X23.209 Y160.954 E0.04987
G1 X23.199 Y160.237 E0.02776
G1 X23.199 Y151.001 E0.35754
G1 X23.209 Y150.28 E0.02791
G1 X23.262 Y149.019 E0.04886
G1 X23.34 Y146.258 E0.10693
G1 X23.34 Y143.482 E0.10746
G1 X23.263 Y140.741 E0.10615
G1 X23.209 Y139.454 E0.04987
G1 X23.199 Y138.737 E0.02776
G1 X23.199 Y129.501 E0.35754
G1 X23.209 Y128.78 E0.02791
G1 X23.262 Y127.519 E0.04886
G1 X23.34 Y124.758 E0.10693
G1 X23.34 Y121.982 E0.10746
G1 X23.263 Y119.241 E0.10615
G1 X23.209 Y117.954 E0.04987
G1 X23.199 Y117.237 E0.02776
G1 X23.199 Y108.001 E0.35754
G1 X23.209 Y107.295 E0.02733
G1 X23.27 Y105.853 E0.05587
G1 X23.265 Y105.804 E0.00191
G1 X23.299 Y105.119 E0.02655
G1 X23.359 Y102.293 E0.10942
G1 X23.34 Y99.561 E0.10576
G1 X23.27 Y97.428 E0.08262
G1 X23.209 Y95.956 E0.05703
G1 X23.199 Y95.237 E0.02784
G1 X23.199 Y86.002 E0.3575
G1 X23.209 Y85.28 E0.02795
G1 X23.262 Y84.018 E0.0489
G1 X23.34 Y81.258 E0.10689
G1 X23.34 Y78.483 E0.10742
G1 X23.263 Y75.741 E0.10619
G1 X23.209 Y74.454 E0.04987
G1 X23.199 Y73.737 E0.02776
G1 X23.199 Y64.502 E0.3575
G1 X23.209 Y63.78 E0.02795
G1 X23.262 Y62.518 E0.0489
G1 X23.34 Y59.758 E0.10689
G1 X23.34 Y56.983 E0.10742
G1 X23.263 Y54.241 E0.10619
G1 X23.209 Y52.954 E0.04987
G1 X23.199 Y52.237 E0.02776
G1 X23.199 Y43.002 E0.3575
G1 X23.209 Y42.28 E0.02795
G1 X23.262 Y41.018 E0.0489
G1 X23.34 Y38.258 E0.10689
G1 X23.34 Y35.483 E0.10742
G1 X23.263 Y32.741 E0.10619
G1 X23.209 Y31.454 E0.04987
G1 X23.199 Y30.737 E0.02776
G1 X23.199 Y21.485 E0.35816
G1 X23.21 Y20.785 E0.0271
G1 X23.343 Y19.938 E0.03319
G1 X23.463 Y19.537 E0.0162
G1 X23.686 Y19.124 E0.01817
G1 X23.932 Y18.795 E0.0159
G0 F1620 X24.171 Y18.475
G1 F2100 E-0.4
;MESH:Cam_Holder_300mah_Rev.01_52pcs.3mf(49)
G0 F6000 X26.321 Y20.467
;TYPE:WALL-OUTER
G1 F2100 E0.4
G1 F1803.8 X26.49 Y20.385 E0.00871
G1 X31.729 Y20.385 E0.24286
G1 F1811.3 X31.898 Y20.466 E0.00865
G1 X32.097 Y20.714 E0.01468
G1 F1803.8 X32.097 Y31.536 E0.50168
G1 X31.9 Y31.781 E0.01457
G1 X31.729 Y31.865 E0.00883
G1 F1800 X26.49 Y31.865 E0.24337
G1 F1803.8 X26.319 Y31.781 E0.00883
G1 F1807.5 X26.148 Y31.569 E0.0126
G1 F1800 X26.122 Y31.379 E0.00891
G1 F1792.5 X26.122 Y20.875 E0.48998
G1 F1800 X26.151 Y20.675 E0.00939
G1 F1807.5 X26.321 Y20.467 E0.01243
G0 F6000 X26.49 Y20.385
G0 X26.553 Y20.385
G1 F2100 E-0.4
G0 F6000 X46.46 Y24.269
G0 X64.083 Y25.601
G1 F2100 E0.4
G1 F1800 X64.284 Y25.99 E0.02034
G1 X64.262 Y26.337 E0.01615
G1 X64.063 Y26.662 E0.0177
G1 X63.879 Y26.794 E0.01052
G1 X62.719 Y27.3 E0.05879
G1 X61.537 Y27.741 E0.05861
G1 X60.303 Y28.115 E0.0599
G1 X59.056 Y28.414 E0.05957
G1 X57.819 Y28.633 E0.05836
G1 X56.562 Y28.782 E0.0588
G1 X55.308 Y28.856 E0.05835
G1 X54.025 Y28.856 E0.0596
G1 X52.761 Y28.781 E0.05882
G1 X51.501 Y28.631 E0.05895
G1 X50.266 Y28.409 E0.05829
G1 X49.019 Y28.111 E0.05956
G1 X47.8 Y27.739 E0.05921
G1 X46.63 Y27.305 E0.05797
G1 X45.457 Y26.793 E0.05945
G1 X45.273 Y26.662 E0.01049
G1 F1803.8 X45.113 Y26.435 E0.01287
G1 X45.041 Y26.125 E0.01475
G1 X45.113 Y25.815 E0.01475
G1 X45.256 Y25.602 E0.01189
G1 F1800 X45.459 Y25.457 E0.01159
G1 X46.63 Y24.946 E0.05935
G1 X47.815 Y24.505 E0.05874
G1 X49.033 Y24.135 E0.05913
G1 X50.28 Y23.836 E0.05957
G1 X51.517 Y23.617 E0.05836
G1 X52.775 Y23.468 E0.05885
G1 X54.027 Y23.394 E0.05826
G1 X55.311 Y23.394 E0.05965
G1 X56.575 Y23.469 E0.05882
G1 X57.835 Y23.619 E0.05895
G1 X59.071 Y23.841 E0.05834
G1 X60.316 Y24.139 E0.05947
G1 X61.537 Y24.511 E0.05929
G1 X62.706 Y24.945 E0.05793
G1 X63.803 Y25.423 E0.05559
G0 F1620 X63.88 Y25.456
G0 X64.083 Y25.601
G0 F6000 X64.197 Y25.823
G1 F2100 E-0.4
G0 F6000 X65.111 Y25.883
G0 X88.513 Y26.125
G0 X89.813 Y26.1
G0 X89.557 Y25.314
G1 F2100 E0.4
G1 F1741.9 X89.557 Y24.93 E0.01843
G1 F1785.1 X89.705 Y24.547 E0.01923
G1 F1803.8 X90.015 Y24.233 E0.02045
G1 F1777.8 X90.446 Y24.073 E0.02162
G1 F1714.3 X90.83 Y24.082 E0.01874
G1 F2100 E-0.4
G0 F6000 X91.677 Y24.353
G0 X90.731 Y26.125
G1 F2100 E0.4
G1 F1687.5 X90.388 Y26.125 E0.017
G0 F6000 X89.565 Y26.278
G1 F1677.7 X89.563 Y26.901 E0.03105
G1 F1674.4 X89.735 Y26.536 E0.02015
G1 F1668 X90.04 Y26.257 E0.02072
G1 F1674.4 X90.388 Y26.125 E0.01859
G1 F1671.2 X89.955 Y25.941 E0.02354
G1 F1664.7 X89.735 Y25.714 E0.01588
G1 F1694.1 X89.557 Y25.314 E0.02161
G1 F1700.8 X89.566 Y25.975 E0.0325
G1 F1674.4 X89.468 Y26.09 E0.00755
G1 F1728 X89.275 Y26.125 E0.00949
G1 F1800 X86.627 Y25.165 E0.13084
G1 X82.636 Y25.164 E0.1854
G1 X82.526 Y25.119 E0.00552
G1 F1796.3 X82.449 Y25.028 E0.00555
G1 X82.039 Y24.145 E0.04532
G1 F1800 X81.605 Y24.347 E0.02224
G1 F1788.8 X81.85 Y24.881 E0.02746
