;FLAVOR:RepRap
;TIME:3079
;Filament used: 5.38353m
;Layer height: 0.3
;MINX:13.887
;MINY:12.34
;MINZ:0.2
;MAXX:266.078
;MAXY:287.66
;MAXZ:0.8
;Exported with Cura-DuetRRF v1.2.9 plugin by Thomas Kriechbaumer
;Generated with Cura_SteamEngine 5.2.2
T0
M104 S215
M109 S215
M82 ;absolute extrusion mode

M83 ;relative extrusion mode
G1 F2100 E-0.4
;LAYER_COUNT:3
;LAYER:0
M107
G0 F6000 X14.873 Y13.373 Z0.2
;TYPE:SKIRT
G1 F2100 E0.4
G1 F1800 X15.248 Y13.056 E0.01936
G1 X15.589 Y12.828 E0.01618
G1 X16.129 Y12.566 E0.02367
G1 X16.892 Y12.364 E0.03112
G1 X18.106 Y12.34 E0.04788
G1 X21.859 Y12.34 E0.14799
G1 X22.56 Y12.35 E0.02765
G1 X22.99 Y12.399 E0.01707
G1 X24.325 Y12.685 E0.05384
G1 X27.064 Y13.233 E0.11015
G1 X29.769 Y13.696 E0.10822
G1 X32.515 Y14.086 E0.10937
G1 X35.269 Y14.398 E0.10929
G1 X38.001 Y14.63 E0.10812
G1 X40.808 Y14.787 E0.11086
G1 X43.547 Y14.863 E0.10805
G1 X46.492 Y14.881 E0.11613
G1 X47.231 Y14.913 E0.02917
G1 X47.959 Y14.965 E0.02878
G1 X48.691 Y15.04 E0.02902
G1 X49.354 Y15.128 E0.02637
G1 X52.226 Y15.553 E0.11449
G1 X55.018 Y15.885 E0.11087
G1 X57.743 Y16.13 E0.10789
G1 X60.511 Y16.301 E0.10936
G1 X63.287 Y16.393 E0.10953
G1 X64.988 Y16.411 E0.06708
G1 X71.743 Y16.413 E0.26637
G1 X74.685 Y16.374 E0.11602
G1 X77.528 Y16.257 E0.1122
G1 X80.326 Y16.061 E0.1106
G1 X83.06 Y15.79 E0.10834
G1 X84.344 Y15.626 E0.05104
G1 X84.43 Y15.623 E0.00339
G1 X86.599 Y15.354 E0.08619
G1 X87.455 Y15.375 E0.03376
G1 X88.154 Y15.494 E0.02796
G1 X90.889 Y15.92 E0.10915
G1 X93.637 Y16.267 E0.10922
G1 X96.405 Y16.539 E0.10968
G1 X99.17 Y16.731 E0.1093
G1 X101.909 Y16.844 E0.1081
G1 X104.682 Y16.88 E0.10936
G1 X107.457 Y16.836 E0.10944
G1 X110.226 Y16.716 E0.10929
G1 X112.969 Y16.517 E0.10845
G1 X114.322 Y16.4 E0.05355
G1 X118.828 Y16.413 E0.17769
G1 X123.464 Y16.411 E0.18281
G1 X126.063 Y16.817 E0.10373
G1 X128.798 Y17.171 E0.10875
G1 X131.564 Y17.45 E0.10963
G1 X134.295 Y17.648 E0.10797
G1 X137.067 Y17.77 E0.10941
G1 X139.84 Y17.814 E0.10936
G1 X142.617 Y17.778 E0.10952
G1 X145.35 Y17.667 E0.10786
G1 X148.122 Y17.474 E0.10957
G1 X150.882 Y17.205 E0.10935
G1 X153.626 Y16.858 E0.10907
G1 X155.422 Y16.588 E0.07162
G1 X156.541 Y16.41 E0.04468
G1 X159.346 Y16.406 E0.11061
G1 X159.934 Y16.413 E0.02319
G1 X163.937 Y16.398 E0.15785
G1 X164.038 Y16.407 E0.004
G1 X165.039 Y16.4 E0.03947
G1 X165.717 Y16.41 E0.02674
G1 X168.507 Y16.639 E0.11039
G1 X171.323 Y16.798 E0.11122
G1 X174.059 Y16.874 E0.10793
G1 X176.833 Y16.872 E0.10939
G1 X179.611 Y16.792 E0.10959
G1 X182.341 Y16.638 E0.10782
G1 X185.103 Y16.402 E0.10931
G1 X187.873 Y16.085 E0.10994
G1 X190.619 Y15.694 E0.10938
G1 X192.354 Y15.406 E0.06935
G1 X193.325 Y15.341 E0.03838
G1 X194.883 Y15.532 E0.0619
G1 X195.9 Y15.673 E0.04049
G1 X198.663 Y15.976 E0.10961
G1 X201.428 Y16.201 E0.10939
G1 X204.2 Y16.347 E0.10946
G1 X206.958 Y16.414 E0.10879
G1 X209.268 Y16.407 E0.09109
G1 X209.832 Y16.413 E0.02224
G1 X212.118 Y16.406 E0.09014
G1 X212.708 Y16.413 E0.02327
G1 X215.439 Y16.405 E0.10769
G1 X216.431 Y16.388 E0.03912
G1 X216.512 Y16.378 E0.00322
G1 X217.677 Y16.361 E0.04594
G1 X220.447 Y16.244 E0.10933
G1 X223.184 Y16.05 E0.1082
G1 X225.942 Y15.776 E0.10929
G1 X228.68 Y15.426 E0.10885
G1 X230.565 Y15.139 E0.07519
G1 X231.312 Y15.04 E0.02971
G1 X231.98 Y14.971 E0.02648
G1 X232.815 Y14.91 E0.03301
G1 X233.484 Y14.882 E0.0264
G1 X234.82 Y14.87 E0.05268
G1 X234.873 Y14.864 E0.0021
G1 X236.459 Y14.865 E0.06254
G1 X239.197 Y14.789 E0.10801
G1 X242.006 Y14.632 E0.11094
G1 X244.729 Y14.403 E0.10776
G1 X247.494 Y14.091 E0.10972
G1 X250.201 Y13.708 E0.10781
G1 X252.939 Y13.24 E0.10953
G1 X256.982 Y12.405 E0.16279
G1 X257.383 Y12.36 E0.01591
G1 X258.388 Y12.34 E0.03964
G1 X262.196 Y12.34 E0.15016
G1 X262.859 Y12.349 E0.02615
G1 X263.434 Y12.434 E0.02292
G1 X264.135 Y12.676 E0.02924
G1 X264.713 Y13.031 E0.02675
G1 X265.043 Y13.289 E0.01652
G1 X265.587 Y14.001 E0.03533
G1 X265.855 Y14.554 E0.02423
G1 X266.056 Y15.325 E0.03142
G1 X266.078 Y16.447 E0.04425
G1 X266.078 Y25.777 E0.36791
G1 X266.068 Y26.482 E0.0278
G1 X266.007 Y27.935 E0.05735
G1 X265.929 Y30.697 E0.10896
G1 X265.929 Y33.455 E0.10876
G1 X266.051 Y37.071 E0.14267
G1 X266.078 Y38.472 E0.05526
G1 X266.078 Y47.777 E0.36693
G1 X266.068 Y48.482 E0.0278
G1 X266.021 Y49.604 E0.04428
G1 X265.974 Y50.444 E0.03318
G1 X265.898 Y53.174 E0.10769
G1 X265.9 Y55.932 E0.10876
G1 X266.029 Y59.754 E0.1508
G1 X266.054 Y60.23 E0.0188
G1 X266.078 Y61.459 E0.04847
G1 X266.078 Y70.777 E0.36744
G1 X266.068 Y71.482 E0.0278
G1 X266.007 Y72.935 E0.05735
G1 X265.929 Y75.697 E0.10896
G1 X265.929 Y78.455 E0.10876
G1 X266.051 Y82.071 E0.14267
G1 X266.078 Y83.472 E0.05526
G1 X266.078 Y92.777 E0.36693
G1 X266.068 Y93.482 E0.0278
G1 X266.021 Y94.604 E0.04428
G1 X265.974 Y95.444 E0.03318
G1 X265.898 Y98.174 E0.10769
G1 X265.9 Y100.932 E0.10876
G1 X266.029 Y104.754 E0.1508
G1 X266.054 Y105.23 E0.0188
G1 X266.078 Y106.459 E0.04847
G1 X266.078 Y115.777 E0.36744
G1 X266.068 Y116.482 E0.0278
G1 X266.007 Y117.935 E0.05735
G1 X265.929 Y120.697 E0.10896
G1 X265.929 Y123.455 E0.10876
G1 X266.051 Y127.071 E0.14267
G1 X266.078 Y128.472 E0.05526
G1 X266.078 Y137.777 E0.36693
G1 X266.068 Y138.482 E0.0278
G1 X266.021 Y139.604 E0.04428
G1 X265.974 Y140.444 E0.03318
G1 X265.898 Y143.174 E0.10769
G1 X265.9 Y145.932 E0.10876
G1 X266.029 Y149.754 E0.1508
G1 X266.054 Y150.23 E0.0188
G1 X266.078 Y151.459 E0.04847
G1 X266.078 Y160.777 E0.36744
G1 X266.068 Y161.482 E0.0278
G1 X266.007 Y162.935 E0.05735
G1 X265.929 Y165.697 E0.10896
G1 X265.929 Y168.455 E0.10876
G1 X266.051 Y172.071 E0.14267
G1 X266.078 Y173.472 E0.05526
G1 X266.078 Y182.777 E0.36693
G1 X266.068 Y183.482 E0.0278
G1 X266.035 Y184.287 E0.03177
G1 X265.953 Y185.74 E0.05739
G1 X265.877 Y188.468 E0.10762
G1 X265.879 Y191.244 E0.10947
G1 X265.958 Y193.996 E0.10856
G1 X266.032 Y195.58 E0.06253
G1 X266.044 Y196.389 E0.0319
G1 X266.044 Y205.615 E0.36381
G1 X266.034 Y206.329 E0.02816
G1 X265.973 Y207.772 E0.05695
G1 X265.978 Y207.821 E0.00194
G1 X265.944 Y208.503 E0.02693
G1 X265.884 Y211.332 E0.11158
G1 X265.903 Y214.064 E0.10773
G1 X265.972 Y216.176 E0.08333
G1 X266.034 Y217.653 E0.05829
G1 X266.044 Y218.389 E0.02903
G1 X266.044 Y227.624 E0.36417
G1 X266.034 Y228.33 E0.02784
G1 X265.994 Y229.271 E0.03714
G1 X265.937 Y230.263 E0.03918
G1 X265.856 Y233.056 E0.11018
G1 X265.854 Y235.831 E0.10943
G1 X265.93 Y238.599 E0.10919
G1 X265.998 Y239.784 E0.04681
G1 X266.034 Y240.653 E0.0343
G1 X266.044 Y241.388 E0.02899
G1 X266.044 Y250.615 E0.36385
G1 X266.034 Y251.33 E0.0282
G1 X265.974 Y252.779 E0.05719
G1 X265.978 Y252.821 E0.00166
G1 X265.944 Y253.503 E0.02693
G1 X265.884 Y256.332 E0.11158
G1 X265.903 Y259.064 E0.10773
G1 X265.972 Y261.176 E0.08333
G1 X266.034 Y262.653 E0.05829
G1 X266.044 Y263.389 E0.02903
G1 X266.044 Y272.6 E0.36322
G1 X266.033 Y273.336 E0.02903
G1 X265.903 Y274.18 E0.03367
G1 X265.783 Y274.582 E0.01654
G1 X265.554 Y275.005 E0.01897
G1 X265.115 Y275.604 E0.02928
G1 X264.247 Y276.547 E0.05054
G1 X262.382 Y278.632 E0.11031
G1 X260.608 Y280.731 E0.10837
G1 X258.895 Y282.878 E0.10831
G1 X257.233 Y285.088 E0.10904
G1 X256.277 Y286.406 E0.06421
G1 X256 Y286.72 E0.01651
G1 X255.39 Y287.163 E0.02973
G1 X254.847 Y287.428 E0.02383
G1 X254.054 Y287.638 E0.03235
G1 X252.913 Y287.66 E0.045
G1 X249.105 Y287.66 E0.15016
G1 X248.405 Y287.65 E0.02761
G1 X247.976 Y287.601 E0.01703
G1 X246.653 Y287.318 E0.05335
G1 X243.899 Y286.767 E0.11075
G1 X241.194 Y286.304 E0.10822
G1 X238.448 Y285.914 E0.10937
G1 X235.696 Y285.602 E0.10922
G1 X232.963 Y285.37 E0.10816
G1 X230.157 Y285.213 E0.11082
G1 X227.42 Y285.137 E0.10797
G1 X225.836 Y285.136 E0.06246
G1 X225.77 Y285.13 E0.00261
G1 X224.473 Y285.119 E0.05115
G1 X223.734 Y285.087 E0.02917
G1 X223.006 Y285.035 E0.02878
G1 X222.274 Y284.96 E0.02902
G1 X221.611 Y284.872 E0.02637
G1 X218.739 Y284.447 E0.11449
G1 X215.947 Y284.115 E0.11087
G1 X213.222 Y283.87 E0.10789
G1 X210.454 Y283.699 E0.10936
G1 X207.678 Y283.607 E0.10953
G1 X205.977 Y283.589 E0.06708
G1 X199.225 Y283.587 E0.26625
G1 X196.201 Y283.628 E0.11926
G1 X193.46 Y283.742 E0.10818
G1 X190.663 Y283.937 E0.11056
G1 X187.934 Y284.207 E0.10814
G1 X186.621 Y284.374 E0.05219
G1 X186.537 Y284.377 E0.00331
G1 X184.36 Y284.648 E0.08651
G1 X183.502 Y284.624 E0.03385
G1 X182.807 Y284.505 E0.0278
G1 X180.084 Y284.081 E0.10867
G1 X177.337 Y283.734 E0.10918
G1 X174.571 Y283.462 E0.1096
G1 X171.8 Y283.269 E0.10953
G1 X169.067 Y283.157 E0.10786
G1 X166.291 Y283.12 E0.10948
G1 X163.517 Y283.164 E0.1094
G1 X160.745 Y283.284 E0.10941
G1 X157.996 Y283.483 E0.10869
G1 X156.643 Y283.6 E0.05355
G1 X152.137 Y283.587 E0.17769
G1 X147.686 Y283.59 E0.17552
G1 X146.576 Y283.528 E0.04384
G1 X145.642 Y283.46 E0.03693
G1 X142.873 Y283.339 E0.10929
G1 X140.096 Y283.294 E0.10952
G1 X137.321 Y283.33 E0.10944
G1 X134.564 Y283.442 E0.10881
G1 X132.25 Y283.59 E0.09143
G1 X129.609 Y283.593 E0.10414
G1 X129.046 Y283.587 E0.0222
G1 X125.028 Y283.6 E0.15844
G1 X124.95 Y283.593 E0.00309
G1 X123.927 Y283.6 E0.04034
G1 X123.249 Y283.59 E0.02674
G1 X120.459 Y283.361 E0.11039
G1 X117.643 Y283.202 E0.11122
G1 X114.907 Y283.126 E0.10793
G1 X112.133 Y283.128 E0.10939
G1 X109.355 Y283.208 E0.10959
G1 X106.625 Y283.362 E0.10782
G1 X103.863 Y283.598 E0.10931
G1 X101.113 Y283.913 E0.10915
G1 X96.969 Y284.533 E0.16523
G1 X96.344 Y284.623 E0.0249
G1 X95.431 Y284.634 E0.03601
G1 X94.046 Y284.463 E0.05503
G1 X92.999 Y284.319 E0.04168
G1 X90.244 Y284.019 E0.10928
G1 X87.472 Y283.796 E0.10966
G1 X84.703 Y283.652 E0.10934
G1 X81.84 Y283.585 E0.11293
G1 X79.726 Y283.593 E0.08336
G1 X79.117 Y283.586 E0.02402
G1 X76.837 Y283.593 E0.08991
G1 X76.273 Y283.587 E0.02224
G1 X73.53 Y283.595 E0.10817
G1 X72.406 Y283.614 E0.04433
G1 X69.635 Y283.7 E0.10932
G1 X66.898 Y283.863 E0.10812
G1 X64.1 Y284.108 E0.11076
G1 X61.397 Y284.423 E0.10731
G1 X58.46 Y284.853 E0.11705
G1 X57.67 Y284.958 E0.03143
G1 X56.971 Y285.03 E0.02771
G1 X56.159 Y285.089 E0.0321
G1 X55.561 Y285.116 E0.02361
G1 X54.145 Y285.13 E0.05584
G1 X54.092 Y285.136 E0.0021
G1 X52.506 Y285.135 E0.06254
G1 X49.768 Y285.211 E0.10801
G1 X46.959 Y285.368 E0.11094
G1 X44.236 Y285.597 E0.10776
G1 X41.471 Y285.909 E0.10972
G1 X38.764 Y286.292 E0.10781
G1 X36.026 Y286.76 E0.10953
G1 X31.983 Y287.595 E0.16279
G1 X31.582 Y287.64 E0.01591
G1 X30.577 Y287.66 E0.03964
G1 X26.771 Y287.66 E0.15008
G1 X26.1 Y287.651 E0.02646
G1 X25.527 Y287.567 E0.02284
G1 X24.702 Y287.29 E0.03432
G1 X24.297 Y287.035 E0.01887
G1 X23.617 Y286.379 E0.03726
G1 X22.742 Y285.178 E0.0586
G1 X22.694 Y285.124 E0.00285
G1 X21.884 Y284.014 E0.05419
G1 X20.191 Y281.822 E0.10922
G1 X18.434 Y279.675 E0.1094
G1 X16.648 Y277.615 E0.10751
G1 X15.765 Y276.652 E0.05152
G1 X15.726 Y276.6 E0.00256
G1 X14.809 Y275.597 E0.05359
G1 X14.382 Y275.004 E0.02882
G1 X14.119 Y274.463 E0.02372
G1 X13.909 Y273.67 E0.03235
G1 X13.887 Y272.516 E0.04551
G1 X13.887 Y263.223 E0.36645
G1 X13.897 Y262.517 E0.02784
G1 X13.958 Y261.065 E0.05731
G1 X14.036 Y258.303 E0.10896
G1 X14.036 Y255.545 E0.10876
G1 X13.914 Y251.929 E0.14267
G1 X13.887 Y250.528 E0.05526
G1 X13.887 Y241.223 E0.36693
G1 X13.897 Y240.517 E0.02784
G1 X13.944 Y239.396 E0.04424
G1 X13.991 Y238.556 E0.03318
G1 X14.067 Y235.826 E0.10769
G1 X14.065 Y233.068 E0.10876
G1 X13.935 Y229.231 E0.15139
G1 X13.911 Y228.77 E0.0182
G1 X13.887 Y227.529 E0.04895
G1 X13.887 Y218.223 E0.36697
G1 X13.897 Y217.517 E0.02784
G1 X13.958 Y216.065 E0.05731
G1 X14.036 Y213.303 E0.10896
G1 X14.036 Y210.545 E0.10876
G1 X13.914 Y206.929 E0.14267
G1 X13.887 Y205.528 E0.05526
G1 X13.887 Y196.21 E0.36744
G1 X13.897 Y195.516 E0.02737
G1 X13.931 Y194.707 E0.03193
G1 X14.009 Y193.337 E0.05411
G1 X14.086 Y190.566 E0.10931
G1 X14.086 Y187.809 E0.10872
G1 X13.946 Y183.766 E0.15952
G1 X13.922 Y182.529 E0.04879
G1 X13.922 Y173.223 E0.36697
G1 X13.932 Y172.517 E0.02784
G1 X13.993 Y171.065 E0.05731
G1 X14.071 Y168.303 E0.10896
G1 X14.071 Y165.545 E0.10876
G1 X13.949 Y161.929 E0.14267
G1 X13.922 Y160.528 E0.05526
G1 X13.922 Y151.223 E0.36693
G1 X13.932 Y150.517 E0.02784
G1 X13.979 Y149.396 E0.04424
G1 X14.026 Y148.556 E0.03318
G1 X14.102 Y145.826 E0.10769
G1 X14.1 Y143.068 E0.10876
G1 X13.97 Y139.231 E0.15139
G1 X13.946 Y138.77 E0.0182
G1 X13.922 Y137.529 E0.04895
G1 X13.922 Y128.223 E0.36697
G1 X13.932 Y127.517 E0.02784
G1 X13.993 Y126.065 E0.05731
G1 X14.071 Y123.303 E0.10896
G1 X14.071 Y120.545 E0.10876
G1 X13.949 Y116.929 E0.14267
G1 X13.922 Y115.528 E0.05526
G1 X13.922 Y106.223 E0.36693
G1 X13.932 Y105.517 E0.02784
G1 X13.979 Y104.396 E0.04424
G1 X14.026 Y103.556 E0.03318
G1 X14.102 Y100.826 E0.10769
G1 X14.1 Y98.068 E0.10876
G1 X13.97 Y94.231 E0.15139
G1 X13.946 Y93.77 E0.0182
G1 X13.922 Y92.529 E0.04895
G1 X13.922 Y83.223 E0.36697
G1 X13.932 Y82.517 E0.02784
G1 X13.993 Y81.065 E0.05731
G1 X14.071 Y78.303 E0.10896
G1 X14.071 Y75.545 E0.10876
G1 X13.949 Y71.929 E0.14267
G1 X13.922 Y70.528 E0.05526
G1 X13.922 Y61.223 E0.36693
G1 X13.932 Y60.517 E0.02784
G1 X13.979 Y59.396 E0.04424
G1 X14.026 Y58.556 E0.03318
G1 X14.102 Y55.826 E0.10769
G1 X14.1 Y53.068 E0.10876
G1 X13.97 Y49.231 E0.15139
G1 X13.946 Y48.77 E0.0182
G1 X13.922 Y47.529 E0.04895
G1 X13.922 Y38.223 E0.36697
G1 X13.932 Y37.517 E0.02784
G1 X13.993 Y36.065 E0.05731
G1 X14.071 Y33.303 E0.10896
G1 X14.071 Y30.545 E0.10876
G1 X13.949 Y26.929 E0.14267
G1 X13.922 Y25.528 E0.05526
G1 X13.922 Y16.225 E0.36685
G1 X13.931 Y15.553 E0.0265
G1 X14.015 Y14.98 E0.02284
G1 X14.252 Y14.294 E0.02862
G1 X14.615 Y13.703 E0.02735
G1 X14.627 Y13.688 E0.00076
G0 F1620 X14.873 Y13.373
G1 F2100 E-0.4
;MESH:Cam_Holder_300mAh_Dipole_Rev-02.3mf(43)
G0 F6000 X17.043 Y15.342
;TYPE:WALL-OUTER
G1 F2100 E0.4
G1 F1803.8 X17.212 Y15.26 E0.00887
G1 F1800 X22.44 Y15.26 E0.24739
G1 F1811.3 X22.62 Y15.341 E0.00928
G1 X22.819 Y15.589 E0.01495
G1 F1800 X22.819 Y26.411 E0.5121
G1 F1807.5 X22.622 Y26.656 E0.01481
G1 F1803.8 X22.451 Y26.74 E0.009
G1 F1800 X17.212 Y26.74 E0.24791
G1 F1803.8 X17.041 Y26.656 E0.009
G1 X16.844 Y26.411 E0.01485
G1 X16.844 Y15.605 E0.51027
G0 F1620 X16.844 Y15.588
G0 X17.043 Y15.342
G0 F6000 X17.212 Y15.26
G0 X17.275 Y15.26
G1 F2100 E-0.4
G0 F6000 X17.738 Y16.153
G0 X21.913 Y20.304
G0 X25.561 Y21.11
G1 F2100 E0.4
G0 F6000 X25.561 Y22.098
G1 F1800 X25.56 Y22.301 E0.00961
G1 F1803.8 X25.291 Y22.878 E0.03006
G1 X25.726 Y23.081 E0.02267
G1 X26.183 Y22.098 E0.05119
G1 F1800 X26.259 Y22.006 E0.00565
G1 X26.369 Y21.961 E0.00562
G1 X29.063 Y21.96 E0.12748
G1 X31.711 Y21 E0.13328
G1 X31.978 Y21.153 E0.01456
G1 X31.982 Y23.36 E0.10444
G1 X32.942 Y23.36 E0.04543
G1 X32.942 Y22.2 E0.05489
G1 X33.1 Y21.961 E0.01356
G1 X35.044 Y21.963 E0.09199
G1 X36.269 Y22.579 E0.06488
G1 X37.483 Y23.105 E0.06261
G1 X38.715 Y23.556 E0.06208
G1 X39.969 Y23.93 E0.06192
G1 X41.235 Y24.232 E0.06159
G1 X42.497 Y24.456 E0.06065
G1 X43.827 Y24.614 E0.06338
G1 X45.162 Y24.69 E0.06327
G1 X46.484 Y24.688 E0.06256
G1 X47.74 Y24.615 E0.05953
G1 X49.08 Y24.456 E0.06385
G1 X50.346 Y24.232 E0.06084
G1 X51.622 Y23.927 E0.06208
G1 X52.879 Y23.552 E0.06207
G1 X54.12 Y23.096 E0.06256
G1 X55.313 Y22.579 E0.06153
G1 X56.538 Y21.961 E0.06493
G1 X61.487 Y21.965 E0.23419
G1 X61.654 Y22.098 E0.0101
G1 X61.653 Y22.301 E0.00961
G1 X61.385 Y22.878 E0.0301
G1 X61.819 Y23.08 E0.02265
G1 X62.276 Y22.098 E0.05125
G1 X62.352 Y22.006 E0.00565
G1 X62.462 Y21.961 E0.00562
G1 X64.346 Y21.965 E0.08915
G1 X64.513 Y22.098 E0.0101
G1 X64.512 Y22.301 E0.00961
G1 X64.244 Y22.878 E0.0301
G1 X64.678 Y23.08 E0.02265
G1 X65.135 Y22.098 E0.05125
G1 X65.211 Y22.006 E0.00565
G1 X65.321 Y21.961 E0.00562
G1 X67.205 Y21.965 E0.08915
G1 X67.371 Y22.098 E0.01007
G1 X67.371 Y22.301 E0.00961
G1 X67.103 Y22.878 E0.0301
G1 X67.537 Y23.08 E0.02265
G1 X67.995 Y22.098 E0.05127
G1 X68.071 Y22.006 E0.00565
G1 X68.181 Y21.961 E0.00562
G1 X70.065 Y21.965 E0.08915
G1 X70.232 Y22.098 E0.0101
G1 X70.231 Y22.301 E0.00961
G1 F1803.8 X69.962 Y22.878 E0.03006
G1 X70.397 Y23.081 E0.02267
G1 X70.854 Y22.098 E0.05119
G1 F1800 X70.93 Y22.006 E0.00565
G1 X71.04 Y21.961 E0.00562
G1 X72.924 Y21.965 E0.08915
G1 X73.091 Y22.098 E0.0101
G1 X73.09 Y22.301 E0.00961
G1 X72.822 Y22.878 E0.0301
G1 X73.256 Y23.08 E0.02265
G1 X73.713 Y22.098 E0.05125
