;FLAVOR:RepRap
;TIME:517
;Filament used: 0.886926m
;Layer height: 0.3
;MINX:15.422
;MINY:130.34
;MINZ:0.2
;MAXX:264.578
;MAXY:180.66
;MAXZ:0.8
;Exported with Cura-DuetRRF v1.2.9 plugin by Thomas Kriechbaumer
;Generated with Cura_SteamEngine 5.2.2
T0
M104 S215
M109 S215
M82 ;absolute extrusion mode

M83 ;relative extrusion mode
G1 F2100 E-0.4
;LAYER_COUNT:3
;LAYER:0
M107
G0 F6000 X18.392 Y130.364 Z0.2
;TYPE:SKIRT
G1 F2100 E0.4
G1 F1800 X19.606 Y130.34 E0.04788
G1 X23.359 Y130.34 E0.14799
G1 X24.06 Y130.35 E0.02765
G1 X24.49 Y130.399 E0.01707
G1 X25.825 Y130.685 E0.05384
G1 X28.564 Y131.233 E0.11015
G1 X31.269 Y131.696 E0.10822
G1 X34.015 Y132.086 E0.10937
G1 X36.769 Y132.398 E0.10929
G1 X39.501 Y132.63 E0.10812
G1 X42.308 Y132.787 E0.11086
G1 X45.047 Y132.863 E0.10805
G1 X47.992 Y132.881 E0.11613
G1 X48.731 Y132.913 E0.02917
G1 X49.459 Y132.965 E0.02878
G1 X50.191 Y133.04 E0.02902
G1 X50.872 Y133.13 E0.02709
G1 X53.752 Y133.556 E0.1148
G1 X56.535 Y133.886 E0.11051
G1 X59.264 Y134.131 E0.10805
G1 X62.034 Y134.302 E0.10944
G1 X64.808 Y134.393 E0.10945
G1 X66.464 Y134.411 E0.06531
G1 X70.243 Y134.413 E0.14902
G1 X73.185 Y134.374 E0.11602
G1 X76.028 Y134.257 E0.1122
G1 X78.826 Y134.061 E0.1106
G1 X81.56 Y133.79 E0.10834
G1 X82.844 Y133.626 E0.05104
G1 X82.93 Y133.623 E0.00339
G1 X85.099 Y133.354 E0.08619
G1 X85.955 Y133.375 E0.03376
G1 X86.654 Y133.494 E0.02796
G1 X89.389 Y133.92 E0.10915
G1 X92.137 Y134.267 E0.10922
G1 X94.905 Y134.539 E0.10968
G1 X97.67 Y134.731 E0.1093
G1 X100.409 Y134.844 E0.1081
G1 X103.182 Y134.88 E0.10936
G1 X105.957 Y134.836 E0.10944
G1 X108.726 Y134.716 E0.10929
G1 X111.469 Y134.517 E0.10845
G1 X112.822 Y134.4 E0.05355
G1 X117.328 Y134.413 E0.17769
G1 X121.977 Y134.411 E0.18333
G1 X123.312 Y134.642 E0.05343
G1 X126.06 Y135.078 E0.10972
G1 X128.81 Y135.435 E0.10935
G1 X131.569 Y135.713 E0.10935
G1 X134.305 Y135.912 E0.10817
G1 X137.075 Y136.034 E0.10934
G1 X139.85 Y136.079 E0.10944
G1 X142.624 Y136.044 E0.1094
G1 X145.359 Y135.933 E0.10794
G1 X148.128 Y135.742 E0.10945
G1 X150.895 Y135.471 E0.10963
G1 X153.643 Y135.125 E0.10922
G1 X156.397 Y134.698 E0.1099
G1 X157.836 Y134.444 E0.05762
G1 X158.215 Y134.41 E0.01501
G1 X160.846 Y134.406 E0.10375
G1 X161.434 Y134.413 E0.02319
G1 X165.437 Y134.398 E0.15785
G1 X165.538 Y134.407 E0.004
G1 X166.539 Y134.4 E0.03947
G1 X167.217 Y134.41 E0.02674
G1 X170.007 Y134.639 E0.11039
G1 X172.823 Y134.798 E0.11122
G1 X175.559 Y134.874 E0.10793
G1 X178.333 Y134.872 E0.10939
G1 X181.111 Y134.792 E0.10959
G1 X183.841 Y134.638 E0.10782
G1 X186.603 Y134.402 E0.10931
G1 X189.373 Y134.085 E0.10994
G1 X192.119 Y133.694 E0.10938
G1 X193.854 Y133.406 E0.06935
G1 X194.825 Y133.341 E0.03838
G1 X196.383 Y133.532 E0.0619
G1 X197.4 Y133.673 E0.04049
G1 X200.163 Y133.976 E0.10961
G1 X202.928 Y134.201 E0.10939
G1 X205.7 Y134.347 E0.10946
G1 X208.458 Y134.414 E0.10879
G1 X210.768 Y134.407 E0.09109
G1 X211.333 Y134.413 E0.02228
G1 X214.039 Y134.405 E0.10671
G1 X215.007 Y134.389 E0.03818
G1 X217.779 Y134.305 E0.10936
G1 X220.516 Y134.143 E0.10812
G1 X223.31 Y133.899 E0.1106
G1 X226.017 Y133.585 E0.10746
G1 X229.043 Y133.142 E0.1206
G1 X229.812 Y133.04 E0.03059
G1 X230.48 Y132.971 E0.02648
G1 X231.315 Y132.91 E0.03301
G1 X231.984 Y132.882 E0.0264
G1 X233.32 Y132.87 E0.05268
G1 X233.373 Y132.864 E0.0021
G1 X234.959 Y132.865 E0.06254
G1 X237.697 Y132.789 E0.10801
G1 X240.506 Y132.632 E0.11094
G1 X243.229 Y132.403 E0.10776
G1 X245.994 Y132.091 E0.10972
G1 X248.701 Y131.708 E0.10781
G1 X251.439 Y131.24 E0.10953
G1 X255.482 Y130.405 E0.16279
G1 X255.883 Y130.36 E0.01591
G1 X256.888 Y130.34 E0.03964
G1 X260.696 Y130.34 E0.15016
G1 X261.359 Y130.349 E0.02615
G1 X261.934 Y130.434 E0.02292
G1 X262.635 Y130.676 E0.02924
G1 X263.213 Y131.031 E0.02675
G1 X263.543 Y131.289 E0.01652
G1 X264.087 Y132.001 E0.03533
G1 X264.355 Y132.554 E0.02423
G1 X264.556 Y133.325 E0.03142
G1 X264.578 Y134.447 E0.04425
G1 X264.578 Y143.777 E0.36791
G1 X264.568 Y144.482 E0.0278
G1 X264.507 Y145.935 E0.05735
G1 X264.429 Y148.697 E0.10896
G1 X264.429 Y151.455 E0.10876
G1 X264.551 Y155.071 E0.14267
G1 X264.578 Y156.472 E0.05526
G1 X264.578 Y165.776 E0.36689
G1 X264.569 Y166.446 E0.02642
G1 X264.486 Y167.015 E0.02267
G1 X264.25 Y167.702 E0.02864
G1 X263.884 Y168.298 E0.02758
G1 X263.647 Y168.607 E0.01536
G1 X262.782 Y169.547 E0.05037
G1 X260.917 Y171.632 E0.11031
G1 X259.143 Y173.731 E0.10837
G1 X257.43 Y175.878 E0.10831
G1 X255.76 Y178.099 E0.10958
G1 X254.811 Y179.407 E0.06372
G1 X254.534 Y179.722 E0.01654
G1 X253.911 Y180.173 E0.03033
G1 X253.374 Y180.433 E0.02353
G1 X252.608 Y180.636 E0.03125
G1 X251.394 Y180.66 E0.04788
G1 X247.641 Y180.66 E0.14799
G1 X246.941 Y180.65 E0.02761
G1 X246.512 Y180.601 E0.01703
G1 X245.189 Y180.318 E0.05335
G1 X242.435 Y179.767 E0.11075
G1 X239.73 Y179.304 E0.10822
G1 X236.984 Y178.914 E0.10937
G1 X234.232 Y178.602 E0.10922
G1 X231.499 Y178.37 E0.10816
G1 X228.693 Y178.213 E0.11082
G1 X225.956 Y178.137 E0.10797
G1 X224.371 Y178.136 E0.0625
G1 X224.305 Y178.13 E0.00261
G1 X223.008 Y178.119 E0.05115
G1 X222.269 Y178.087 E0.02917
G1 X221.541 Y178.035 E0.02878
G1 X220.809 Y177.96 E0.02902
G1 X220.128 Y177.87 E0.02709
G1 X217.248 Y177.444 E0.1148
G1 X214.465 Y177.114 E0.11051
G1 X211.736 Y176.869 E0.10805
G1 X208.966 Y176.698 E0.10944
G1 X206.192 Y176.607 E0.10945
G1 X204.536 Y176.589 E0.06531
G1 X200.757 Y176.587 E0.14902
G1 X197.815 Y176.626 E0.11602
G1 X194.972 Y176.743 E0.1122
G1 X192.174 Y176.939 E0.1106
G1 X189.44 Y177.21 E0.10834
G1 X188.156 Y177.374 E0.05104
G1 X188.07 Y177.377 E0.00339
G1 X185.901 Y177.646 E0.08619
G1 X185.045 Y177.625 E0.03376
G1 X184.346 Y177.506 E0.02796
G1 X181.611 Y177.08 E0.10915
G1 X178.863 Y176.733 E0.10922
G1 X176.095 Y176.461 E0.10968
G1 X173.33 Y176.269 E0.1093
G1 X170.591 Y176.156 E0.1081
G1 X167.818 Y176.12 E0.10936
G1 X165.043 Y176.164 E0.10944
G1 X162.274 Y176.284 E0.10929
G1 X159.531 Y176.483 E0.10845
G1 X158.178 Y176.6 E0.05355
G1 X153.672 Y176.587 E0.17769
G1 X149.116 Y176.589 E0.17966
G1 X148.469 Y176.533 E0.02561
G1 X145.724 Y176.334 E0.10853
G1 X142.951 Y176.212 E0.10945
G1 X140.177 Y176.167 E0.1094
G1 X137.403 Y176.202 E0.1094
G1 X134.668 Y176.313 E0.10794
G1 X131.862 Y176.506 E0.11091
G1 X130.856 Y176.59 E0.03981
G1 X128.154 Y176.594 E0.10655
G1 X127.567 Y176.587 E0.02315
G1 X123.564 Y176.603 E0.15785
G1 X123.453 Y176.593 E0.00439
G1 X122.461 Y176.6 E0.03912
G1 X121.783 Y176.59 E0.02674
G1 X118.993 Y176.361 E0.11039
G1 X116.177 Y176.202 E0.11122
G1 X113.441 Y176.126 E0.10793
G1 X110.667 Y176.128 E0.10939
G1 X107.889 Y176.208 E0.10959
G1 X105.159 Y176.362 E0.10782
G1 X102.397 Y176.598 E0.10931
G1 X99.627 Y176.915 E0.10994
G1 X96.881 Y177.306 E0.10938
G1 X95.146 Y177.594 E0.06935
G1 X94.175 Y177.659 E0.03838
G1 X92.617 Y177.468 E0.0619
G1 X91.6 Y177.327 E0.04049
G1 X88.837 Y177.024 E0.10961
G1 X86.072 Y176.799 E0.10939
G1 X83.3 Y176.653 E0.10946
G1 X80.542 Y176.586 E0.10879
G1 X78.232 Y176.593 E0.09109
G1 X77.667 Y176.587 E0.02228
G1 X74.961 Y176.595 E0.10671
G1 X73.993 Y176.611 E0.03818
G1 X71.221 Y176.695 E0.10936
G1 X68.484 Y176.857 E0.10812
G1 X65.69 Y177.101 E0.1106
G1 X62.983 Y177.415 E0.10746
G1 X59.957 Y177.858 E0.1206
G1 X59.188 Y177.96 E0.03059
G1 X58.52 Y178.029 E0.02648
G1 X57.685 Y178.09 E0.03301
G1 X57.016 Y178.118 E0.0264
G1 X55.68 Y178.13 E0.05268
G1 X55.627 Y178.136 E0.0021
G1 X54.041 Y178.135 E0.06254
G1 X51.303 Y178.211 E0.10801
G1 X48.494 Y178.368 E0.11094
G1 X45.771 Y178.597 E0.10776
G1 X43.006 Y178.909 E0.10972
G1 X40.299 Y179.292 E0.10781
G1 X37.561 Y179.76 E0.10953
G1 X33.518 Y180.595 E0.16279
G1 X33.117 Y180.64 E0.01591
G1 X32.112 Y180.66 E0.03964
G1 X28.304 Y180.66 E0.15016
G1 X27.641 Y180.651 E0.02615
G1 X27.066 Y180.566 E0.02292
G1 X26.365 Y180.324 E0.02924
G1 X25.787 Y179.969 E0.02675
G1 X25.457 Y179.711 E0.01652
G1 X25.189 Y179.406 E0.01601
G1 X24.405 Y178.327 E0.05259
G1 X22.755 Y176.12 E0.10866
G1 X21.033 Y173.948 E0.1093
G1 X19.244 Y171.817 E0.10972
G1 X17.416 Y169.762 E0.10846
G1 X16.344 Y168.596 E0.06246
G1 X15.913 Y167.998 E0.02907
G1 X15.647 Y167.45 E0.02402
G1 X15.444 Y166.677 E0.03152
G1 X15.422 Y165.505 E0.04622
G1 X15.422 Y156.223 E0.36602
G1 X15.432 Y155.517 E0.02784
G1 X15.493 Y154.065 E0.05731
G1 X15.571 Y151.303 E0.10896
G1 X15.571 Y148.545 E0.10876
G1 X15.449 Y144.929 E0.14267
G1 X15.422 Y143.528 E0.05526
G1 X15.422 Y134.225 E0.36685
G1 X15.431 Y133.553 E0.0265
G1 X15.515 Y132.98 E0.02284
G1 X15.752 Y132.294 E0.02862
G1 X16.115 Y131.703 E0.02735
G1 X16.373 Y131.373 E0.01652
G1 X16.748 Y131.056 E0.01936
G1 X17.089 Y130.828 E0.01618
G1 X17.629 Y130.566 E0.02367
G1 X18.006 Y130.466 E0.01538
G0 F1620 X18.392 Y130.364
G1 F2100 E-0.4
;MESH:Cam_Holder_300mAh_Dipole_Rev-02.3mf(3)
G0 F6000 X18.543 Y133.342
;TYPE:WALL-OUTER
G1 F2100 E0.4
G1 F1803.8 X18.712 Y133.26 E0.00887
G1 X23.951 Y133.26 E0.24739
G1 F1815.1 X24.12 Y133.341 E0.00879
G1 F1811.3 X24.319 Y133.589 E0.01495
G1 F1800 X24.319 Y144.411 E0.5121
G1 F1807.5 X24.122 Y144.656 E0.01481
G1 F1803.8 X23.951 Y144.74 E0.009
G1 F1800 X18.712 Y144.74 E0.24791
G1 F1803.8 X18.541 Y144.656 E0.009
G1 F1807.5 X18.367 Y144.44 E0.01307
G1 F1800 X18.345 Y144.339 E0.00489
G1 X18.344 Y133.588 E0.50874
G1 F1803.8 X18.543 Y133.342 E0.01494
G0 F6000 X18.712 Y133.26
G0 X18.775 Y133.26
G1 F2100 E-0.4
G0 F6000 X19.238 Y134.153
G0 X23.413 Y138.304
G0 X27.061 Y139.11
G1 F2100 E0.4
G0 F6000 X27.061 Y140.098
G1 F1800 X27.06 Y140.301 E0.00961
G1 F1803.8 X26.791 Y140.878 E0.03006
G1 X27.226 Y141.081 E0.02267
G1 X27.683 Y140.098 E0.05119
G1 F1800 X27.759 Y140.006 E0.00565
G1 X27.869 Y139.961 E0.00562
G1 X30.563 Y139.96 E0.12748
G1 X33.211 Y139 E0.13328
G1 X33.478 Y139.153 E0.01456
G1 X33.482 Y141.36 E0.10444
G1 X34.442 Y141.36 E0.04543
G1 X34.442 Y140.2 E0.05489
G1 X34.6 Y139.961 E0.01356
G1 X36.544 Y139.963 E0.09199
G1 X37.769 Y140.579 E0.06488
G1 X38.983 Y141.105 E0.06261
G1 X40.215 Y141.556 E0.06208
G1 X41.469 Y141.93 E0.06192
G1 X42.735 Y142.232 E0.06159
G1 X43.997 Y142.456 E0.06065
G1 X45.327 Y142.614 E0.06338
G1 X46.662 Y142.69 E0.06327
G1 X47.984 Y142.688 E0.06256
G1 X49.24 Y142.615 E0.05953
G1 X50.58 Y142.456 E0.06385
G1 X51.846 Y142.232 E0.06084
G1 X53.122 Y141.927 E0.06208
G1 X54.379 Y141.552 E0.06207
G1 X55.62 Y141.096 E0.06256
G1 X56.813 Y140.579 E0.06153
G1 X58.038 Y139.961 E0.06493
G1 X62.846 Y139.965 E0.22751
G1 X63.013 Y140.098 E0.0101
G1 X63.012 Y140.301 E0.00961
G1 X62.744 Y140.878 E0.0301
G1 X63.178 Y141.08 E0.02265
G1 X63.635 Y140.098 E0.05125
G1 X63.711 Y140.006 E0.00565
G1 X63.821 Y139.961 E0.00562
G1 X65.705 Y139.965 E0.08915
G1 X65.871 Y140.098 E0.01007
G1 X65.871 Y140.301 E0.00961
G1 X65.603 Y140.878 E0.0301
G1 X66.037 Y141.08 E0.02265
G1 X66.495 Y140.098 E0.05127
G1 X66.571 Y140.006 E0.00565
G1 X66.681 Y139.961 E0.00562
G1 X68.565 Y139.965 E0.08915
G1 X68.732 Y140.098 E0.0101
G1 X68.731 Y140.301 E0.00961
G1 F1803.8 X68.462 Y140.878 E0.03006
G1 X68.897 Y141.081 E0.02267
G1 X69.354 Y140.098 E0.05119
G1 F1800 X69.43 Y140.006 E0.00565
G1 X69.54 Y139.961 E0.00562
G1 X71.424 Y139.965 E0.08915
G1 X71.591 Y140.098 E0.0101
G1 X71.59 Y140.301 E0.00961
G1 X71.322 Y140.878 E0.0301
G1 X71.756 Y141.08 E0.02265
G1 X72.213 Y140.098 E0.05125
G1 X72.289 Y140.006 E0.00565
G1 X72.399 Y139.961 E0.00562
G1 X74.283 Y139.965 E0.08915
G1 X74.45 Y140.098 E0.0101
G1 X74.449 Y140.301 E0.00961
G1 X74.181 Y140.878 E0.0301
G1 X74.615 Y141.08 E0.02265
G1 X75.072 Y140.098 E0.05125
G1 X75.148 Y140.006 E0.00565
G1 X75.258 Y139.961 E0.00562
G1 X79.249 Y139.96 E0.18885
G1 X81.897 Y139 E0.13328
G1 F1752.5 X82.08 Y139.037 E0.00907
G1 F1707.5 X82.151 Y139.12 E0.00545
G1 F1749 X82.237 Y139.689 E0.02803
G1 F1796.3 X82.369 Y140.141 E0.02233
G1 F1803.8 X82.57 Y140.571 E0.02241
G1 F1796.3 X82.829 Y140.961 E0.0222
G1 F1785.1 X83.144 Y141.313 E0.02254
G1 X83.506 Y141.615 E0.02249
G1 F1792.5 X83.906 Y141.861 E0.02231
G1 F1796.3 X84.355 Y142.05 E0.0231
G1 F1803.8 X84.801 Y142.167 E0.02177
G1 F1800 X85.269 Y142.216 E0.02227
G1 F1788.8 X85.737 Y142.197 E0.0223
G1 F1785.1 X86.204 Y142.109 E0.02267
G1 F1788.8 X86.647 Y141.957 E0.0223
G1 F1796.3 X87.068 Y141.74 E0.02246
G1 F1800 X87.447 Y141.467 E0.0221
G1 F1796.3 X87.787 Y141.134 E0.02257
G1 F1792.5 X88.073 Y140.759 E0.02241
G1 X88.301 Y140.347 E0.02237
G1 F1788.8 X88.465 Y139.909 E0.02227
G1 F1615 X88.636 Y139.24 E0.03642
G1 F1621 X89.806 Y139.24 E0.06148
G1 F1800 X89.987 Y139.322 E0.0094
G1 X90.046 Y139.428 E0.00574
G1 X90.046 Y141.16 E0.08196
G1 X90.526 Y141.16 E0.02271
G1 X90.526 Y140.2 E0.04543
G1 X90.705 Y139.96 E0.01417
G1 X92.618 Y139.965 E0.09052
G1 X92.785 Y140.098 E0.0101
G1 X92.784 Y140.301 E0.00961
G1 X92.516 Y140.878 E0.0301
G1 X92.95 Y141.08 E0.02265
G1 X93.407 Y140.098 E0.05125
G1 X93.483 Y140.006 E0.00565
G1 X93.593 Y139.961 E0.00562
G1 X97.024 Y139.959 E0.16235
G1 F1803.8 X97.472 Y139.513 E0.02985
G1 X97.573 Y139.481 E0.005
G1 F1800 X112.326 Y139.48 E0.69811
G1 F1803.8 X112.456 Y139.51 E0.0063
G1 X113.016 Y140.07 E0.0374
G1 X113.046 Y140.2 E0.0063
G1 F1800 X113.046 Y141.16 E0.04543
G1 X113.526 Y141.16 E0.02271
G1 X113.526 Y140.2 E0.04543
G1 F1803.8 X113.596 Y140.03 E0.00868
G1 X113.734 Y139.961 E0.00729
G1 F1800 X115.618 Y139.965 E0.08915
G1 X115.785 Y140.098 E0.0101
G1 X115.784 Y140.301 E0.00961
G1 X115.516 Y140.878 E0.0301
G1 X115.95 Y141.08 E0.02265
G1 X116.407 Y140.098 E0.05125
G1 X116.483 Y140.006 E0.00565
G1 X116.593 Y139.961 E0.00562
G1 X118.477 Y139.965 E0.08915
G1 X118.643 Y140.098 E0.01007
G1 X118.643 Y140.301 E0.00961
G1 X118.375 Y140.878 E0.0301
G1 X118.809 Y141.08 E0.02265
G1 X119.267 Y140.098 E0.05127
G1 X119.343 Y140.006 E0.00565
G1 X119.453 Y139.961 E0.00562
G1 X121.337 Y139.965 E0.08915
G1 X121.504 Y140.098 E0.0101
G1 X121.503 Y140.301 E0.00961
G1 F1803.8 X121.234 Y140.878 E0.03006
G1 X121.669 Y141.081 E0.02267
G1 X122.126 Y140.098 E0.05119
G1 F1800 X122.202 Y140.006 E0.00565
G1 X122.312 Y139.961 E0.00562
G1 X125.04 Y139.96 E0.12909
G1 X125.199 Y139.902 E0.00801
G1 X127.678 Y139 E0.12483
G1 X125.04 Y138.04 E0.13284
G1 X122.312 Y138.039 E0.12909
G1 X122.202 Y137.994 E0.00562
G1 F1796.3 X122.125 Y137.903 E0.00565
G1 X121.669 Y136.92 E0.05138
G1 F1800 X121.234 Y137.122 E0.0227
G1 F1788.8 X121.526 Y137.756 E0.03324
G1 F1785.1 X121.505 Y137.903 E0.00709
G1 F1796.3 X121.337 Y138.035 E0.01013
G1 F1800 X119.453 Y138.039 E0.08915
G1 X119.343 Y137.994 E0.00562
G1 F1796.3 X119.266 Y137.902 E0.00569
G1 X118.809 Y136.92 E0.05136
G1 F1800 X118.375 Y137.122 E0.02265
G1 F1788.8 X118.666 Y137.756 E0.03322
G1 F1781.4 X118.644 Y137.902 E0.00706
G1 F1796.3 X118.477 Y138.035 E0.01012
G1 F1800 X116.593 Y138.039 E0.08915
G1 X116.483 Y137.994 E0.00562
G1 F1796.3 X116.406 Y137.902 E0.00569
G1 X115.95 Y136.92 E0.05134
G1 F1800 X115.516 Y137.122 E0.02265
G1 F1788.8 X115.807 Y137.756 E0.03322
G1 F1785.1 X115.786 Y137.902 E0.00704
G1 F1796.3 X115.618 Y138.035 E0.01016
G1 F1800 X113.734 Y138.039 E0.08915
G1 X113.596 Y137.97 E0.0073
G1 F1792.5 X113.526 Y137.832 E0.00735
G1 X113.526 Y136.84 E0.04714
G1 F1800 X113.046 Y136.84 E0.02271
G1 F1792.5 X113.046 Y137.832 E0.04714
G1 X113.015 Y137.931 E0.00493
G1 F1800 X112.456 Y138.49 E0.03741
G1 X112.326 Y138.52 E0.00631
G1 X97.573 Y138.519 E0.69811
G1 F1803.8 X97.472 Y138.487 E0.005
G1 X97.024 Y138.041 E0.02985
G1 F1800 X93.593 Y138.039 E0.16235
G1 X93.483 Y137.994 E0.00562
G1 F1796.3 X93.406 Y137.902 E0.00569
G1 X92.95 Y136.92 E0.05134
G1 F1800 X92.516 Y137.122 E0.02265
G1 F1788.8 X92.807 Y137.756 E0.03322
G1 F1785.1 X92.786 Y137.902 E0.00704
G1 F1796.3 X92.618 Y138.035 E0.01016
G1 F1800 X90.707 Y138.04 E0.09043
G1 F1785.1 X90.53 Y137.862 E0.01198
G1 X90.526 Y136.84 E0.04876
G1 F1800 X90.046 Y136.84 E0.02271
G1 X90.046 Y138.572 E0.08196
G1 X89.987 Y138.678 E0.00574
G1 X89.806 Y138.76 E0.0094
G1 F1621 X88.636 Y138.76 E0.06148
G1 F1603 X88.574 Y138.603 E0.00897
G1 F1774.1 X88.465 Y138.091 E0.02513
G1 F1788.8 X88.301 Y137.653 E0.02227
G1 F1792.5 X88.073 Y137.241 E0.02237
G1 F1796.3 X87.785 Y136.864 E0.0225
G1 F1800 X87.447 Y136.533 E0.02239
G1 X87.068 Y136.26 E0.0221
G1 F1796.3 X86.647 Y136.043 E0.02246
G1 F1792.5 X86.204 Y135.891 E0.02225
G1 F1788.8 X85.737 Y135.803 E0.02263
