;FLAVOR:RepRap
;TIME:3119
;Filament used: 5.33521m
;Layer height: 0.3
;MINX:18.036
;MINY:9.84
;MINZ:0.2
;MAXX:261.964
;MAXY:290.16
;MAXZ:0.8
;Exported with Cura-DuetRRF v1.2.9 plugin by Thomas Kriechbaumer
;Generated with Cura_SteamEngine 5.2.2
T0
M104 S215
M109 S215
M82 ;absolute extrusion mode

M83 ;relative extrusion mode
G1 F2100 E-0.4
;LAYER_COUNT:3
;LAYER:0
M107
G0 F6000 X21.697 Y18.868 Z0.2
;TYPE:SKIRT
G1 F2100 E0.4
G1 F1800 X23.471 Y16.769 E0.10837
G1 X25.184 Y14.622 E0.10831
G1 X26.867 Y12.384 E0.11042
G1 X27.801 Y11.096 E0.06274
G1 X28.078 Y10.781 E0.01654
G1 X28.707 Y10.326 E0.03061
G1 X29.242 Y10.066 E0.02346
G1 X30.004 Y9.864 E0.03109
G1 X31.22 Y9.84 E0.04796
G1 X34.973 Y9.84 E0.14799
G1 X35.673 Y9.85 E0.02761
G1 X36.104 Y9.899 E0.01711
G1 X37.423 Y10.182 E0.0532
G1 X40.147 Y10.727 E0.10954
G1 X42.847 Y11.189 E0.10802
G1 X45.602 Y11.582 E0.10974
G1 X48.347 Y11.892 E0.10893
G1 X51.088 Y12.126 E0.10848
G1 X53.86 Y12.282 E0.10948
G1 X58.042 Y12.37 E0.16495
G1 X59.206 Y12.381 E0.0459
G1 X59.945 Y12.413 E0.02917
G1 X60.673 Y12.465 E0.02878
G1 X61.405 Y12.54 E0.02902
G1 X62.095 Y12.632 E0.02745
G1 X62.826 Y12.75 E0.0292
G1 X65.597 Y13.158 E0.11045
G1 X68.357 Y13.485 E0.1096
G1 X71.086 Y13.73 E0.10805
G1 X73.855 Y13.901 E0.1094
G1 X76.632 Y13.993 E0.10957
G1 X78.377 Y14.011 E0.06881
G1 X80.929 Y14.011 E0.10063
G1 X83.738 Y13.976 E0.11078
G1 X86.473 Y13.865 E0.10794
G1 X89.242 Y13.674 E0.10945
G1 X92.009 Y13.403 E0.10963
G1 X94.773 Y13.055 E0.10985
G1 X95.229 Y12.988 E0.01817
G1 X96.316 Y12.854 E0.04319
G1 X97.17 Y12.875 E0.03369
G1 X98.263 Y13.061 E0.04372
G1 X101.005 Y13.488 E0.10943
G1 X103.756 Y13.836 E0.10935
G1 X106.517 Y14.106 E0.10939
G1 X109.287 Y14.298 E0.10949
G1 X112.023 Y14.41 E0.10798
G1 X114.798 Y14.446 E0.10944
G1 X117.573 Y14.402 E0.10944
G1 X120.344 Y14.281 E0.10937
G1 X123.058 Y14.085 E0.1073
G1 X124.025 Y14.001 E0.03828
G1 X125.722 Y13.994 E0.06692
G1 X125.876 Y14.008 E0.0061
G1 X132.442 Y14.01 E0.25892
G1 X133.724 Y14.082 E0.05063
G1 X134.384 Y14.13 E0.02609
G1 X137.153 Y14.25 E0.10929
G1 X139.927 Y14.293 E0.1094
G1 X142.701 Y14.256 E0.1094
G1 X145.469 Y14.142 E0.10924
G1 X147.557 Y14.01 E0.0825
G1 X149.838 Y14.005 E0.08995
G1 X150.424 Y14.012 E0.02311
G1 X154.247 Y14.008 E0.15075
G1 X155.332 Y14 E0.04279
G1 X156.125 Y14.015 E0.03128
G1 X156.714 Y14.057 E0.02329
G1 X158.417 Y14.203 E0.0674
G1 X161.145 Y14.357 E0.10775
G1 X163.921 Y14.437 E0.10951
G1 X166.696 Y14.437 E0.10943
G1 X169.432 Y14.361 E0.10793
G1 X172.239 Y14.203 E0.11086
G1 X174.969 Y13.971 E0.10804
G1 X177.725 Y13.658 E0.10938
G1 X180.464 Y13.269 E0.10909
G1 X182.64 Y12.906 E0.08699
G1 X183.511 Y12.847 E0.03443
G1 X184.2 Y12.912 E0.02729
G1 X186.793 Y13.263 E0.10318
G1 X189.55 Y13.565 E0.10937
G1 X192.311 Y13.788 E0.10923
G1 X195.084 Y13.933 E0.1095
G1 X197.821 Y13.999 E0.10796
G1 X198.235 Y13.997 E0.01633
G1 X199.53 Y14.012 E0.05107
G1 X202.297 Y14.003 E0.10911
G1 X203.235 Y13.987 E0.03699
G1 X206.007 Y13.901 E0.10936
G1 X208.741 Y13.738 E0.108
G1 X211.545 Y13.491 E0.111
G1 X214.245 Y13.177 E0.10719
G1 X217.304 Y12.728 E0.12192
G1 X217.874 Y12.636 E0.02277
G1 X218.597 Y12.54 E0.02876
G1 X219.266 Y12.471 E0.02652
G1 X220.101 Y12.41 E0.03301
G1 X220.761 Y12.382 E0.02605
G1 X224.818 Y12.33 E0.15999
G1 X227.589 Y12.213 E0.10937
G1 X230.326 Y12.019 E0.1082
G1 X233.084 Y11.745 E0.10929
G1 X235.829 Y11.394 E0.10913
G1 X238.55 Y10.966 E0.10862
G1 X241.298 Y10.456 E0.11021
G1 X243.854 Y9.909 E0.10307
G1 X244.27 Y9.86 E0.01652
G1 X245.274 Y9.84 E0.0396
G1 X249.082 Y9.84 E0.15016
G1 X249.745 Y9.849 E0.02615
G1 X250.32 Y9.934 E0.02292
G1 X251.021 Y10.176 E0.02924
G1 X251.595 Y10.528 E0.02655
G1 X251.926 Y10.785 E0.01652
G1 X252.197 Y11.094 E0.01621
G1 X252.963 Y12.149 E0.05141
G1 X254.629 Y14.378 E0.10973
G1 X256.353 Y16.552 E0.10941
G1 X258.141 Y18.682 E0.10966
G1 X259.97 Y20.738 E0.10851
G1 X261.042 Y21.904 E0.06246
G1 X261.473 Y22.502 E0.02907
G1 X261.739 Y23.05 E0.02402
G1 X261.942 Y23.822 E0.03148
G1 X261.964 Y24.947 E0.04437
G1 X261.964 Y34.277 E0.36791
G1 X261.954 Y34.982 E0.0278
G1 X261.893 Y36.435 E0.05735
G1 X261.815 Y39.197 E0.10896
G1 X261.815 Y41.955 E0.10876
G1 X261.937 Y45.571 E0.14267
G1 X261.964 Y46.972 E0.05526
G1 X261.964 Y56.277 E0.36693
G1 X261.954 Y56.982 E0.0278
G1 X261.893 Y58.435 E0.05735
G1 X261.815 Y61.197 E0.10896
G1 X261.815 Y63.955 E0.10876
G1 X261.937 Y67.571 E0.14267
G1 X261.964 Y68.972 E0.05526
G1 X261.964 Y78.277 E0.36693
G1 X261.954 Y78.983 E0.02784
G1 X261.905 Y80.164 E0.04661
G1 X261.827 Y82.926 E0.10896
G1 X261.827 Y85.685 E0.1088
G1 X261.93 Y88.738 E0.12046
G1 X261.964 Y90.471 E0.06835
G1 X261.964 Y99.777 E0.36697
G1 X261.954 Y100.482 E0.0278
G1 X261.893 Y101.935 E0.05735
G1 X261.815 Y104.697 E0.10896
G1 X261.815 Y107.455 E0.10876
G1 X261.937 Y111.071 E0.14267
G1 X261.964 Y112.472 E0.05526
G1 X261.964 Y121.777 E0.36693
G1 X261.954 Y122.482 E0.0278
G1 X261.893 Y123.935 E0.05735
G1 X261.815 Y126.697 E0.10896
G1 X261.815 Y129.455 E0.10876
G1 X261.937 Y133.071 E0.14267
G1 X261.964 Y134.472 E0.05526
G1 X261.964 Y143.777 E0.36693
G1 X261.954 Y144.482 E0.0278
G1 X261.893 Y145.935 E0.05735
G1 X261.815 Y148.697 E0.10896
G1 X261.815 Y151.455 E0.10876
G1 X261.937 Y155.071 E0.14267
G1 X261.964 Y156.472 E0.05526
G1 X261.964 Y165.777 E0.36693
G1 X261.954 Y166.483 E0.02784
G1 X261.905 Y167.664 E0.04661
G1 X261.827 Y170.426 E0.10896
G1 X261.827 Y173.185 E0.1088
G1 X261.93 Y176.238 E0.12046
G1 X261.964 Y177.971 E0.06835
G1 X261.964 Y187.277 E0.36697
G1 X261.954 Y187.982 E0.0278
G1 X261.893 Y189.435 E0.05735
G1 X261.815 Y192.197 E0.10896
G1 X261.815 Y194.955 E0.10876
G1 X261.937 Y198.571 E0.14267
G1 X261.964 Y199.972 E0.05526
G1 X261.964 Y209.277 E0.36693
G1 X261.954 Y209.982 E0.0278
G1 X261.893 Y211.435 E0.05735
G1 X261.815 Y214.197 E0.10896
G1 X261.815 Y216.955 E0.10876
G1 X261.937 Y220.571 E0.14267
G1 X261.964 Y221.972 E0.05526
G1 X261.964 Y231.277 E0.36693
G1 X261.954 Y231.982 E0.0278
G1 X261.893 Y233.435 E0.05735
G1 X261.815 Y236.197 E0.10896
G1 X261.815 Y238.955 E0.10876
G1 X261.937 Y242.571 E0.14267
G1 X261.964 Y243.972 E0.05526
G1 X261.964 Y253.277 E0.36693
G1 X261.954 Y253.982 E0.0278
G1 X261.893 Y255.435 E0.05735
G1 X261.815 Y258.197 E0.10896
G1 X261.815 Y260.955 E0.10876
G1 X261.937 Y264.571 E0.14267
G1 X261.964 Y265.972 E0.05526
G1 X261.964 Y275.276 E0.36689
G1 X261.955 Y275.946 E0.02642
G1 X261.872 Y276.515 E0.02267
G1 X261.636 Y277.202 E0.02864
G1 X261.27 Y277.798 E0.02758
G1 X261.033 Y278.107 E0.01536
G1 X260.168 Y279.047 E0.05037
G1 X258.303 Y281.132 E0.11031
G1 X256.529 Y283.231 E0.10837
G1 X254.816 Y285.378 E0.10831
G1 X253.154 Y287.587 E0.10901
G1 X252.197 Y288.907 E0.06429
G1 X251.92 Y289.222 E0.01654
G1 X251.297 Y289.673 E0.03033
G1 X250.76 Y289.933 E0.02353
G1 X249.994 Y290.136 E0.03125
G1 X248.78 Y290.16 E0.04788
G1 X245.027 Y290.16 E0.14799
G1 X244.327 Y290.15 E0.02761
G1 X243.896 Y290.101 E0.01711
G1 X242.577 Y289.818 E0.0532
G1 X239.853 Y289.273 E0.10954
G1 X237.153 Y288.811 E0.10802
G1 X234.398 Y288.418 E0.10974
G1 X231.653 Y288.108 E0.10893
G1 X228.912 Y287.874 E0.10848
G1 X226.14 Y287.718 E0.10948
G1 X221.958 Y287.63 E0.16495
G1 X220.794 Y287.619 E0.0459
G1 X220.055 Y287.587 E0.02917
G1 X219.327 Y287.535 E0.02878
G1 X218.595 Y287.46 E0.02902
G1 X217.905 Y287.368 E0.02745
G1 X217.174 Y287.25 E0.0292
G1 X214.403 Y286.842 E0.11045
G1 X211.643 Y286.515 E0.1096
G1 X208.914 Y286.27 E0.10805
G1 X206.145 Y286.099 E0.1094
G1 X203.368 Y286.007 E0.10957
G1 X201.623 Y285.989 E0.06881
G1 X199.071 Y285.989 E0.10063
G1 X196.262 Y286.024 E0.11078
G1 X193.527 Y286.135 E0.10794
G1 X190.758 Y286.326 E0.10945
G1 X187.991 Y286.597 E0.10963
G1 X185.227 Y286.945 E0.10985
G1 X184.771 Y287.012 E0.01817
G1 X183.684 Y287.146 E0.04319
G1 X182.83 Y287.125 E0.03369
G1 X181.731 Y286.938 E0.04396
G1 X178.995 Y286.512 E0.10919
G1 X176.244 Y286.164 E0.10935
G1 X173.483 Y285.894 E0.10939
G1 X170.713 Y285.702 E0.10949
G1 X167.977 Y285.59 E0.10798
G1 X165.202 Y285.554 E0.10944
G1 X162.427 Y285.598 E0.10944
G1 X159.656 Y285.719 E0.10937
G1 X156.941 Y285.915 E0.10734
G1 X155.968 Y285.999 E0.03851
G1 X154.278 Y286.006 E0.06664
G1 X154.124 Y285.992 E0.0061
G1 X147.558 Y285.99 E0.25892
G1 X146.276 Y285.918 E0.05063
G1 X145.616 Y285.87 E0.02609
G1 X142.847 Y285.75 E0.10929
G1 X140.073 Y285.707 E0.1094
G1 X137.299 Y285.744 E0.1094
G1 X134.531 Y285.858 E0.10924
G1 X132.443 Y285.99 E0.0825
G1 X130.162 Y285.995 E0.08995
G1 X129.576 Y285.988 E0.02311
G1 X125.753 Y285.992 E0.15075
G1 X124.668 Y286 E0.04279
G1 X123.875 Y285.985 E0.03128
G1 X123.286 Y285.943 E0.02329
G1 X121.583 Y285.797 E0.0674
G1 X118.855 Y285.643 E0.10775
G1 X116.079 Y285.563 E0.10951
G1 X113.304 Y285.563 E0.10943
G1 X110.568 Y285.639 E0.10793
G1 X107.761 Y285.797 E0.11086
G1 X105.031 Y286.029 E0.10804
G1 X102.275 Y286.342 E0.10938
G1 X99.536 Y286.731 E0.10909
G1 X97.36 Y287.094 E0.08699
G1 X96.489 Y287.153 E0.03443
G1 X95.8 Y287.088 E0.02729
G1 X93.207 Y286.737 E0.10318
G1 X90.45 Y286.435 E0.10937
G1 X87.689 Y286.212 E0.10923
G1 X84.916 Y286.067 E0.1095
G1 X82.179 Y286.001 E0.10796
G1 X81.765 Y286.003 E0.01633
G1 X80.47 Y285.988 E0.05107
G1 X77.703 Y285.997 E0.10911
G1 X76.765 Y286.013 E0.03699
G1 X73.993 Y286.099 E0.10936
G1 X71.259 Y286.262 E0.108
G1 X68.455 Y286.509 E0.111
G1 X65.755 Y286.823 E0.10719
G1 X62.696 Y287.272 E0.12192
G1 X62.126 Y287.364 E0.02277
G1 X61.403 Y287.46 E0.02876
G1 X60.734 Y287.529 E0.02652
G1 X59.899 Y287.59 E0.03301
G1 X59.239 Y287.618 E0.02605
G1 X55.182 Y287.67 E0.15999
G1 X52.411 Y287.787 E0.10937
G1 X49.674 Y287.981 E0.1082
G1 X46.916 Y288.255 E0.10929
G1 X44.171 Y288.606 E0.10913
G1 X41.45 Y289.034 E0.10862
G1 X38.702 Y289.544 E0.11021
G1 X36.146 Y290.091 E0.10307
G1 X35.73 Y290.14 E0.01652
G1 X34.726 Y290.16 E0.0396
G1 X30.918 Y290.16 E0.15016
G1 X30.255 Y290.151 E0.02615
G1 X29.68 Y290.066 E0.02292
G1 X28.979 Y289.824 E0.02924
G1 X28.401 Y289.469 E0.02675
G1 X28.071 Y289.211 E0.01652
G1 X27.803 Y288.906 E0.01601
G1 X27.019 Y287.827 E0.05259
G1 X25.371 Y285.622 E0.10855
G1 X23.642 Y283.442 E0.10972
G1 X21.858 Y281.317 E0.10941
G1 X20.03 Y279.262 E0.10846
G1 X18.958 Y278.096 E0.06246
G1 X18.527 Y277.498 E0.02907
G1 X18.261 Y276.95 E0.02402
G1 X18.058 Y276.177 E0.03152
G1 X18.036 Y275.005 E0.04622
G1 X18.036 Y265.723 E0.36602
G1 X18.046 Y265.017 E0.02784
G1 X18.107 Y263.565 E0.05731
G1 X18.185 Y260.803 E0.10896
G1 X18.185 Y258.045 E0.10876
G1 X18.063 Y254.429 E0.14267
G1 X18.036 Y253.028 E0.05526
G1 X18.036 Y243.723 E0.36693
G1 X18.046 Y243.017 E0.02784
G1 X18.107 Y241.565 E0.05731
G1 X18.185 Y238.803 E0.10896
G1 X18.185 Y236.045 E0.10876
G1 X18.063 Y232.429 E0.14267
G1 X18.036 Y231.028 E0.05526
G1 X18.036 Y221.723 E0.36693
G1 X18.046 Y221.017 E0.02784
G1 X18.107 Y219.565 E0.05731
G1 X18.185 Y216.803 E0.10896
G1 X18.185 Y214.045 E0.10876
G1 X18.063 Y210.429 E0.14267
G1 X18.036 Y209.028 E0.05526
G1 X18.036 Y199.723 E0.36693
G1 X18.046 Y199.017 E0.02784
G1 X18.107 Y197.565 E0.05731
G1 X18.185 Y194.803 E0.10896
G1 X18.185 Y192.045 E0.10876
G1 X18.063 Y188.429 E0.14267
G1 X18.036 Y187.028 E0.05526
G1 X18.036 Y177.723 E0.36693
G1 X18.046 Y177.002 E0.02843
G1 X18.095 Y175.835 E0.04606
G1 X18.173 Y173.074 E0.10892
G1 X18.173 Y170.315 E0.1088
G1 X18.07 Y167.262 E0.12046
G1 X18.036 Y165.529 E0.06835
G1 X18.036 Y156.223 E0.36697
G1 X18.046 Y155.517 E0.02784
G1 X18.107 Y154.065 E0.05731
G1 X18.185 Y151.303 E0.10896
G1 X18.185 Y148.545 E0.10876
G1 X18.063 Y144.929 E0.14267
G1 X18.036 Y143.528 E0.05526
G1 X18.036 Y134.223 E0.36693
G1 X18.046 Y133.517 E0.02784
G1 X18.107 Y132.065 E0.05731
G1 X18.185 Y129.303 E0.10896
G1 X18.185 Y126.545 E0.10876
G1 X18.063 Y122.929 E0.14267
G1 X18.036 Y121.528 E0.05526
G1 X18.036 Y112.223 E0.36693
G1 X18.046 Y111.517 E0.02784
G1 X18.107 Y110.065 E0.05731
G1 X18.185 Y107.303 E0.10896
G1 X18.185 Y104.545 E0.10876
G1 X18.063 Y100.929 E0.14267
G1 X18.036 Y99.528 E0.05526
G1 X18.036 Y90.223 E0.36693
G1 X18.046 Y89.502 E0.02843
G1 X18.095 Y88.335 E0.04606
G1 X18.173 Y85.574 E0.10892
G1 X18.173 Y82.815 E0.1088
G1 X18.07 Y79.762 E0.12046
G1 X18.036 Y78.029 E0.06835
G1 X18.036 Y68.723 E0.36697
G1 X18.046 Y68.017 E0.02784
G1 X18.107 Y66.565 E0.05731
G1 X18.185 Y63.803 E0.10896
G1 X18.185 Y61.045 E0.10876
G1 X18.063 Y57.429 E0.14267
G1 X18.036 Y56.028 E0.05526
G1 X18.036 Y46.723 E0.36693
G1 X18.046 Y46.017 E0.02784
G1 X18.107 Y44.565 E0.05731
G1 X18.185 Y41.803 E0.10896
G1 X18.185 Y39.045 E0.10876
G1 X18.063 Y35.429 E0.14267
G1 X18.036 Y34.028 E0.05526
G1 X18.036 Y24.725 E0.36685
G1 X18.045 Y24.053 E0.0265
G1 X18.129 Y23.48 E0.02284
G1 X18.366 Y22.794 E0.02862
G1 X18.732 Y22.2 E0.02751
G1 X18.968 Y21.892 E0.0153
G1 X19.832 Y20.953 E0.05032
G1 X21.431 Y19.166 E0.09456
G0 F1620 X21.697 Y18.868
G1 F2100 E-0.4
;MESH:Cam_Holder_300mAh_Dipole_Rev-01.3mf(42)
G0 F6000 X20.205 Y22.828
G0 X20.999 Y24.014
;TYPE:WALL-OUTER
G1 F2100 E0.4
G1 F1822.8 X21.271 Y23.76 E0.01739
G1 F1811.3 X26.565 Y23.76 E0.24895
G1 F1826.6 X26.686 Y23.804 E0.006
G1 F1822.8 X26.933 Y24.086 E0.01752
G1 F1800 X26.933 Y34.911 E0.51224
G1 F1807.5 X26.736 Y35.156 E0.01481
G1 F1803.8 X26.565 Y35.24 E0.009
G1 F1807.5 X21.275 Y35.24 E0.24928
G1 F1796.3 X21.097 Y35.099 E0.01077
G1 X20.956 Y34.921 E0.01077
G1 F1807.5 X20.956 Y24.133 E0.50836
G1 F1815.1 X20.999 Y24.014 E0.00594
G0 F6000 X21.181 Y23.844
G1 F2100 E-0.4
G0 F6000 X36.16 Y27.404
G0 X36.746 Y29.347
G1 F2100 E0.4
G0 F6000 X35.892 Y29.347
G1 F1800 X35.625 Y29.5 E0.01456
G1 X32.977 Y28.54 E0.13328
G1 X30.283 Y28.539 E0.12748
G1 X30.173 Y28.494 E0.00562
G1 F1796.3 X30.096 Y28.403 E0.00565
G1 X29.686 Y27.52 E0.04616
G1 F1800 X29.252 Y27.722 E0.02265
G1 F1788.8 X29.497 Y28.256 E0.02798
G1 F1785.1 X29.476 Y28.403 E0.00709
G1 F1796.3 X29.308 Y28.535 E0.01013
G1 F1800 X27.656 Y28.54 E0.07817
G1 F1781.4 X27.419 Y28.363 E0.01414
G1 F1777.8 X27.415 Y24.089 E0.20477
G1 F1796.3 X27.346 Y23.856 E0.01152
G1 F1788.8 X27.14 Y23.556 E0.01733
G1 F1800 X26.841 Y23.347 E0.01726
G1 F1815.1 X26.61 Y23.28 E0.01129
G1 F1803.8 X21.28 Y23.28 E0.25169
G1 F1811.3 X21.051 Y23.347 E0.01122
G1 F1803.8 X20.75 Y23.555 E0.01728
G1 X20.543 Y23.855 E0.01721
G1 F1811.3 X20.476 Y24.086 E0.01131
G1 F1800 X20.476 Y34.914 E0.51238
G1 F1811.3 X20.543 Y35.145 E0.01131
G1 F1803.8 X20.75 Y35.445 E0.01721
G1 X21.051 Y35.653 E0.01728
G1 F1811.3 X21.28 Y35.72 E0.01122
G1 F1800 X26.61 Y35.72 E0.25221
G1 F1815.1 X26.841 Y35.653 E0.01129
G1 F1800 X27.14 Y35.444 E0.01726
G1 F1792.5 X27.346 Y35.144 E0.01729
G1 F1800 X27.415 Y34.911 E0.0115
G1 F1792.5 X27.415 Y30.7 E0.20009
G1 F1796.3 X27.656 Y30.46 E0.01613
G1 F1800 X29.308 Y30.465 E0.07817
G1 X29.475 Y30.598 E0.0101
G1 X29.474 Y30.801 E0.00961
G1 X29.252 Y31.278 E0.0249
G1 X29.686 Y31.48 E0.02265
G1 X30.097 Y30.598 E0.04605
G1 X30.173 Y30.506 E0.00565
G1 X30.283 Y30.461 E0.00562
G1 X32.977 Y30.46 E0.12748
G1 X35.625 Y29.5 E0.13328
G1 X35.892 Y29.653 E0.01456
G1 X35.896 Y31.86 E0.10444
G1 X36.856 Y31.86 E0.04543
G1 X36.856 Y30.7 E0.05489
G1 X37.014 Y30.461 E0.01356
G1 X38.758 Y30.463 E0.08253
G1 X39.983 Y31.079 E0.06488
G1 X41.197 Y31.605 E0.06261
G1 X42.429 Y32.056 E0.06208
G1 X43.672 Y32.428 E0.0614
G1 X44.949 Y32.732 E0.06212
G1 X46.211 Y32.956 E0.06065
G1 X47.541 Y33.114 E0.06338
G1 X48.877 Y33.19 E0.06332
G1 X50.199 Y33.188 E0.06256
G1 X51.454 Y33.115 E0.05949
G1 X52.794 Y32.956 E0.06385
G1 X54.06 Y32.732 E0.06084
G1 X55.337 Y32.427 E0.06213
G1 X56.593 Y32.052 E0.06203
G1 X57.834 Y31.596 E0.06256
G1 X59.027 Y31.079 E0.06153
G1 X60.252 Y30.461 E0.06493
G1 X65.861 Y30.465 E0.26542
G1 X66.027 Y30.598 E0.01007
G1 X66.027 Y30.801 E0.00961
G1 X65.806 Y31.278 E0.02488
G1 X66.24 Y31.48 E0.02265
G1 X66.651 Y30.598 E0.04605
G1 X66.727 Y30.506 E0.00565
G1 X66.837 Y30.461 E0.00562
G1 X68.52 Y30.465 E0.07964
G1 X68.686 Y30.598 E0.01007
G1 X68.686 Y30.801 E0.00961
G1 X68.465 Y31.278 E0.02488
G1 X68.899 Y31.48 E0.02265
G1 X69.31 Y30.598 E0.04605
G1 X69.386 Y30.506 E0.00565
G1 X69.496 Y30.461 E0.00562
G1 X71.179 Y30.465 E0.07964
G1 X71.345 Y30.598 E0.01007
G1 X71.345 Y30.801 E0.00961
G1 X71.124 Y31.278 E0.02488
G1 X71.558 Y31.48 E0.02265
G1 X71.969 Y30.598 E0.04605
G1 X72.045 Y30.506 E0.00565
