;FLAVOR:RepRap
;TIME:296
;Filament used: 0.472646m
;Layer height: 0.3
;MINX:103.371
;MINY:89.064
;MINZ:0.2
;MAXX:176.596
;MAXY:210.068
;MAXZ:0.8
;Exported with Cura-DuetRRF v1.2.9 plugin by Thomas Kriechbaumer
;Generated with Cura_SteamEngine 5.2.2
T0
M104 S215
M109 S215
M82 ;absolute extrusion mode

M83 ;relative extrusion mode
G1 F2100 E-0.4
;LAYER_COUNT:3
;LAYER:0
M107
G0 F6000 X103.999 Y90.471 Z0.2
;TYPE:SKIRT
G1 F2100 E0.4
G1 F1800 X104.493 Y89.957 E0.0276
G1 X104.811 Y89.684 E0.01622
G1 X105.229 Y89.453 E0.01849
G1 X105.699 Y89.256 E0.01973
G1 X106.099 Y89.132 E0.01621
G1 X106.504 Y89.085 E0.01578
G1 X107.528 Y89.064 E0.03965
G1 X121.812 Y89.064 E0.55295
G1 X122.676 Y89.077 E0.03345
G1 X123.481 Y89.203 E0.03154
G1 X125.053 Y89.472 E0.06174
G1 X127.767 Y89.857 E0.10611
G1 X130.517 Y90.167 E0.10713
G1 X133.247 Y90.397 E0.10606
G1 X136.058 Y90.555 E0.10899
G1 X138.793 Y90.631 E0.10592
G1 X141.567 Y90.629 E0.10739
G1 X144.344 Y90.548 E0.10755
G1 X147.074 Y90.393 E0.10585
G1 X149.845 Y90.155 E0.10766
G1 X152.592 Y89.842 E0.10703
G1 X155.326 Y89.451 E0.10691
G1 X156.599 Y89.234 E0.04999
G1 X157.449 Y89.1 E0.03331
G1 X158.325 Y89.088 E0.03391
G1 X172.563 Y89.088 E0.55117
G1 X173.275 Y89.099 E0.02757
G1 X174.127 Y89.233 E0.03339
G1 X174.528 Y89.355 E0.01623
G1 X174.941 Y89.578 E0.01817
G1 X175.619 Y90.094 E0.03298
G1 X176.109 Y90.757 E0.03191
G1 X176.37 Y91.296 E0.02318
G1 X176.572 Y92.059 E0.03055
G1 X176.596 Y93.253 E0.04623
G1 X176.596 Y97.526 E0.16541
G1 X176.587 Y98.191 E0.02575
G1 X176.489 Y98.856 E0.02602
G1 X176.055 Y100.218 E0.05534
G1 X175.833 Y100.879 E0.02699
G1 X175.024 Y103.541 E0.1077
G1 X174.305 Y106.168 E0.10544
G1 X173.639 Y108.907 E0.10912
G1 X173.066 Y111.595 E0.10639
G1 X172.563 Y114.323 E0.10739
G1 X172.143 Y117.035 E0.10624
G1 X171.797 Y119.783 E0.10722
G1 X171.562 Y122.334 E0.09917
G1 X171.396 Y123.959 E0.06323
G1 X171.305 Y124.645 E0.02679
G1 X171.185 Y125.385 E0.02902
G1 X170.782 Y128.12 E0.10702
G1 X170.452 Y130.9 E0.10837
G1 X170.208 Y133.609 E0.10529
G1 X170.037 Y136.383 E0.10759
G1 X169.944 Y139.18 E0.10834
G1 X169.927 Y140.877 E0.0657
G1 X169.925 Y144.512 E0.14072
G1 X169.96 Y147.295 E0.10774
G1 X170.07 Y150.013 E0.1053
G1 X170.262 Y152.797 E0.10803
G1 X170.533 Y155.564 E0.10763
G1 X170.882 Y158.333 E0.10804
G1 X170.951 Y158.803 E0.01839
G1 X171.084 Y159.871 E0.04166
G1 X171.06 Y160.724 E0.03303
G1 X170.477 Y164.156 E0.13476
G1 X170.087 Y166.888 E0.10683
G1 X169.773 Y169.649 E0.10757
G1 X169.536 Y172.43 E0.10805
G1 X169.381 Y175.149 E0.10543
G1 X169.302 Y177.922 E0.10739
G1 X169.302 Y180.698 E0.10746
G1 X169.378 Y183.427 E0.10568
G1 X169.536 Y186.241 E0.10911
G1 X169.767 Y188.959 E0.1056
G1 X169.914 Y190.34 E0.05376
G1 X169.936 Y190.877 E0.02081
G1 X169.942 Y192.274 E0.05408
G1 X169.928 Y192.428 E0.00599
G1 X169.926 Y198.995 E0.25422
G1 X169.876 Y199.52 E0.02042
G1 X168.517 Y203.26 E0.15404
G1 X168.373 Y203.681 E0.01722
G1 X167.758 Y205.37 E0.06958
G1 X167.485 Y206.09 E0.02981
G1 X167.3 Y206.466 E0.01622
G1 X167.047 Y206.8 E0.01622
G1 X166.668 Y207.14 E0.01971
G1 X164.791 Y208.158 E0.08266
G1 X163.362 Y208.981 E0.06384
G1 X163.214 Y209.048 E0.00629
G1 X162.132 Y209.665 E0.04822
G1 X161.406 Y209.949 E0.03018
G1 X160.725 Y210.068 E0.02676
G1 X145.496 Y210.068 E0.58954
G1 X144.781 Y210.058 E0.02768
G1 X144.094 Y210.012 E0.02665
G1 X141.332 Y209.854 E0.1071
G1 X138.564 Y209.776 E0.1072
G1 X135.259 Y209.785 E0.12794
G1 X134.232 Y209.805 E0.03976
G1 X119.931 Y209.805 E0.55361
G1 X119.268 Y209.796 E0.02567
G1 X118.698 Y209.713 E0.0223
G1 X117.93 Y209.448 E0.03145
G1 X116.98 Y208.954 E0.04145
G1 X114.48 Y207.699 E0.10829
G1 X113.597 Y207.274 E0.03794
G1 X113.238 Y207.057 E0.01624
G1 X112.927 Y206.776 E0.01623
G1 X112.675 Y206.442 E0.0162
G1 X112.499 Y206.084 E0.01544
G1 X112.13 Y205.128 E0.03967
G1 X111.496 Y203.388 E0.07169
G1 X111.239 Y202.649 E0.03029
G1 X110.539 Y200.706 E0.07995
G1 X110.179 Y199.739 E0.03994
G1 X110.071 Y199.334 E0.01623
G1 X110.041 Y198.976 E0.01391
G1 X110.036 Y196.691 E0.08846
G1 X110.043 Y196.102 E0.0228
G1 X110.039 Y192.257 E0.14885
G1 X110.031 Y191.195 E0.04111
G1 X110.042 Y190.443 E0.02911
G1 X110.19 Y188.937 E0.05858
G1 X110.425 Y186.172 E0.10742
G1 X110.583 Y183.357 E0.10914
G1 X110.658 Y180.63 E0.10561
G1 X110.657 Y177.853 E0.1075
G1 X110.578 Y175.067 E0.10789
G1 X110.424 Y172.362 E0.10488
G1 X110.186 Y169.579 E0.10813
G1 X109.872 Y166.825 E0.1073
G1 X109.481 Y164.085 E0.10714
G1 X109.17 Y162.28 E0.0709
G1 X109.164 Y162.202 E0.00303
G1 X108.92 Y160.798 E0.05517
G1 X108.887 Y160.147 E0.02523
G1 X108.937 Y159.375 E0.02995
G1 X109.294 Y156.742 E0.10286
G1 X109.596 Y153.979 E0.1076
G1 X109.819 Y151.218 E0.10723
G1 X109.964 Y148.445 E0.10749
G1 X110.03 Y145.708 E0.10598
G1 X110.028 Y145.293 E0.01607
G1 X110.043 Y143.991 E0.05041
G1 X110.025 Y139.302 E0.18152
G1 X109.937 Y136.525 E0.10756
G1 X109.771 Y133.76 E0.10723
G1 X109.529 Y131.026 E0.10625
G1 X109.211 Y128.302 E0.10617
G1 X108.77 Y125.3 E0.11746
G1 X108.671 Y124.683 E0.02419
G1 X108.572 Y123.939 E0.02906
G1 X108.476 Y123.013 E0.03604
G1 X108.275 Y120.708 E0.08957
G1 X107.959 Y117.99 E0.10593
G1 X107.568 Y115.284 E0.10584
G1 X107.084 Y112.497 E0.1095
G1 X106.54 Y109.819 E0.10579
G1 X105.923 Y107.158 E0.10574
G1 X105.208 Y104.437 E0.10891
G1 X104.438 Y101.81 E0.10597
G1 X103.855 Y100.032 E0.07243
G1 X103.493 Y98.875 E0.04693
G1 X103.393 Y98.263 E0.02401
G1 X103.371 Y97.191 E0.04151
G1 X103.371 Y92.922 E0.16526
G1 X103.38 Y92.274 E0.02509
G1 X103.464 Y91.703 E0.02234
G1 X103.74 Y90.88 E0.0336
G1 X103.785 Y90.809 E0.00325
G0 F1620 X103.999 Y90.471
G1 F2100 E-0.4
;MESH:Cam_Holder_450mAh_Dipole_Light_Rev-01.3mf(4)
G0 F6000 X106.516 Y92.045
;TYPE:WALL-OUTER
G1 F2100 E0.4
G1 F1803.8 X106.671 Y91.984 E0.00772
G1 F1796.3 X122.371 Y91.985 E0.73084
G1 F1807.5 X122.62 Y92.098 E0.01265
G1 F1818.9 X122.771 Y92.301 E0.01163
G1 F1807.5 X122.771 Y98.082 E0.26743
G1 X122.71 Y98.239 E0.00779
G1 X122.535 Y98.412 E0.01138
G1 F1800 X122.398 Y98.464 E0.00681
G1 X106.677 Y98.464 E0.7303
G1 F1803.8 X106.516 Y98.402 E0.008
G1 X106.352 Y98.238 E0.01075
G1 X106.291 Y98.082 E0.00776
G1 F1800 X106.291 Y92.37 E0.26534
G1 F1803.8 X106.352 Y92.21 E0.00794
G1 F1807.5 X106.516 Y92.045 E0.01076
G0 F6000 X106.671 Y91.984
G0 X106.755 Y91.984
G1 F2100 E-0.4
G0 F6000 X107.184 Y92.877
G0 X113.835 Y97.559
G0 X113.331 Y98.944
G1 F2100 E0.4
G1 F1800 X113.571 Y99.184 E0.01577
G1 X113.57 Y100.816 E0.07581
G1 X113.525 Y100.927 E0.00556
G1 F1796.3 X113.433 Y101.004 E0.00558
G1 F1781.4 X113.287 Y101.025 E0.00692
G1 F1785.1 X112.753 Y100.78 E0.02752
G1 F1800 X112.551 Y101.215 E0.02228
G1 F1796.3 X113.433 Y101.624 E0.04526
G1 X113.566 Y101.791 E0.00994
G1 F1800 X113.571 Y104.507 E0.12617
G1 F1796.3 X114.531 Y107.153 E0.13103
G1 X115.491 Y104.507 E0.13103
G1 F1800 X115.496 Y101.791 E0.12617
G1 F1796.3 X115.629 Y101.624 E0.00994
G1 X116.511 Y101.215 E0.04526
G1 F1800 X116.309 Y100.78 E0.02228
G1 F1785.1 X115.775 Y101.025 E0.02752
G1 F1781.4 X115.629 Y101.004 E0.00692
G1 F1796.3 X115.537 Y100.927 E0.00558
G1 F1800 X115.492 Y100.816 E0.00556
G1 X115.491 Y99.184 E0.07581
G1 F1785.1 X115.669 Y98.948 E0.01385
G1 X122.445 Y98.944 E0.31739
G1 F1800 X122.829 Y98.794 E0.01915
G1 F1807.5 X123.093 Y98.532 E0.01721
G1 X123.251 Y98.13 E0.01998
G1 F1800 X123.251 Y92.345 E0.26874
G1 F1815.1 X123.184 Y92.079 E0.01264
G1 F1818.9 X122.98 Y91.779 E0.01668
G1 F1803.8 X122.674 Y91.575 E0.01705
G1 F1796.3 X122.446 Y91.506 E0.01109
G1 X106.622 Y91.504 E0.73662
G1 F1803.8 X106.223 Y91.663 E0.01991
G1 F1807.5 X105.969 Y91.917 E0.01662
G1 F1803.8 X105.811 Y92.322 E0.02015
G1 F1800 X105.811 Y98.13 E0.2698
G1 F1803.8 X105.969 Y98.532 E0.02002
G1 X106.222 Y98.784 E0.01655
G1 X106.629 Y98.944 E0.02027
G1 F1800 X113.331 Y98.944 E0.31133
G0 F6000 X113.507 Y99.12
G0 X114.391 Y99.284
G0 X114.531 Y104.849
G0 X114.531 Y105.739
;TYPE:WALL-INNER
G1 F1800 X115.011 Y104.422 E0.06512
G1 X115.011 Y101.736 E0.12477
G1 X115.149 Y101.417 E0.01615
G1 X115.275 Y101.314 E0.00756
G1 X115.149 Y101.211 E0.00756
G1 X115.011 Y100.891 E0.01619
G1 X115.011 Y99.184 E0.0793
G1 X115.196 Y98.944 E0.01408
G1 X113.811 Y98.944 E0.06434
G1 X114.051 Y99.184 E0.01577
G1 X114.051 Y100.891 E0.0793
G1 X113.913 Y101.211 E0.01619
G1 X113.787 Y101.314 E0.00756
G1 X113.913 Y101.417 E0.00756
G1 X114.051 Y101.736 E0.01615
G1 X114.051 Y104.422 E0.12477
G1 X114.417 Y105.426 E0.04964
G0 F1620 X114.531 Y105.739
G0 F6000 X114.531 Y104.849
G0 X114.531 Y104.338
G1 F1800 X114.531 Y99.424 E0.22827
G1 F2100 E-0.4
G0 F6000 X114.531 Y106.391
G0 X114.531 Y107.694
G1 F2100 E0.4
G0 F6000 X113.567 Y108.54
;TYPE:WALL-OUTER
G1 F1800 X113.57 Y110.285 E0.08106
G1 X112.947 Y111.522 E0.06434
G1 X112.426 Y112.725 E0.0609
G1 X111.975 Y113.958 E0.06099
G1 X111.603 Y115.2 E0.06023
G1 X111.299 Y116.477 E0.06098
G1 X111.07 Y117.766 E0.06082
G1 X110.917 Y119.069 E0.06095
G1 X110.842 Y120.377 E0.06086
G1 X110.843 Y121.728 E0.06276
G1 X110.917 Y122.998 E0.0591
G1 X111.074 Y124.322 E0.06194
G1 X111.301 Y125.602 E0.06039
G1 X111.6 Y126.852 E0.05971
G1 X111.979 Y128.121 E0.06152
G1 X112.435 Y129.363 E0.06146
G1 X112.952 Y130.556 E0.0604
G1 X113.568 Y131.779 E0.06361
G1 X113.57 Y138.37 E0.30618
G1 X113.525 Y138.48 E0.00552
G1 F1796.3 X113.434 Y138.558 E0.00558
G1 F1781.4 X113.287 Y138.579 E0.00697
G1 F1788.8 X112.753 Y138.333 E0.02748
G1 F1803.8 X112.55 Y138.768 E0.02225
G1 F1796.3 X113.434 Y139.178 E0.04536
G1 X113.566 Y139.345 E0.00991
G1 F1800 X113.57 Y141.029 E0.07823
G1 X113.525 Y141.139 E0.00552
G1 F1796.3 X113.434 Y141.217 E0.00558
G1 F1781.4 X113.287 Y141.238 E0.00697
G1 F1788.8 X112.753 Y140.992 E0.02748
G1 F1803.8 X112.55 Y141.427 E0.02225
G1 F1796.3 X113.434 Y141.837 E0.04536
G1 X113.566 Y142.004 E0.00991
G1 F1800 X113.57 Y143.688 E0.07823
G1 X113.525 Y143.798 E0.00552
G1 F1796.3 X113.434 Y143.876 E0.00558
G1 F1781.4 X113.287 Y143.897 E0.00697
G1 F1788.8 X112.753 Y143.651 E0.02748
G1 F1803.8 X112.55 Y144.086 E0.02225
G1 F1796.3 X113.434 Y144.496 E0.04536
G1 X113.566 Y144.663 E0.00991
G1 F1800 X113.57 Y146.347 E0.07823
G1 X113.525 Y146.457 E0.00552
G1 F1796.3 X113.434 Y146.535 E0.00558
G1 F1781.4 X113.287 Y146.556 E0.00697
G1 F1788.8 X112.753 Y146.31 E0.02748
G1 F1803.8 X112.55 Y146.745 E0.02225
G1 F1796.3 X113.434 Y147.155 E0.04536
G1 X113.566 Y147.322 E0.00991
G1 F1800 X113.57 Y149.006 E0.07823
G1 X113.525 Y149.116 E0.00552
G1 F1796.3 X113.434 Y149.194 E0.00558
G1 F1781.4 X113.287 Y149.215 E0.00697
G1 F1788.8 X112.753 Y148.969 E0.02748
G1 F1803.8 X112.55 Y149.404 E0.02225
G1 F1796.3 X113.434 Y149.814 E0.04536
G1 X113.566 Y149.981 E0.00991
G1 F1800 X113.571 Y153.994 E0.18642
G1 F1796.3 X114.531 Y156.64 E0.13103
G1 X115.491 Y153.994 E0.13103
G1 F1800 X115.496 Y149.981 E0.18642
G1 F1796.3 X115.628 Y149.814 E0.00991
G1 X116.511 Y149.404 E0.04532
G1 F1800 X116.309 Y148.97 E0.02224
G1 F1788.8 X115.775 Y149.215 E0.02746
G1 F1785.1 X115.628 Y149.194 E0.00696
G1 F1796.3 X115.537 Y149.117 E0.00555
G1 F1800 X115.492 Y149.006 E0.00556
G1 X115.496 Y147.322 E0.07823
G1 F1796.3 X115.628 Y147.155 E0.00991
G1 X116.511 Y146.745 E0.04532
G1 F1800 X116.309 Y146.311 E0.02224
G1 F1788.8 X115.775 Y146.556 E0.02746
G1 F1785.1 X115.628 Y146.535 E0.00696
G1 F1796.3 X115.537 Y146.458 E0.00555
G1 F1800 X115.492 Y146.347 E0.00556
G1 X115.496 Y144.663 E0.07823
G1 F1796.3 X115.628 Y144.496 E0.00991
G1 X116.511 Y144.086 E0.04532
G1 F1800 X116.309 Y143.652 E0.02224
G1 F1788.8 X115.775 Y143.897 E0.02746
G1 F1785.1 X115.628 Y143.876 E0.00696
G1 F1796.3 X115.537 Y143.799 E0.00555
G1 F1800 X115.492 Y143.688 E0.00556
G1 X115.496 Y142.004 E0.07823
G1 F1796.3 X115.628 Y141.837 E0.00991
G1 X116.511 Y141.427 E0.04532
G1 F1800 X116.309 Y140.993 E0.02224
G1 F1788.8 X115.775 Y141.238 E0.02746
G1 F1785.1 X115.628 Y141.217 E0.00696
G1 F1796.3 X115.537 Y141.14 E0.00555
G1 F1800 X115.492 Y141.029 E0.00556
G1 X115.496 Y139.345 E0.07823
G1 F1796.3 X115.628 Y139.178 E0.00991
G1 X116.511 Y138.768 E0.04532
G1 F1800 X116.309 Y138.334 E0.02224
G1 F1788.8 X115.775 Y138.579 E0.02746
G1 F1785.1 X115.628 Y138.558 E0.00696
G1 F1796.3 X115.537 Y138.481 E0.00555
G1 F1800 X115.492 Y138.37 E0.00556
G1 X115.494 Y131.777 E0.30627
G1 X116.115 Y130.544 E0.06413
G1 X116.636 Y129.341 E0.0609
G1 X117.091 Y128.095 E0.06162
G1 X117.46 Y126.854 E0.06014
G1 X117.762 Y125.588 E0.06046
G1 X117.991 Y124.301 E0.06073
G1 X118.145 Y122.983 E0.06164
G1 X118.221 Y121.69 E0.06017
G1 X118.219 Y120.338 E0.06281
G1 X118.145 Y119.069 E0.05905
G1 X117.987 Y117.742 E0.06208
G1 X117.757 Y116.451 E0.06092
G1 X117.457 Y115.201 E0.05972
G1 X117.083 Y113.945 E0.06088
G1 X116.627 Y112.701 E0.06155
G1 X116.11 Y111.51 E0.06031
G1 X115.492 Y110.283 E0.06382
G1 X115.495 Y108.543 E0.08083
G1 X115.677 Y108.384 E0.01123
G1 X116.891 Y108.384 E0.05639
G1 X116.891 Y107.424 E0.0446
G1 X114.686 Y107.42 E0.10243
G1 F1796.3 X114.531 Y107.215 E0.01196
G1 X114.376 Y107.42 E0.01196
G1 F1800 X112.171 Y107.424 E0.10243
G1 X112.171 Y108.384 E0.0446
G1 X113.331 Y108.384 E0.05389
G1 X113.491 Y108.49 E0.00892
G0 F1620 X113.567 Y108.54
G0 F6000 X113.567 Y108.79
G0 X113.331 Y107.904
;TYPE:WALL-INNER
G1 F1800 X112.651 Y107.904 E0.03159
G0 F6000 X114.671 Y108.244
G0 X115.544 Y107.916
G1 F1756.1 X115.731 Y107.904 E0.00892
G1 F1800 X116.411 Y107.904 E0.03159
G1 F2100 E-0.4
G0 F6000 X115.213 Y108.106
G0 X114.792 Y110.649
G1 F2100 E0.4
G0 F6000 X114.965 Y111.547
;TYPE:WALL-OUTER
G1 F1800 X115.171 Y111.762 E0.01383
G1 X115.71 Y112.995 E0.06251
G1 X116.151 Y114.179 E0.05869
G1 X116.521 Y115.398 E0.05918
G1 X116.822 Y116.656 E0.06009
G1 X117.04 Y117.891 E0.05826
G1 X117.188 Y119.139 E0.05838
G1 X117.263 Y120.406 E0.05896
G1 X117.262 Y121.676 E0.059
G1 X117.187 Y122.94 E0.05882
G1 X117.037 Y124.2 E0.05895
G1 X116.815 Y125.436 E0.05834
G1 X116.518 Y126.682 E0.0595
G1 X116.145 Y127.902 E0.05926
G1 X115.711 Y129.071 E0.05793
G1 X115.172 Y130.304 E0.06251
G1 X114.864 Y130.577 E0.01912
G1 X114.531 Y130.66 E0.01594
G1 X114.198 Y130.577 E0.01594
G1 X113.891 Y130.304 E0.01908
G1 X113.357 Y129.084 E0.06186
G1 X112.911 Y127.887 E0.05934
G1 X112.541 Y126.668 E0.05918
G1 X112.24 Y125.41 E0.06009
G1 X112.023 Y124.184 E0.05784
G1 X111.874 Y122.926 E0.05885
G1 X111.8 Y121.675 E0.05822
G1 X111.8 Y120.39 E0.05969
G1 X111.875 Y119.126 E0.05882
G1 X112.025 Y117.866 E0.05895
G1 X112.247 Y116.63 E0.05834
G1 X112.545 Y115.385 E0.05947
G1 X112.917 Y114.164 E0.05929
G1 X113.351 Y112.995 E0.05793
G1 X113.891 Y111.762 E0.06253
G1 X114.198 Y111.489 E0.01908
G1 X114.531 Y111.406 E0.01594
G1 X114.649 Y111.445 E0.00577
G0 F1620 X114.965 Y111.547
G0 F6000 X115.138 Y111.727
G0 X115.466 Y111.337
;TYPE:WALL-INNER
G1 F1752.5 X115.597 Y111.548 E0.01185
G1 F1811.3 X116.185 Y112.891 E0.06768
G1 F1803.8 X116.609 Y114.04 E0.05678
G1 F1818.9 X116.985 Y115.287 E0.05987
G1 X117.294 Y116.574 E0.06084
G1 F1807.5 X117.516 Y117.835 E0.05923
G1 F1800 X117.667 Y119.111 E0.05969
G1 F1803.8 X117.742 Y120.406 E0.06013
G1 F1807.5 X117.74 Y121.704 E0.06005
G1 X117.667 Y122.956 E0.05802
G1 X117.515 Y124.242 E0.0599
G1 X117.293 Y125.491 E0.05868
G1 F1815.1 X116.986 Y126.778 E0.06095
G1 F1807.5 X116.631 Y127.957 E0.05696
G1 F1792.5 X116.185 Y129.175 E0.06051
G1 F1815.1 X115.597 Y130.518 E0.06754
G1 F1796.3 X115.503 Y130.679 E0.00868
G0 F6000 X114.792 Y131.417
G0 X114.531 Y154.336
G0 X114.531 Y155.226
G1 F1800 X115.011 Y153.909 E0.06512
G1 X115.011 Y149.926 E0.18503
G1 X115.149 Y149.607 E0.01615
G1 X115.274 Y149.504 E0.00752
G1 X115.149 Y149.401 E0.00752
G1 X115.011 Y149.081 E0.01619
G1 X115.011 Y147.267 E0.08427
G1 X115.149 Y146.948 E0.01615
G1 X115.274 Y146.845 E0.00752
G1 X115.149 Y146.742 E0.00752
G1 X115.011 Y146.422 E0.01619
G1 X115.011 Y144.608 E0.08427
G1 X115.149 Y144.289 E0.01615
G1 X115.274 Y144.186 E0.00752
G1 X115.149 Y144.083 E0.00752
G1 X115.011 Y143.763 E0.01619
G1 X115.011 Y141.949 E0.08427
G1 X115.149 Y141.63 E0.01615
G1 X115.274 Y141.527 E0.00752
G1 X115.149 Y141.424 E0.00752
G1 X115.011 Y141.104 E0.01619
G1 X115.011 Y139.29 E0.08427
G1 X115.149 Y138.971 E0.01615
G1 X115.274 Y138.868 E0.00752
G1 X115.149 Y138.765 E0.00752
G1 X115.011 Y138.445 E0.01619
G1 X115.011 Y131.751 E0.31096
