;FLAVOR:RepRap
;TIME:415
;Filament used: 0.695361m
;Layer height: 0.3
;MINX:12.786
;MINY:125.59
;MINZ:0.2
;MAXX:267.214
;MAXY:173.91
;MAXZ:0.8
;Exported with Cura-DuetRRF v1.2.9 plugin by Thomas Kriechbaumer
;Generated with Cura_SteamEngine 5.2.2
T0
M104 S215
M109 S215
M82 ;absolute extrusion mode

M83 ;relative extrusion mode
G1 F2100 E-0.4
;LAYER_COUNT:3
;LAYER:0
M107
G0 F6000 X25.254 Y125.614 Z0.2
;TYPE:SKIRT
G1 F2100 E0.4
G1 F1800 X26.47 Y125.59 E0.04796
G1 X30.722 Y125.59 E0.16767
G1 X31.393 Y125.599 E0.02646
G1 X32.052 Y125.695 E0.02626
G1 X33.239 Y126.073 E0.04912
G1 X34.184 Y126.388 E0.03928
G1 X36.867 Y127.201 E0.11055
G1 X39.531 Y127.925 E0.10886
G1 X42.225 Y128.576 E0.10929
G1 X44.908 Y129.144 E0.10814
G1 X47.615 Y129.64 E0.10852
G1 X50.39 Y130.066 E0.11071
G1 X53.102 Y130.404 E0.10777
G1 X55.583 Y130.63 E0.09824
G1 X57.155 Y130.79 E0.06231
G1 X57.872 Y130.885 E0.02852
G1 X58.587 Y131.001 E0.02856
G1 X61.346 Y131.407 E0.10997
G1 X64.107 Y131.734 E0.10964
G1 X66.834 Y131.979 E0.10797
G1 X69.606 Y132.15 E0.10952
G1 X72.378 Y132.241 E0.10937
G1 X74.077 Y132.259 E0.067
G1 X77.68 Y132.261 E0.14208
G1 X80.488 Y132.226 E0.11074
G1 X83.223 Y132.115 E0.10794
G1 X85.992 Y131.924 E0.10945
G1 X88.759 Y131.653 E0.10963
G1 X91.523 Y131.305 E0.10985
G1 X91.979 Y131.238 E0.01817
G1 X93.066 Y131.104 E0.04319
G1 X93.913 Y131.125 E0.03341
G1 X97.281 Y131.698 E0.13472
G1 X100.024 Y132.091 E0.10927
G1 X102.779 Y132.406 E0.10935
G1 X105.542 Y132.644 E0.10936
G1 X108.279 Y132.802 E0.10811
G1 X111.053 Y132.883 E0.10943
G1 X113.827 Y132.885 E0.10939
G1 X116.566 Y132.81 E0.10805
G1 X119.371 Y132.654 E0.11078
G1 X122.085 Y132.426 E0.1074
G1 X123.549 Y132.271 E0.05805
G1 X124.079 Y132.25 E0.02092
G1 X125.472 Y132.244 E0.05493
G1 X125.626 Y132.258 E0.0061
G1 X132.192 Y132.26 E0.25892
G1 X133.223 Y132.318 E0.04072
G1 X134.331 Y132.398 E0.04381
G1 X137.103 Y132.519 E0.10941
G1 X139.879 Y132.563 E0.10948
G1 X142.653 Y132.527 E0.1094
G1 X145.411 Y132.414 E0.10885
G1 X147.81 Y132.26 E0.09479
G1 X150.088 Y132.255 E0.08983
G1 X150.674 Y132.262 E0.02311
G1 X154.497 Y132.258 E0.15075
G1 X155.582 Y132.25 E0.04279
G1 X156.336 Y132.261 E0.02974
G1 X157.842 Y132.409 E0.05967
G1 X160.607 Y132.644 E0.10943
G1 X163.413 Y132.801 E0.11082
G1 X166.149 Y132.877 E0.10793
G1 X168.926 Y132.876 E0.10951
G1 X171.698 Y132.798 E0.10935
G1 X174.433 Y132.642 E0.10803
G1 X177.199 Y132.405 E0.10947
G1 X179.954 Y132.091 E0.10934
G1 X182.684 Y131.701 E0.10875
G1 X185.882 Y131.156 E0.12793
G1 X186.764 Y131.097 E0.03486
G1 X187.45 Y131.162 E0.02717
G1 X190.043 Y131.513 E0.10318
G1 X192.8 Y131.815 E0.10937
G1 X195.561 Y132.038 E0.10923
G1 X198.334 Y132.183 E0.1095
G1 X201.071 Y132.249 E0.10796
G1 X201.485 Y132.247 E0.01633
G1 X202.78 Y132.262 E0.05107
G1 X207.374 Y132.247 E0.18116
G1 X210.152 Y132.162 E0.1096
G1 X212.884 Y132.001 E0.10792
G1 X215.68 Y131.757 E0.11067
G1 X218.386 Y131.443 E0.10742
G1 X221.524 Y130.983 E0.12506
G1 X222.125 Y130.886 E0.02401
G1 X222.847 Y130.79 E0.02872
G1 X223.644 Y130.708 E0.03159
G1 X226.117 Y130.49 E0.0979
G1 X228.877 Y130.168 E0.10957
G1 X231.618 Y129.769 E0.10923
G1 X234.32 Y129.298 E0.10816
G1 X237.047 Y128.743 E0.10974
G1 X239.74 Y128.116 E0.10903
G1 X242.404 Y127.414 E0.10864
G1 X245.091 Y126.624 E0.11044
G1 X246.438 Y126.197 E0.05572
G1 X247.913 Y125.717 E0.06117
G1 X248.384 Y125.612 E0.01903
G1 X249.525 Y125.59 E0.045
G1 X253.832 Y125.59 E0.16984
G1 X254.495 Y125.599 E0.02615
G1 X255.07 Y125.684 E0.02292
G1 X255.771 Y125.926 E0.02924
G1 X256.349 Y126.281 E0.02675
G1 X256.679 Y126.539 E0.01652
G1 X257.006 Y126.93 E0.0201
G1 X257.675 Y127.95 E0.0481
G1 X258.391 Y129.091 E0.05312
G1 X259.921 Y131.38 E0.10857
G1 X261.512 Y133.622 E0.10841
G1 X263.192 Y135.854 E0.11016
G1 X264.915 Y138.012 E0.10889
G1 X266.194 Y139.529 E0.07824
G1 X266.677 Y140.151 E0.03105
G1 X266.991 Y140.804 E0.02857
G1 X267.192 Y141.575 E0.03142
G1 X267.214 Y142.697 E0.04425
G1 X267.214 Y157.025 E0.565
G1 X267.205 Y157.698 E0.02654
G1 X267.12 Y158.273 E0.02292
G1 X266.883 Y158.958 E0.02858
G1 X266.456 Y159.652 E0.03213
G1 X265.983 Y160.228 E0.02939
G1 X264.858 Y161.56 E0.06875
G1 X263.104 Y163.759 E0.11092
G1 X261.468 Y165.935 E0.10735
G1 X259.873 Y168.187 E0.10882
G1 X258.018 Y170.985 E0.13238
G1 X257.017 Y172.551 E0.07329
G1 X256.758 Y172.881 E0.01654
G1 X256.048 Y173.421 E0.03518
G1 X255.507 Y173.684 E0.02372
G1 X254.744 Y173.886 E0.03112
G1 X253.53 Y173.91 E0.04788
G1 X249.278 Y173.91 E0.16767
G1 X248.607 Y173.901 E0.02646
G1 X247.948 Y173.805 E0.02626
G1 X246.761 Y173.427 E0.04912
G1 X245.816 Y173.112 E0.03928
G1 X243.133 Y172.299 E0.11055
G1 X240.469 Y171.575 E0.10886
G1 X237.775 Y170.924 E0.10929
G1 X235.092 Y170.356 E0.10814
G1 X232.385 Y169.86 E0.10852
G1 X229.61 Y169.434 E0.11071
G1 X226.898 Y169.096 E0.10777
G1 X224.417 Y168.87 E0.09824
G1 X222.845 Y168.71 E0.06231
G1 X222.128 Y168.615 E0.02852
G1 X221.413 Y168.499 E0.02856
G1 X218.654 Y168.093 E0.10997
G1 X215.893 Y167.766 E0.10964
G1 X213.166 Y167.521 E0.10797
G1 X210.394 Y167.35 E0.10952
G1 X207.622 Y167.259 E0.10937
G1 X205.923 Y167.241 E0.067
G1 X202.32 Y167.239 E0.14208
G1 X199.512 Y167.274 E0.11074
G1 X196.777 Y167.385 E0.10794
G1 X194.008 Y167.576 E0.10945
G1 X191.241 Y167.847 E0.10963
G1 X188.477 Y168.195 E0.10985
G1 X188.021 Y168.262 E0.01817
G1 X186.934 Y168.396 E0.04319
G1 X186.087 Y168.375 E0.03341
G1 X182.719 Y167.802 E0.13472
G1 X179.976 Y167.409 E0.10927
G1 X177.221 Y167.094 E0.10935
G1 X174.458 Y166.856 E0.10936
G1 X171.721 Y166.698 E0.10811
G1 X168.947 Y166.617 E0.10943
G1 X166.173 Y166.615 E0.10939
G1 X163.434 Y166.69 E0.10805
G1 X160.629 Y166.846 E0.11078
G1 X157.913 Y167.074 E0.10748
G1 X156.451 Y167.229 E0.05797
G1 X155.921 Y167.25 E0.02092
G1 X154.528 Y167.256 E0.05493
G1 X154.374 Y167.242 E0.0061
G1 X147.808 Y167.24 E0.25892
G1 X146.777 Y167.182 E0.04072
G1 X145.669 Y167.102 E0.04381
G1 X142.897 Y166.981 E0.10941
G1 X140.121 Y166.937 E0.10948
G1 X137.347 Y166.973 E0.1094
G1 X134.589 Y167.086 E0.10885
G1 X132.192 Y167.24 E0.09472
G1 X129.912 Y167.245 E0.08991
G1 X129.326 Y167.238 E0.02311
G1 X125.503 Y167.242 E0.15075
G1 X124.418 Y167.25 E0.04279
G1 X123.664 Y167.239 E0.02974
G1 X122.158 Y167.091 E0.05967
G1 X119.393 Y166.856 E0.10943
G1 X116.587 Y166.699 E0.11082
G1 X113.851 Y166.623 E0.10793
G1 X111.074 Y166.624 E0.10951
G1 X108.302 Y166.702 E0.10935
G1 X105.567 Y166.858 E0.10803
G1 X102.801 Y167.095 E0.10947
G1 X100.046 Y167.409 E0.10934
G1 X97.316 Y167.799 E0.10875
G1 X94.118 Y168.344 E0.12793
G1 X93.236 Y168.403 E0.03486
G1 X92.55 Y168.338 E0.02717
G1 X89.957 Y167.987 E0.10318
G1 X87.2 Y167.685 E0.10937
G1 X84.439 Y167.462 E0.10923
G1 X81.666 Y167.317 E0.1095
G1 X78.929 Y167.251 E0.10796
G1 X78.515 Y167.253 E0.01633
G1 X77.22 Y167.238 E0.05107
G1 X72.626 Y167.253 E0.18116
G1 X69.848 Y167.338 E0.1096
G1 X67.116 Y167.499 E0.10792
G1 X64.32 Y167.743 E0.11067
G1 X61.614 Y168.057 E0.10742
G1 X58.476 Y168.517 E0.12506
G1 X57.875 Y168.614 E0.02401
G1 X57.153 Y168.71 E0.02872
G1 X56.356 Y168.792 E0.03159
G1 X53.883 Y169.01 E0.0979
G1 X51.123 Y169.332 E0.10957
G1 X48.382 Y169.731 E0.10923
G1 X45.68 Y170.202 E0.10816
G1 X42.953 Y170.757 E0.10974
G1 X40.26 Y171.384 E0.10903
G1 X37.596 Y172.086 E0.10864
G1 X34.909 Y172.876 E0.11044
G1 X33.562 Y173.303 E0.05572
G1 X32.087 Y173.783 E0.06117
G1 X31.616 Y173.888 E0.01903
G1 X30.475 Y173.91 E0.045
G1 X26.168 Y173.91 E0.16984
G1 X25.505 Y173.901 E0.02615
G1 X24.93 Y173.816 E0.02292
G1 X24.229 Y173.574 E0.02924
G1 X23.637 Y173.209 E0.02742
G1 X23.307 Y172.952 E0.01649
G1 X22.972 Y172.549 E0.02067
G1 X22.299 Y171.507 E0.04891
G1 X21.62 Y170.425 E0.05037
G1 X20.096 Y168.143 E0.10821
G1 X18.458 Y165.836 E0.11157
G1 X16.832 Y163.676 E0.10661
G1 X15.101 Y161.508 E0.1094
G1 X13.643 Y159.772 E0.0894
G1 X13.275 Y159.245 E0.02535
G1 X13.009 Y158.696 E0.02406
G1 X12.808 Y157.925 E0.03142
G1 X12.786 Y156.755 E0.04615
G1 X12.786 Y142.475 E0.56311
G1 X12.795 Y141.802 E0.02654
G1 X12.88 Y141.227 E0.02292
G1 X13.117 Y140.542 E0.02858
G1 X13.548 Y139.844 E0.03235
G1 X14.017 Y139.272 E0.02917
G1 X15.142 Y137.94 E0.06875
G1 X16.896 Y135.741 E0.11092
G1 X18.532 Y133.565 E0.10735
G1 X20.133 Y131.304 E0.10925
G1 X21.982 Y128.515 E0.13195
G1 X22.983 Y126.949 E0.07329
G1 X23.242 Y126.619 E0.01654
G1 X23.615 Y126.304 E0.01925
G1 X23.955 Y126.077 E0.01612
G1 X24.492 Y125.816 E0.02354
G1 X24.868 Y125.716 E0.01534
G0 F1620 X25.254 Y125.614
G1 F2100 E-0.4
;MESH:Cam_Holder_450mAh_Dipole_Rev-01_42pcs.3mf(10)
G0 F6000 X25.249 Y128.764
;TYPE:WALL-OUTER
G1 F2100 E0.4
G1 F1822.8 X25.521 Y128.51 E0.01739
G1 F1811.3 X31.315 Y128.51 E0.27246
G1 F1818.9 X31.373 Y128.523 E0.00278
G1 F1830.5 X31.484 Y128.591 E0.00606
G1 F1815.1 X31.654 Y128.801 E0.01268
G1 F1800 X31.683 Y128.996 E0.00933
G1 F1803.8 X31.683 Y144.662 E0.73977
G1 F1811.3 X31.486 Y144.906 E0.01475
G1 F1803.8 X31.315 Y144.99 E0.009
G1 F1807.5 X25.525 Y144.99 E0.27284
G1 F1796.3 X25.347 Y144.849 E0.01077
G1 X25.206 Y144.671 E0.01077
G1 F1807.5 X25.206 Y128.883 E0.74397
G1 F1815.1 X25.249 Y128.764 E0.00594
G0 F6000 X25.431 Y128.594
G1 F2100 E-0.4
G0 F6000 X40.91 Y134.654
G0 X41.496 Y136.597
G1 F2100 E0.4
G0 F6000 X40.642 Y136.597
G1 F1800 X40.375 Y136.75 E0.01456
G1 X37.727 Y135.79 E0.13328
G1 X35.033 Y135.789 E0.12748
G1 X34.923 Y135.744 E0.00562
G1 F1796.3 X34.846 Y135.653 E0.00565
G1 X34.436 Y134.77 E0.04616
G1 F1800 X34.002 Y134.972 E0.02265
G1 F1788.8 X34.247 Y135.506 E0.02798
G1 F1785.1 X34.226 Y135.653 E0.00709
G1 F1796.3 X34.058 Y135.785 E0.01013
G1 F1800 X32.406 Y135.79 E0.07817
G1 F1781.4 X32.169 Y135.613 E0.01414
G1 F1777.8 X32.165 Y128.972 E0.31818
G1 F1800 X32.091 Y128.597 E0.01809
G1 F1788.8 X31.89 Y128.306 E0.01684
G1 F1800 X31.591 Y128.097 E0.01726
G1 F1815.1 X31.36 Y128.03 E0.01129
G1 F1803.8 X25.53 Y128.03 E0.2753
G1 F1811.3 X25.301 Y128.097 E0.01122
G1 F1803.8 X25 Y128.305 E0.01728
G1 X24.793 Y128.605 E0.01721
G1 F1811.3 X24.726 Y128.836 E0.01131
G1 F1800 X24.726 Y144.664 E0.74898
G1 F1811.3 X24.793 Y144.895 E0.01131
G1 F1803.8 X25 Y145.195 E0.01721
G1 X25.301 Y145.403 E0.01728
G1 F1811.3 X25.53 Y145.47 E0.01122
G1 F1800 X31.36 Y145.47 E0.27587
G1 F1815.1 X31.591 Y145.403 E0.01129
G1 F1800 X31.89 Y145.194 E0.01726
G1 F1792.5 X32.092 Y144.901 E0.01691
G1 F1803.8 X32.165 Y144.524 E0.01813
G1 F1792.5 X32.165 Y137.95 E0.31238
G1 F1796.3 X32.406 Y137.71 E0.01613
G1 F1800 X34.058 Y137.715 E0.07817
G1 X34.225 Y137.848 E0.0101
G1 X34.224 Y138.051 E0.00961
G1 X34.002 Y138.528 E0.0249
G1 X34.436 Y138.73 E0.02265
G1 X34.847 Y137.848 E0.04605
G1 X34.923 Y137.756 E0.00565
G1 X35.033 Y137.711 E0.00562
G1 X37.727 Y137.71 E0.12748
G1 X40.375 Y136.75 E0.13328
G1 X40.642 Y136.903 E0.01456
G1 X40.646 Y139.11 E0.10444
G1 X41.606 Y139.11 E0.04543
G1 X41.606 Y137.95 E0.05489
G1 X41.764 Y137.711 E0.01356
G1 X43.508 Y137.713 E0.08253
G1 X44.733 Y138.329 E0.06488
G1 X45.947 Y138.855 E0.06261
G1 X47.179 Y139.306 E0.06208
G1 X48.422 Y139.678 E0.0614
G1 X49.699 Y139.982 E0.06212
G1 X50.961 Y140.206 E0.06065
G1 X52.291 Y140.364 E0.06338
G1 X53.627 Y140.44 E0.06332
G1 X54.949 Y140.438 E0.06256
G1 X56.204 Y140.365 E0.05949
G1 X57.544 Y140.206 E0.06385
G1 X58.81 Y139.982 E0.06084
G1 X60.087 Y139.677 E0.06213
G1 X61.343 Y139.302 E0.06203
G1 X62.584 Y138.846 E0.06256
G1 X63.777 Y138.329 E0.06153
G1 X65.002 Y137.711 E0.06493
G1 X71.611 Y137.715 E0.31274
G1 X71.777 Y137.848 E0.01007
G1 X71.777 Y138.051 E0.00961
G1 X71.556 Y138.528 E0.02488
G1 X71.99 Y138.73 E0.02265
G1 X72.401 Y137.848 E0.04605
G1 X72.477 Y137.756 E0.00565
G1 X72.587 Y137.711 E0.00562
G1 X74.27 Y137.715 E0.07964
G1 X74.436 Y137.848 E0.01007
G1 X74.436 Y138.051 E0.00961
G1 X74.215 Y138.528 E0.02488
G1 X74.649 Y138.73 E0.02265
G1 X75.06 Y137.848 E0.04605
G1 X75.136 Y137.756 E0.00565
G1 X75.246 Y137.711 E0.00562
G1 X76.929 Y137.715 E0.07964
G1 X77.095 Y137.848 E0.01007
G1 X77.095 Y138.051 E0.00961
G1 X76.874 Y138.528 E0.02488
G1 X77.308 Y138.73 E0.02265
G1 X77.719 Y137.848 E0.04605
G1 X77.795 Y137.756 E0.00565
G1 X77.905 Y137.711 E0.00562
G1 X79.588 Y137.715 E0.07964
G1 X79.754 Y137.848 E0.01007
G1 X79.754 Y138.051 E0.00961
G1 X79.533 Y138.528 E0.02488
G1 X79.967 Y138.73 E0.02265
G1 X80.378 Y137.848 E0.04605
G1 X80.454 Y137.756 E0.00565
G1 X80.564 Y137.711 E0.00562
G1 X82.247 Y137.715 E0.07964
G1 X82.413 Y137.848 E0.01007
G1 X82.413 Y138.051 E0.00961
G1 X82.192 Y138.528 E0.02488
G1 X82.626 Y138.73 E0.02265
G1 X83.037 Y137.848 E0.04605
G1 X83.113 Y137.756 E0.00565
G1 X83.223 Y137.711 E0.00562
G1 X87.214 Y137.71 E0.18885
G1 X89.861 Y136.75 E0.13324
G1 F1752.5 X90.044 Y136.787 E0.00907
G1 F1707.5 X90.115 Y136.87 E0.00545
G1 F1749 X90.201 Y137.439 E0.02803
G1 F1796.3 X90.334 Y137.89 E0.0223
G1 F1803.8 X90.534 Y138.321 E0.02244
G1 F1796.3 X90.793 Y138.711 E0.0222
G1 F1785.1 X91.108 Y139.063 E0.02254
G1 X91.47 Y139.365 E0.02249
G1 F1792.5 X91.87 Y139.611 E0.02231
G1 F1796.3 X92.32 Y139.8 E0.02314
G1 F1803.8 X92.765 Y139.917 E0.02173
G1 F1800 X93.233 Y139.966 E0.02227
G1 F1788.8 X93.701 Y139.947 E0.0223
G1 F1785.1 X94.168 Y139.859 E0.02267
G1 F1788.8 X94.611 Y139.707 E0.0223
G1 F1796.3 X95.032 Y139.49 E0.02246
G1 F1800 X95.411 Y139.217 E0.0221
G1 F1796.3 X95.751 Y138.884 E0.02257
G1 F1792.5 X96.037 Y138.509 E0.02241
G1 X96.265 Y138.097 E0.02237
G1 F1788.8 X96.429 Y137.659 E0.02227
G1 F1615 X96.6 Y136.99 E0.03642
G1 F1621 X97.77 Y136.99 E0.06148
G1 F1800 X97.951 Y137.072 E0.0094
G1 X98.01 Y137.178 E0.00574
G1 X98.01 Y138.81 E0.07723
G1 X98.49 Y138.81 E0.02271
G1 X98.49 Y137.95 E0.0407
G1 X98.669 Y137.71 E0.01417
G1 X100.382 Y137.715 E0.08106
G1 X100.548 Y137.848 E0.01007
G1 X100.548 Y138.051 E0.00961
G1 X100.327 Y138.528 E0.02488
G1 X100.761 Y138.73 E0.02265
G1 X101.172 Y137.848 E0.04605
G1 X101.248 Y137.756 E0.00565
G1 X101.358 Y137.711 E0.00562
G1 X104.789 Y137.709 E0.16235
G1 F1803.8 X105.237 Y137.263 E0.02985
G1 X105.338 Y137.231 E0.005
G1 F1800 X123.29 Y137.23 E0.84949
G1 F1803.8 X123.42 Y137.26 E0.0063
G1 X123.98 Y137.82 E0.0374
G1 X124.01 Y137.95 E0.0063
G1 F1800 X124.01 Y138.81 E0.0407
G1 X124.49 Y138.81 E0.02271
G1 X124.49 Y137.95 E0.0407
G1 F1803.8 X124.56 Y137.78 E0.00868
G1 X124.698 Y137.711 E0.00729
G1 F1800 X126.382 Y137.715 E0.07969
G1 X126.548 Y137.848 E0.01007
G1 X126.548 Y138.051 E0.00961
G1 X126.327 Y138.528 E0.02488
G1 X126.761 Y138.73 E0.02265
G1 X127.172 Y137.848 E0.04605
G1 X127.248 Y137.756 E0.00565
G1 X127.358 Y137.711 E0.00562
G1 X129.042 Y137.715 E0.07969
G1 X129.209 Y137.848 E0.0101
G1 X129.208 Y138.051 E0.00961
G1 X128.986 Y138.528 E0.0249
G1 X129.42 Y138.73 E0.02265
G1 X129.831 Y137.848 E0.04605
G1 X129.907 Y137.756 E0.00565
G1 X130.017 Y137.711 E0.00562
G1 X131.701 Y137.715 E0.07969
G1 X131.868 Y137.848 E0.0101
G1 X131.867 Y138.051 E0.00961
G1 X131.645 Y138.528 E0.0249
G1 X132.079 Y138.73 E0.02265
G1 X132.49 Y137.848 E0.04605
G1 X132.566 Y137.756 E0.00565
G1 X132.676 Y137.711 E0.00562
G1 X135.176 Y137.71 E0.1183
G1 X135.335 Y137.652 E0.00801
G1 X137.814 Y136.75 E0.12483
G1 X135.176 Y135.79 E0.13284
G1 X132.676 Y135.789 E0.1183
G1 X132.566 Y135.744 E0.00562
G1 F1796.3 X132.489 Y135.653 E0.00565
G1 X132.079 Y134.77 E0.04616
G1 F1800 X131.645 Y134.972 E0.02265
G1 F1788.8 X131.89 Y135.506 E0.02798
G1 F1785.1 X131.869 Y135.653 E0.00709
G1 F1796.3 X131.701 Y135.785 E0.01013
G1 F1800 X130.017 Y135.789 E0.07969
G1 X129.907 Y135.744 E0.00562
G1 F1796.3 X129.83 Y135.653 E0.00565
G1 X129.42 Y134.77 E0.04616
G1 F1800 X128.986 Y134.972 E0.02265
G1 F1788.8 X129.231 Y135.506 E0.02798
G1 F1785.1 X129.21 Y135.653 E0.00709
G1 F1796.3 X129.042 Y135.785 E0.01013
G1 F1800 X127.358 Y135.789 E0.07969
G1 X127.248 Y135.744 E0.00562
G1 F1796.3 X127.171 Y135.652 E0.00569
G1 X126.761 Y134.77 E0.04612
G1 F1800 X126.327 Y134.972 E0.02265
G1 F1788.8 X126.571 Y135.506 E0.02796
G1 F1785.1 X126.549 Y135.652 E0.00704
G1 F1796.3 X126.382 Y135.785 E0.01012
G1 F1800 X124.698 Y135.789 E0.07969
G1 X124.56 Y135.72 E0.0073
G1 F1792.5 X124.49 Y135.582 E0.00735
G1 X124.49 Y134.69 E0.04239
G1 F1800 X124.01 Y134.69 E0.02271
G1 F1792.5 X124.01 Y135.582 E0.04239
G1 X123.979 Y135.681 E0.00493
G1 F1800 X123.42 Y136.24 E0.03741
G1 X123.29 Y136.27 E0.00631
