;FLAVOR:RepRap
;TIME:2551
;Filament used: 4.47412m
;Layer height: 0.3
;MINX:9.172
;MINY:12.84
;MINZ:0.2
;MAXX:270.828
;MAXY:287.16
;MAXZ:0.8
;Exported with Cura-DuetRRF v1.2.9 plugin by Thomas Kriechbaumer
;Generated with Cura_SteamEngine 5.2.2
T0
M104 S215
M109 S215
M82 ;absolute extrusion mode

M83 ;relative extrusion mode
G1 F2100 E-0.4
;LAYER_COUNT:3
;LAYER:0
M107
G0 F6000 X19.867 Y14.201 Z0.2
;TYPE:SKIRT
G1 F2100 E0.4
G1 F1800 X20.125 Y13.871 E0.01652
G1 X20.839 Y13.328 E0.03537
G1 X21.379 Y13.066 E0.02367
G1 X22.142 Y12.864 E0.03112
G1 X23.356 Y12.84 E0.04788
G1 X27.608 Y12.84 E0.16767
G1 X28.279 Y12.849 E0.02646
G1 X28.941 Y12.946 E0.02638
G1 X30.291 Y13.376 E0.05587
G1 X31.104 Y13.646 E0.03378
G1 X33.759 Y14.445 E0.10933
G1 X36.453 Y15.174 E0.11005
G1 X39.139 Y15.819 E0.10893
G1 X41.821 Y16.383 E0.10807
G1 X44.564 Y16.88 E0.10993
G1 X47.305 Y17.297 E0.10933
G1 X50.016 Y17.631 E0.10771
G1 X53.695 Y17.964 E0.14567
G1 X54.441 Y18.04 E0.02957
G1 X55.104 Y18.128 E0.02637
G1 X57.976 Y18.553 E0.11449
G1 X60.766 Y18.884 E0.11079
G1 X63.495 Y19.13 E0.10805
G1 X66.262 Y19.301 E0.10932
G1 X69.037 Y19.393 E0.10949
G1 X70.738 Y19.411 E0.06708
G1 X77.492 Y19.413 E0.26633
G1 X80.541 Y19.371 E0.12024
G1 X83.278 Y19.257 E0.10802
G1 X86.076 Y19.061 E0.1106
G1 X88.81 Y18.79 E0.10834
G1 X90.094 Y18.626 E0.05104
G1 X90.18 Y18.623 E0.00339
G1 X92.35 Y18.354 E0.08623
G1 X93.201 Y18.375 E0.03357
G1 X94.242 Y18.552 E0.04164
G1 X96.997 Y18.981 E0.10995
G1 X99.461 Y19.297 E0.09796
G1 X100.433 Y19.409 E0.03858
G1 X103.232 Y19.693 E0.11094
G1 X105.961 Y19.891 E0.1079
G1 X108.732 Y20.013 E0.10938
G1 X111.509 Y20.059 E0.10952
G1 X114.283 Y20.024 E0.1094
G1 X117.018 Y19.914 E0.10794
G1 X119.808 Y19.721 E0.11028
G1 X122.85 Y19.42 E0.12054
G1 X123.367 Y19.401 E0.0204
G1 X127.578 Y19.413 E0.16605
G1 X132.029 Y19.41 E0.17552
G1 X132.872 Y19.456 E0.03329
G1 X134.284 Y19.559 E0.05583
G1 X137.052 Y19.681 E0.10926
G1 X139.828 Y19.726 E0.10948
G1 X142.603 Y19.691 E0.10944
G1 X145.354 Y19.579 E0.10857
G1 X147.972 Y19.41 E0.10345
G1 X150.596 Y19.406 E0.10347
G1 X151.184 Y19.413 E0.02319
G1 X155.187 Y19.398 E0.15785
G1 X155.288 Y19.407 E0.004
G1 X156.289 Y19.4 E0.03947
G1 X157.059 Y19.411 E0.03037
G1 X158.28 Y19.534 E0.04839
G1 X161.026 Y19.778 E0.10871
G1 X163.799 Y19.946 E0.10955
G1 X166.572 Y20.035 E0.1094
G1 X169.346 Y20.046 E0.10939
G1 X172.082 Y19.979 E0.10792
G1 X174.861 Y19.832 E0.10974
G1 X178.417 Y19.529 E0.14073
G1 X179.247 Y19.443 E0.0329
G1 X182.025 Y19.117 E0.1103
G1 X185.804 Y18.543 E0.15073
G1 X186.595 Y18.407 E0.03165
G1 X187.576 Y18.341 E0.03877
G1 X189.133 Y18.532 E0.06186
G1 X190.15 Y18.673 E0.04049
G1 X192.913 Y18.976 E0.10961
G1 X195.678 Y19.201 E0.10939
G1 X198.45 Y19.347 E0.10946
G1 X201.208 Y19.414 E0.10879
G1 X203.518 Y19.407 E0.09109
G1 X204.082 Y19.413 E0.02224
G1 X206.368 Y19.406 E0.09014
G1 X206.958 Y19.413 E0.02327
G1 X209.689 Y19.405 E0.10769
G1 X210.681 Y19.388 E0.03912
G1 X210.762 Y19.378 E0.00322
G1 X211.927 Y19.361 E0.04594
G1 X214.697 Y19.244 E0.10933
G1 X217.434 Y19.05 E0.1082
G1 X220.192 Y18.776 E0.10929
G1 X222.93 Y18.426 E0.10885
G1 X224.815 Y18.139 E0.07519
G1 X225.562 Y18.04 E0.02971
G1 X226.234 Y17.97 E0.02664
G1 X229.364 Y17.7 E0.12388
G1 X232.1 Y17.38 E0.10862
G1 X234.841 Y16.983 E0.10921
G1 X237.543 Y16.512 E0.10816
G1 X240.27 Y15.957 E0.10974
G1 X242.963 Y15.33 E0.10903
G1 X245.627 Y14.628 E0.10864
G1 X248.314 Y13.838 E0.11044
G1 X249.671 Y13.408 E0.05613
G1 X251.026 Y12.967 E0.05619
G1 X251.497 Y12.862 E0.01903
G1 X252.639 Y12.84 E0.04504
G1 X256.946 Y12.84 E0.16984
G1 X257.609 Y12.849 E0.02615
G1 X258.184 Y12.934 E0.02292
G1 X258.885 Y13.176 E0.02924
G1 X259.463 Y13.531 E0.02675
G1 X259.793 Y13.789 E0.01652
G1 X260.109 Y14.163 E0.01931
G1 X260.408 Y14.613 E0.0213
G1 X260.853 Y15.345 E0.03378
G1 X262.332 Y17.705 E0.10983
G1 X263.873 Y20.015 E0.1095
G1 X265.477 Y22.276 E0.10932
G1 X267.117 Y24.458 E0.10764
G1 X268.866 Y26.652 E0.11064
G1 X269.572 Y27.49 E0.04321
G1 X270.025 Y28.049 E0.02837
G1 X270.346 Y28.516 E0.02235
G1 X270.605 Y29.054 E0.02355
G1 X270.806 Y29.825 E0.03142
G1 X270.828 Y30.947 E0.04425
G1 X270.828 Y45.277 E0.56508
G1 X270.818 Y45.982 E0.0278
G1 X270.771 Y47.104 E0.04428
G1 X270.724 Y47.944 E0.03318
G1 X270.648 Y50.674 E0.10769
G1 X270.65 Y53.432 E0.10876
G1 X270.779 Y57.254 E0.1508
G1 X270.804 Y57.73 E0.0188
G1 X270.828 Y58.959 E0.04847
G1 X270.828 Y73.277 E0.5646
G1 X270.818 Y73.982 E0.0278
G1 X270.771 Y75.104 E0.04428
G1 X270.724 Y75.944 E0.03318
G1 X270.648 Y78.674 E0.10769
G1 X270.65 Y81.432 E0.10876
G1 X270.779 Y85.254 E0.1508
G1 X270.804 Y85.73 E0.0188
G1 X270.828 Y86.959 E0.04847
G1 X270.828 Y101.277 E0.5646
G1 X270.818 Y101.982 E0.0278
G1 X270.771 Y103.104 E0.04428
G1 X270.724 Y103.944 E0.03318
G1 X270.648 Y106.674 E0.10769
G1 X270.65 Y109.432 E0.10876
G1 X270.779 Y113.254 E0.1508
G1 X270.804 Y113.73 E0.0188
G1 X270.828 Y114.959 E0.04847
G1 X270.828 Y129.277 E0.5646
G1 X270.818 Y129.982 E0.0278
G1 X270.771 Y131.104 E0.04428
G1 X270.724 Y131.944 E0.03318
G1 X270.648 Y134.674 E0.10769
G1 X270.65 Y137.432 E0.10876
G1 X270.779 Y141.254 E0.1508
G1 X270.804 Y141.73 E0.0188
G1 X270.828 Y142.959 E0.04847
G1 X270.828 Y157.277 E0.5646
G1 X270.818 Y157.982 E0.0278
G1 X270.771 Y159.104 E0.04428
G1 X270.724 Y159.944 E0.03318
G1 X270.648 Y162.674 E0.10769
G1 X270.65 Y165.432 E0.10876
G1 X270.779 Y169.254 E0.1508
G1 X270.804 Y169.73 E0.0188
G1 X270.828 Y170.959 E0.04847
G1 X270.828 Y185.277 E0.5646
G1 X270.818 Y185.982 E0.0278
G1 X270.771 Y187.104 E0.04428
G1 X270.724 Y187.944 E0.03318
G1 X270.648 Y190.674 E0.10769
G1 X270.65 Y193.432 E0.10876
G1 X270.779 Y197.254 E0.1508
G1 X270.804 Y197.73 E0.0188
G1 X270.828 Y198.959 E0.04847
G1 X270.828 Y213.277 E0.5646
G1 X270.818 Y213.982 E0.0278
G1 X270.771 Y215.104 E0.04428
G1 X270.724 Y215.944 E0.03318
G1 X270.648 Y218.674 E0.10769
G1 X270.65 Y221.432 E0.10876
G1 X270.779 Y225.254 E0.1508
G1 X270.804 Y225.73 E0.0188
G1 X270.828 Y226.959 E0.04847
G1 X270.828 Y241.277 E0.5646
G1 X270.818 Y241.982 E0.0278
G1 X270.771 Y243.104 E0.04428
G1 X270.724 Y243.944 E0.03318
G1 X270.648 Y246.674 E0.10769
G1 X270.65 Y249.432 E0.10876
G1 X270.779 Y253.254 E0.1508
G1 X270.804 Y253.73 E0.0188
G1 X270.828 Y254.959 E0.04847
G1 X270.828 Y269.276 E0.56457
G1 X270.819 Y269.946 E0.02642
G1 X270.736 Y270.515 E0.02267
G1 X270.5 Y271.202 E0.02864
G1 X270.068 Y271.906 E0.03257
G1 X269.243 Y272.909 E0.05121
G1 X268.796 Y273.438 E0.02731
G1 X267.098 Y275.569 E0.10745
G1 X265.414 Y277.81 E0.11054
G1 X263.827 Y280.052 E0.10832
G1 X262.286 Y282.363 E0.10953
G1 X261 Y284.442 E0.0964
G1 X260.135 Y285.799 E0.06346
G1 X259.877 Y286.129 E0.01652
G1 X259.5 Y286.447 E0.01945
G1 X259.161 Y286.673 E0.01607
G1 X258.624 Y286.933 E0.02353
G1 X257.858 Y287.136 E0.03125
G1 X256.644 Y287.16 E0.04788
G1 X252.392 Y287.16 E0.16767
G1 X251.721 Y287.151 E0.02646
G1 X251.059 Y287.054 E0.02638
G1 X249.709 Y286.624 E0.05587
G1 X248.896 Y286.354 E0.03378
G1 X246.241 Y285.555 E0.10933
G1 X243.547 Y284.826 E0.11005
G1 X240.861 Y284.181 E0.10893
G1 X238.179 Y283.617 E0.10807
G1 X235.436 Y283.12 E0.10993
G1 X232.695 Y282.703 E0.10933
G1 X229.984 Y282.369 E0.10771
G1 X226.305 Y282.036 E0.14567
G1 X225.559 Y281.96 E0.02957
G1 X224.896 Y281.872 E0.02637
G1 X222.024 Y281.447 E0.11449
G1 X219.234 Y281.116 E0.11079
G1 X216.505 Y280.87 E0.10805
G1 X213.738 Y280.699 E0.10932
G1 X210.963 Y280.607 E0.10949
G1 X209.262 Y280.589 E0.06708
G1 X202.508 Y280.587 E0.26633
G1 X199.459 Y280.629 E0.12024
G1 X196.722 Y280.743 E0.10802
G1 X193.924 Y280.939 E0.1106
G1 X191.19 Y281.21 E0.10834
G1 X189.906 Y281.374 E0.05104
G1 X189.82 Y281.377 E0.00339
G1 X187.65 Y281.646 E0.08623
G1 X186.799 Y281.625 E0.03357
G1 X185.758 Y281.448 E0.04164
G1 X183.003 Y281.019 E0.10995
G1 X180.539 Y280.703 E0.09796
G1 X179.567 Y280.591 E0.03858
G1 X176.768 Y280.307 E0.11094
G1 X174.039 Y280.109 E0.1079
G1 X171.268 Y279.987 E0.10938
G1 X168.491 Y279.941 E0.10952
G1 X165.717 Y279.976 E0.1094
G1 X162.982 Y280.086 E0.10794
G1 X160.188 Y280.279 E0.11044
G1 X157.146 Y280.58 E0.12054
G1 X156.638 Y280.599 E0.02005
G1 X155.106 Y280.598 E0.06041
G1 X155.043 Y280.592 E0.0025
G1 X147.969 Y280.59 E0.27895
G1 X147.128 Y280.544 E0.03321
G1 X145.716 Y280.441 E0.05583
G1 X142.948 Y280.319 E0.10926
G1 X140.172 Y280.274 E0.10948
G1 X137.397 Y280.309 E0.10944
G1 X134.643 Y280.421 E0.10869
G1 X132.023 Y280.59 E0.10353
G1 X129.404 Y280.594 E0.10328
G1 X128.816 Y280.587 E0.02319
G1 X124.813 Y280.602 E0.15785
G1 X124.712 Y280.593 E0.004
G1 X123.711 Y280.6 E0.03947
G1 X122.941 Y280.589 E0.03037
G1 X121.72 Y280.466 E0.04839
G1 X118.974 Y280.222 E0.10871
G1 X116.201 Y280.054 E0.10955
G1 X113.428 Y279.965 E0.1094
G1 X110.654 Y279.954 E0.10939
G1 X107.918 Y280.021 E0.10792
G1 X105.139 Y280.168 E0.10974
G1 X101.583 Y280.471 E0.14073
G1 X100.753 Y280.557 E0.0329
G1 X97.975 Y280.883 E0.1103
G1 X94.202 Y281.456 E0.15049
G1 X93.405 Y281.593 E0.03189
G1 X92.424 Y281.659 E0.03877
G1 X90.867 Y281.468 E0.06186
G1 X89.85 Y281.327 E0.04049
G1 X87.087 Y281.024 E0.10961
G1 X84.322 Y280.799 E0.10939
G1 X81.55 Y280.653 E0.10946
G1 X78.792 Y280.586 E0.10879
G1 X76.482 Y280.593 E0.09109
G1 X75.918 Y280.587 E0.02224
G1 X73.632 Y280.594 E0.09014
G1 X73.042 Y280.587 E0.02327
G1 X70.311 Y280.595 E0.10769
G1 X69.319 Y280.612 E0.03912
G1 X69.238 Y280.622 E0.00322
G1 X68.073 Y280.639 E0.04594
G1 X65.303 Y280.756 E0.10933
G1 X62.566 Y280.95 E0.1082
G1 X59.808 Y281.224 E0.10929
G1 X57.07 Y281.574 E0.10885
G1 X55.185 Y281.861 E0.07519
G1 X54.438 Y281.96 E0.02971
G1 X53.766 Y282.03 E0.02664
G1 X50.636 Y282.3 E0.12388
G1 X47.9 Y282.62 E0.10862
G1 X45.159 Y283.017 E0.10921
G1 X42.457 Y283.488 E0.10816
G1 X39.73 Y284.043 E0.10974
G1 X37.037 Y284.67 E0.10903
G1 X34.373 Y285.372 E0.10864
G1 X31.686 Y286.162 E0.11044
G1 X30.329 Y286.592 E0.05613
G1 X28.974 Y287.033 E0.05619
G1 X28.503 Y287.138 E0.01903
G1 X27.361 Y287.16 E0.04504
G1 X23.054 Y287.16 E0.16984
G1 X22.391 Y287.151 E0.02615
G1 X21.816 Y287.066 E0.02292
G1 X21.115 Y286.824 E0.02924
G1 X20.537 Y286.469 E0.02675
G1 X20.207 Y286.211 E0.01652
G1 X19.891 Y285.837 E0.01931
G1 X19.585 Y285.376 E0.02182
G1 X19.147 Y284.654 E0.0333
G1 X17.656 Y282.275 E0.11071
G1 X16.114 Y279.965 E0.10952
G1 X14.523 Y277.724 E0.10838
G1 X12.883 Y275.542 E0.10764
G1 X11.133 Y273.347 E0.1107
G1 X10.432 Y272.515 E0.0429
G1 X10.01 Y271.998 E0.02632
G1 X9.661 Y271.495 E0.02414
G1 X9.395 Y270.946 E0.02406
G1 X9.194 Y270.175 E0.03142
G1 X9.172 Y269.005 E0.04615
G1 X9.172 Y254.723 E0.56319
G1 X9.182 Y254.017 E0.02784
G1 X9.229 Y252.896 E0.04424
G1 X9.276 Y252.056 E0.03318
G1 X9.352 Y249.326 E0.10769
G1 X9.35 Y246.568 E0.10876
G1 X9.22 Y242.731 E0.15139
G1 X9.196 Y242.27 E0.0182
G1 X9.172 Y241.029 E0.04895
G1 X9.172 Y226.723 E0.56413
G1 X9.182 Y226.017 E0.02784
G1 X9.229 Y224.896 E0.04424
G1 X9.276 Y224.056 E0.03318
G1 X9.352 Y221.326 E0.10769
G1 X9.35 Y218.568 E0.10876
G1 X9.22 Y214.731 E0.15139
G1 X9.196 Y214.27 E0.0182
G1 X9.172 Y213.029 E0.04895
G1 X9.172 Y198.723 E0.56413
G1 X9.182 Y198.017 E0.02784
G1 X9.229 Y196.896 E0.04424
G1 X9.276 Y196.056 E0.03318
G1 X9.352 Y193.326 E0.10769
G1 X9.35 Y190.568 E0.10876
G1 X9.22 Y186.731 E0.15139
G1 X9.196 Y186.27 E0.0182
G1 X9.172 Y185.029 E0.04895
G1 X9.172 Y170.723 E0.56413
G1 X9.182 Y170.017 E0.02784
G1 X9.229 Y168.896 E0.04424
G1 X9.276 Y168.056 E0.03318
G1 X9.352 Y165.326 E0.10769
G1 X9.35 Y162.568 E0.10876
G1 X9.22 Y158.731 E0.15139
G1 X9.196 Y158.27 E0.0182
G1 X9.172 Y157.029 E0.04895
G1 X9.172 Y142.723 E0.56413
G1 X9.182 Y142.017 E0.02784
G1 X9.229 Y140.896 E0.04424
G1 X9.276 Y140.056 E0.03318
G1 X9.352 Y137.326 E0.10769
G1 X9.35 Y134.568 E0.10876
G1 X9.22 Y130.731 E0.15139
G1 X9.196 Y130.27 E0.0182
G1 X9.172 Y129.029 E0.04895
G1 X9.172 Y114.723 E0.56413
G1 X9.182 Y114.017 E0.02784
G1 X9.229 Y112.896 E0.04424
G1 X9.276 Y112.056 E0.03318
G1 X9.352 Y109.326 E0.10769
G1 X9.35 Y106.568 E0.10876
G1 X9.22 Y102.731 E0.15139
G1 X9.196 Y102.27 E0.0182
G1 X9.172 Y101.029 E0.04895
G1 X9.172 Y86.723 E0.56413
G1 X9.182 Y86.017 E0.02784
G1 X9.229 Y84.896 E0.04424
G1 X9.276 Y84.056 E0.03318
G1 X9.352 Y81.326 E0.10769
G1 X9.35 Y78.568 E0.10876
G1 X9.22 Y74.731 E0.15139
G1 X9.196 Y74.27 E0.0182
G1 X9.172 Y73.029 E0.04895
G1 X9.172 Y58.723 E0.56413
G1 X9.182 Y58.017 E0.02784
G1 X9.229 Y56.896 E0.04424
G1 X9.276 Y56.056 E0.03318
G1 X9.352 Y53.326 E0.10769
G1 X9.35 Y50.568 E0.10876
G1 X9.22 Y46.731 E0.15139
G1 X9.196 Y46.27 E0.0182
G1 X9.172 Y45.029 E0.04895
G1 X9.172 Y30.725 E0.56405
G1 X9.181 Y30.053 E0.0265
G1 X9.265 Y29.48 E0.02284
G1 X9.502 Y28.794 E0.02862
G1 X9.932 Y28.096 E0.03233
G1 X10.774 Y27.071 E0.05231
G1 X11.206 Y26.559 E0.02642
G1 X12.903 Y24.43 E0.10736
G1 X14.586 Y22.19 E0.11048
G1 X16.187 Y19.928 E0.10928
G1 X17.72 Y17.629 E0.10896
G1 X19.001 Y15.557 E0.09606
G1 X19.652 Y14.538 E0.04768
G0 F1620 X19.867 Y14.201
G1 F2100 E-0.4
;MESH:Cam_Holder_450mAh_Dipole_Rev-02.3mf(35)
G0 F6000 X18.777 Y28.494
G0 X18.37 Y29.841
;TYPE:WALL-OUTER
G1 F2100 E0.4
G1 F1815.1 X18.54 Y30.051 E0.01268
G1 F1800 X18.569 Y30.246 E0.00933
G1 F1803.8 X18.569 Y45.912 E0.73977
G1 F1811.3 X18.372 Y46.156 E0.01475
G1 F1803.8 X18.201 Y46.24 E0.009
G1 F1800 X12.462 Y46.24 E0.27157
G1 F1803.8 X12.291 Y46.156 E0.009
G1 X12.094 Y45.911 E0.01485
G1 F1796.3 X12.094 Y30.141 E0.74779
G1 F1800 X12.136 Y30.028 E0.0057
G1 F1807.5 X12.293 Y29.842 E0.01147
G1 F1803.8 X12.462 Y29.76 E0.00887
G1 X18.201 Y29.76 E0.271
G1 F1815.1 X18.37 Y29.841 E0.00879
G0 F6000 X18.527 Y30.035
G1 F2100 E-0.4
G0 F6000 X19.956 Y30.135
G0 X20.853 Y32.531
G0 X21.692 Y33.405
G0 X26.827 Y35.904
G0 X28.582 Y37.847
G1 F2100 E0.4
G0 F6000 X27.728 Y37.847
G1 F1800 X27.461 Y38 E0.01456
G1 X24.813 Y37.04 E0.13328
G1 X22.119 Y37.039 E0.12748
G1 X22.009 Y36.994 E0.00562
G1 F1796.3 X21.932 Y36.903 E0.00565
G1 X21.476 Y35.92 E0.05138
G1 F1800 X21.041 Y36.122 E0.0227
G1 F1788.8 X21.333 Y36.756 E0.03324
G1 F1785.1 X21.312 Y36.903 E0.00709
G1 F1796.3 X21.144 Y37.035 E0.01013
G1 F1800 X19.292 Y37.04 E0.08764
G1 F1781.4 X19.055 Y36.863 E0.01414
G1 F1777.8 X19.051 Y30.222 E0.31818
G1 F1800 X18.977 Y29.847 E0.01809
G1 F1788.8 X18.776 Y29.556 E0.01684
G1 F1800 X18.477 Y29.347 E0.01726
G1 F1815.1 X18.246 Y29.28 E0.01129
G1 F1803.8 X12.416 Y29.28 E0.2753
G1 F1811.3 X12.187 Y29.347 E0.01122
G1 F1800 X11.887 Y29.556 E0.0173
G1 F1788.8 X11.681 Y29.856 E0.01733
G1 F1800 X11.613 Y30.086 E0.01135
G1 F1792.5 X11.613 Y45.914 E0.7521
G1 F1800 X11.681 Y46.144 E0.01135
G1 F1792.5 X11.887 Y46.444 E0.01729
G1 F1800 X12.187 Y46.653 E0.0173
G1 F1811.3 X12.416 Y46.72 E0.01122
G1 F1800 X18.246 Y46.72 E0.27587
G1 F1815.1 X18.477 Y46.653 E0.01129
G1 F1800 X18.776 Y46.444 E0.01726
G1 F1792.5 X18.978 Y46.151 E0.01691
G1 F1803.8 X19.051 Y45.774 E0.01813
G1 F1792.5 X19.051 Y39.2 E0.31238
G1 F1796.3 X19.292 Y38.96 E0.01613
G1 F1800 X21.144 Y38.965 E0.08764
G1 X21.311 Y39.098 E0.0101
G1 X21.31 Y39.301 E0.00961
G1 F1803.8 X21.041 Y39.878 E0.03006
G1 X21.476 Y40.081 E0.02267
G1 X21.933 Y39.098 E0.05119
G1 F1800 X22.009 Y39.006 E0.00565
G1 X22.119 Y38.961 E0.00562
G1 X24.813 Y38.96 E0.12748
G1 X27.461 Y38 E0.13328
G1 X27.728 Y38.153 E0.01456
G1 X27.732 Y40.36 E0.10444
G1 X28.692 Y40.36 E0.04543
G1 X28.692 Y39.2 E0.05489
G1 X28.85 Y38.961 E0.01356
G1 X30.794 Y38.963 E0.09199
G1 X32.019 Y39.579 E0.06488
G1 X33.233 Y40.105 E0.06261
G1 X34.465 Y40.556 E0.06208
G1 X35.719 Y40.93 E0.06192
G1 X36.985 Y41.232 E0.06159
G1 X38.247 Y41.456 E0.06065
G1 X39.577 Y41.614 E0.06338
G1 X40.912 Y41.69 E0.06327
G1 X42.234 Y41.688 E0.06256
G1 X43.49 Y41.615 E0.05953
G1 X44.83 Y41.456 E0.06385
G1 X46.096 Y41.232 E0.06084
G1 X47.372 Y40.927 E0.06208
G1 X48.629 Y40.552 E0.06207
G1 X49.87 Y40.096 E0.06256
G1 X51.063 Y39.579 E0.06153
G1 X52.288 Y38.961 E0.06493
G1 X57.237 Y38.965 E0.23419
G1 X57.404 Y39.098 E0.0101
G1 X57.403 Y39.301 E0.00961
G1 X57.135 Y39.878 E0.0301
G1 X57.569 Y40.08 E0.02265
G1 X58.026 Y39.098 E0.05125
G1 X58.102 Y39.006 E0.00565
G1 X58.212 Y38.961 E0.00562
G1 X60.096 Y38.965 E0.08915
G1 X60.263 Y39.098 E0.0101
G1 X60.262 Y39.301 E0.00961
G1 X59.994 Y39.878 E0.0301
G1 X60.428 Y40.08 E0.02265
G1 X60.885 Y39.098 E0.05125
