;FLAVOR:RepRap
;TIME:741
;Filament used: 3.61697m
;Layer height: 0.4
;MINX:88.238
;MINY:87.986
;MINZ:0.2
;MAXX:191.762
;MAXY:211.628
;MAXZ:6.2
;Exported with Cura-DuetRRF v1.2.9 plugin by Thomas Kriechbaumer
;Generated with Cura_SteamEngine 5.3.0
T0
M104 S215
M109 S215
M82 ;absolute extrusion mode

M83 ;relative extrusion mode
G1 F2700 E-0.6
;LAYER_COUNT:16
;LAYER:0
M107
M204 T5000
G1 F600 Z0.4
G0 F6000 X93.14 Y90.887 Z0.4
M204 P6000
;TYPE:SKIRT
G1 F600 Z0.2
G1 F1500 E0.6
G1 F1800 X93.819 Y90.295 E0.07621
G1 X94.672 Y89.703 E0.08784
G1 X95.503 Y89.249 E0.08011
G1 X96.354 Y88.894 E0.07801
G1 X97.209 Y88.628 E0.07575
G1 X98.14 Y88.442 E0.08032
G1 X98.965 Y88.369 E0.07007
G1 X99.965 Y88.359 E0.08461
G1 X100.85 Y88.46 E0.07536
G1 X101.529 Y88.557 E0.05803
G1 X123.159 Y91.908 E1.85176
G1 X125.958 Y92.302 E0.23913
G1 X128.66 Y92.603 E0.23001
G1 X131.41 Y92.833 E0.23347
G1 X134.167 Y92.984 E0.2336
G1 X138.099 Y93.064 E0.33272
G1 X141.809 Y93.065 E0.31387
G1 X144.6 Y93.026 E0.23615
G1 X147.353 Y92.911 E0.23311
G1 X150.111 Y92.715 E0.23392
G1 X152.839 Y92.446 E0.23191
G1 X156.85 Y91.907 E0.34239
G1 X178.354 Y88.575 E1.84098
G1 X179.254 Y88.445 E0.07693
G1 X180.118 Y88.363 E0.07342
G1 X181.096 Y88.363 E0.08274
G1 X182.097 Y88.479 E0.08525
G1 X183.008 Y88.687 E0.07906
G1 X183.912 Y88.992 E0.08072
G1 X184.752 Y89.378 E0.07821
G1 X185.603 Y89.879 E0.08355
G1 X186.343 Y90.429 E0.078
G1 X187.048 Y91.068 E0.0805
G1 X187.688 Y91.794 E0.08188
G1 X188.229 Y92.546 E0.07837
G1 X188.701 Y93.371 E0.08041
G1 X189.079 Y94.242 E0.08033
G1 X189.365 Y95.115 E0.07772
G1 X189.514 Y95.807 E0.05989
G1 X189.593 Y96.32 E0.04391
G1 X189.648 Y96.85 E0.04508
G1 X189.702 Y97.53 E0.05771
G1 X191.715 Y128.628 E2.63644
G1 X191.76 Y129.519 E0.07548
G1 X191.762 Y130.11 E0.05
G1 X191.727 Y130.71 E0.05085
G1 X191.641 Y131.374 E0.05664
G1 X191.532 Y132.003 E0.05401
G1 X182.467 Y176.325 E3.82732
G1 X182.279 Y177.171 E0.07332
G1 X182.109 Y177.811 E0.05602
G1 X181.94 Y178.314 E0.04489
G1 X181.676 Y178.958 E0.05888
G1 X181.363 Y179.574 E0.05846
G1 X181.1 Y180.02 E0.0438
G1 X180.801 Y180.466 E0.04543
G1 X180.484 Y180.881 E0.04418
G1 X180.09 Y181.34 E0.05118
G1 X179.464 Y181.959 E0.07448
G1 X178.889 Y182.44 E0.06342
G1 X176.463 Y184.147 E0.25096
G1 X174.223 Y185.816 E0.23633
G1 X172.054 Y187.529 E0.23383
G1 X169.954 Y189.288 E0.23175
G1 X167.874 Y191.132 E0.23517
G1 X165.874 Y193.008 E0.23199
G1 X163.907 Y194.96 E0.23444
G1 X162.012 Y196.952 E0.2326
G1 X160.181 Y198.988 E0.23166
G1 X158.378 Y201.111 E0.23564
G1 X156.653 Y203.262 E0.23327
G1 X155.006 Y205.442 E0.23115
G1 X153.263 Y207.891 E0.25431
G1 X152.574 Y208.737 E0.09231
G1 X151.87 Y209.407 E0.08222
G1 X151.082 Y210.022 E0.08457
G1 X150.083 Y210.602 E0.09773
G1 X149.345 Y210.942 E0.06874
G1 X148.577 Y211.224 E0.06922
G1 X147.655 Y211.451 E0.08033
G1 X146.743 Y211.584 E0.07797
G1 X145.88 Y211.62 E0.07307
G1 X145.316 Y211.627 E0.04772
G1 X134.778 Y211.628 E0.89153
G1 X133.91 Y211.616 E0.07344
G1 X133.042 Y211.564 E0.07357
G1 X132.1 Y211.406 E0.08081
G1 X131.167 Y211.143 E0.08201
G1 X130.323 Y210.808 E0.07682
G1 X129.569 Y210.417 E0.07186
G1 X128.752 Y209.899 E0.08184
G1 X127.956 Y209.253 E0.08673
G1 X127.296 Y208.591 E0.07908
G1 X126.75 Y207.909 E0.07391
G1 X125.256 Y205.805 E0.21831
G1 X123.642 Y203.649 E0.22785
G1 X121.883 Y201.434 E0.23929
G1 X120.141 Y199.363 E0.22895
G1 X118.292 Y197.288 E0.23513
G1 X116.413 Y195.293 E0.23185
G1 X114.462 Y193.337 E0.23373
G1 X112.461 Y191.44 E0.23327
G1 X110.375 Y189.574 E0.23678
G1 X108.313 Y187.83 E0.22848
G1 X106.137 Y186.093 E0.23555
G1 X103.939 Y184.439 E0.23272
G1 X101.246 Y182.533 E0.27912
G1 X100.684 Y182.087 E0.0607
G1 X100.102 Y181.556 E0.06665
G1 X99.441 Y180.805 E0.08464
G1 X98.992 Y180.161 E0.06642
G1 X98.66 Y179.636 E0.05255
G1 X98.225 Y178.754 E0.0832
G1 X97.918 Y177.901 E0.0767
G1 X97.702 Y177.086 E0.07133
G1 X97.534 Y176.32 E0.06634
G1 X88.61 Y132.69 E3.76758
G1 X88.302 Y131.007 E0.14475
G1 X88.244 Y130.285 E0.06128
G1 X88.238 Y129.665 E0.05246
G1 X88.262 Y128.97 E0.05883
G1 X90.298 Y97.517 E2.66653
G1 X90.371 Y96.629 E0.07538
G1 X90.463 Y95.933 E0.05939
G1 X90.684 Y94.925 E0.0873
G1 X91.019 Y93.989 E0.08411
G1 X91.36 Y93.272 E0.06717
G1 X91.878 Y92.38 E0.08727
G1 X92.49 Y91.58 E0.08521
G1 X93.14 Y90.887 E0.08038
G1 F2700 E-0.6
G1 F600 Z0.4
;MESH:cap.3mf
G0 F6000 X115.228 Y128.098 Z0.4
;TYPE:WALL-INNER
G1 F600 Z0.2
G1 F1500 E0.6
G1 F1922.5 X115.229 Y132.158 E0.32159
G1 F1972.1 X115.206 Y132.51 E0.02724
G0 F6000 X115.029 Y127.849
G0 X113.854 Y126.749
G0 X111.519 Y126.822
G1 F1800 X112.013 Y126.585 E0.04635
G1 X112.388 Y126.519 E0.03221
G1 X113.751 Y126.519 E0.11531
G1 X114.254 Y126.628 E0.04354
G1 X114.53 Y126.773 E0.02638
G1 X114.853 Y127.062 E0.03667
G1 F1812.4 X115.042 Y127.36 E0.02965
G1 F1850.8 X115.188 Y127.756 E0.03473
G1 F1900.6 X115.228 Y128.098 E0.02759
G1 X115.257 Y127.755 E0.02758
G1 F1850.8 X115.389 Y127.366 E0.0338
G1 F1812.4 X115.588 Y127.074 E0.02969
G1 F1800 X115.92 Y126.796 E0.03663
G1 X116.452 Y126.563 E0.04914
G1 X116.755 Y126.519 E0.0259
G1 X118.226 Y126.52 E0.12445
G1 X118.624 Y126.632 E0.03498
G1 X118.99 Y126.849 E0.036
G1 X119.358 Y126.622 E0.03658
G1 X119.653 Y126.526 E0.02625
G1 X120.451 Y126.394 E0.06843
G1 X120.947 Y126.404 E0.04197
G1 X122.111 Y126.754 E0.10283
G1 X122.465 Y126.626 E0.03185
G1 X123.804 Y126.327 E0.11607
G1 X124.219 Y126.307 E0.03515
G1 X125.383 Y126.495 E0.09975
G1 X125.776 Y126.649 E0.03571
G1 X126.649 Y127.191 E0.08693
G1 X126.716 Y127.097 E0.00977
G1 X127.171 Y126.739 E0.04898
G1 X127.422 Y126.62 E0.0235
G1 X127.85 Y126.518 E0.03722
G1 X129.258 Y126.518 E0.11912
G1 X129.593 Y126.599 E0.02916
G1 X129.89 Y126.739 E0.02778
G1 X130.196 Y126.599 E0.02847
G1 X130.563 Y126.518 E0.0318
G1 X131.916 Y126.518 E0.11447
G1 X132.253 Y126.602 E0.02938
G1 X132.542 Y126.738 E0.02702
G1 X132.839 Y126.602 E0.02764
G1 X133.223 Y126.522 E0.03318
G1 X134.657 Y126.516 E0.12132
G1 X134.979 Y126.61 E0.02838
G1 X135.694 Y125.272 E0.12835
G1 X135.843 Y125.077 E0.02076
G1 X136.125 Y124.826 E0.03194
G1 X137.197 Y124.173 E0.10619
G1 X137.55 Y124.018 E0.03262
G1 X139.331 Y123.761 E0.15224
G1 X140.833 Y123.952 E0.12809
G1 X141.108 Y124.026 E0.02409
G1 X142.241 Y124.573 E0.10644
G1 X142.571 Y124.862 E0.03711
G1 X143.165 Y125.577 E0.07864
G1 X143.46 Y126.109 E0.05146
G1 X143.587 Y126.739 E0.05437
G1 X143.998 Y126.566 E0.03773
G1 X144.268 Y126.518 E0.0232
G1 X145.725 Y126.522 E0.12326
G1 X146.169 Y126.626 E0.03858
G1 X146.452 Y126.773 E0.02698
G1 X146.775 Y127.062 E0.03667
G1 F1812.4 X146.964 Y127.36 E0.02965
G1 F1850.8 X147.11 Y127.756 E0.03473
G1 F1900.6 X147.15 Y128.098 E0.02759
G1 X147.179 Y127.755 E0.02758
G1 F1850.8 X147.311 Y127.366 E0.0338
G1 F1812.4 X147.51 Y127.074 E0.02969
G1 F1800 X147.842 Y126.796 E0.03663
G1 X148.334 Y126.574 E0.04566
G1 X148.697 Y126.518 E0.03107
G1 X150.128 Y126.526 E0.12107
G1 X150.48 Y126.607 E0.03056
G1 X150.923 Y126.861 E0.0432
G1 X151.4 Y126.607 E0.04572
G1 X151.75 Y126.519 E0.03053
G1 X157.993 Y126.519 E0.52817
G1 X158.374 Y126.582 E0.03267
G1 X158.728 Y126.74 E0.0328
G1 X159.076 Y127.03 E0.03832
G1 X159.265 Y127.309 E0.02851
G1 X159.462 Y127.037 E0.02841
G1 X159.819 Y126.758 E0.03833
G1 X160.224 Y126.582 E0.03736
G1 X160.543 Y126.522 E0.02746
G1 X161.884 Y126.519 E0.11345
G1 X162.214 Y126.567 E0.02821
G1 X162.565 Y126.707 E0.03197
G1 X162.795 Y126.863 E0.02351
G1 X163.117 Y127.232 E0.04143
G1 X163.452 Y126.875 E0.04142
G1 X163.687 Y126.728 E0.02345
G1 X164.08 Y126.567 E0.03593
G1 X164.351 Y126.522 E0.02324
G1 X165.758 Y126.519 E0.11903
G1 X166.12 Y126.581 E0.03107
G1 X166.404 Y126.698 E0.02599
G1 X166.62 Y126.838 E0.02178
G1 X166.885 Y127.1 E0.03153
G1 X167.103 Y127.449 E0.03481
G1 X167.22 Y127.764 E0.02843
G1 X168.857 Y137.231 E0.81281
G1 X168.862 Y137.465 E0.0198
G1 X168.802 Y137.812 E0.02979
G1 X168.605 Y138.231 E0.03917
G1 X168.38 Y138.496 E0.02941
G1 X168.046 Y138.755 E0.03576
G1 X167.761 Y138.896 E0.0269
G1 X167.303 Y138.99 E0.03956
G1 X165.906 Y138.992 E0.11819
G1 X165.414 Y138.831 E0.0438
G1 X165.176 Y138.684 E0.02367
G1 X164.933 Y138.422 E0.03023
G1 X164.682 Y138.675 E0.03015
G1 X164.206 Y138.91 E0.04491
G1 X163.771 Y138.991 E0.03743
G1 X162.493 Y138.991 E0.10812
G1 X162.203 Y138.96 E0.02467
G1 X161.782 Y138.805 E0.03795
G1 X161.55 Y138.65 E0.0236
G1 X161.339 Y138.41 E0.02704
G1 X161.119 Y138.641 E0.02699
G1 X160.663 Y138.888 E0.04387
G1 X160.275 Y138.992 E0.03398
G1 X158.859 Y138.99 E0.1198
G1 X158.361 Y138.883 E0.04309
G1 X158.068 Y138.727 E0.02808
G1 X157.848 Y138.546 E0.0241
G1 F1930.6 X157.657 Y138.181 E0.03249
G1 F2297.9 X157.575 Y137.426 E0.05033
G1 F2637.9 X157.737 Y136.389 E0.06059
G1 F2716 X157.325 Y136.487 E0.02374
G1 F2637.9 X156.991 Y136.486 E0.01928
G1 F2491.2 X156.956 Y137.567 E0.06611
G1 F2239 X156.989 Y138.233 E0.04535
G1 F1930.6 X156.856 Y138.622 E0.03243
G1 F1800 X156.516 Y138.959 E0.0405
G1 X156.027 Y139.212 E0.04658
G1 X155.594 Y139.295 E0.0373
G1 X154.129 Y139.293 E0.12394
G1 X153.833 Y139.242 E0.02541
G1 X153.49 Y139.101 E0.03137
G1 X153.099 Y138.788 E0.04237
G1 X152.94 Y138.576 E0.02242
G1 X152.737 Y138.153 E0.03969
G1 X152.659 Y137.804 E0.03025
G1 X152.659 Y136.978 E0.06988
G1 F1753.6 X152.611 Y136.101 E0.07627
G1 F1663 X152.755 Y135.613 E0.04659
G1 F1619 X152.697 Y135.446 E0.01663
G1 F1654.1 X152.666 Y135.029 E0.0385
G1 F1689.1 X152.666 Y130.793 E0.38191
G1 X151.866 Y130.792 E0.07213
G1 X151.577 Y130.725 E0.02675
G1 X151.578 Y135.029 E0.38804
G1 F1654.1 X151.588 Y135.521 E0.04531
G1 F1621.9 X151.521 Y135.809 E0.02776
G1 F1649.6 X151.421 Y136.01 E0.02072
G1 F1735.3 X151.127 Y136.369 E0.04072
G1 F1800 X150.808 Y136.625 E0.0346
G1 X150.309 Y136.845 E0.04614
G1 X149.979 Y136.895 E0.02824
G1 X148.504 Y136.895 E0.12479
G1 X148.298 Y136.792 E0.01948
G1 X147.788 Y137.007 E0.04682
G1 X146.778 Y137.15 E0.0863
G1 X146.491 Y137.14 E0.0243
G1 X145.056 Y136.847 E0.12391
G1 X144.672 Y136.697 E0.03488
G1 X144.415 Y136.518 E0.0265
G1 X143.419 Y135.609 E0.11408
G1 X143.136 Y135.081 E0.05068
G1 X142.836 Y135.6 E0.05072
G1 X141.666 Y136.596 E0.12999
G1 X141.29 Y136.794 E0.03595
G1 X139.854 Y137.129 E0.12475
G1 X139.48 Y137.148 E0.03168
G1 X138.633 Y137.023 E0.07243
G1 X138.048 Y136.787 E0.05337
G1 X137.846 Y136.859 E0.01814
G1 X137.556 Y136.896 E0.02473
G1 X136.259 Y136.894 E0.10973
G1 X135.81 Y136.801 E0.03879
G1 X135.396 Y136.562 E0.04044
G1 X134.95 Y136.801 E0.04281
G1 X134.549 Y136.891 E0.03477
G1 X133.333 Y136.896 E0.10288
G1 X133.192 Y136.866 E0.0122
G1 X132.524 Y137.101 E0.05991
G1 X132.182 Y137.153 E0.02927
G1 X131.699 Y137.099 E0.04112
G1 X130.751 Y136.78 E0.08462
G1 X129.64 Y137.141 E0.09883
G1 X129.125 Y137.132 E0.04358
G1 X128.219 Y136.913 E0.07886
G1 X127.897 Y136.784 E0.02935
G1 X127.556 Y136.535 E0.03572
G1 X126.972 Y135.88 E0.07424
G1 X126.789 Y135.523 E0.03394
G1 X126.479 Y135.946 E0.04437
G1 X126.121 Y136.268 E0.04074
G1 X125.072 Y136.844 E0.10125
G1 X124.722 Y136.957 E0.03112
G1 X123.319 Y137.159 E0.11992
G1 X121.812 Y136.975 E0.12844
G1 X121.533 Y136.89 E0.02467
G1 X120.404 Y136.336 E0.10639
G1 X120.015 Y135.934 E0.04733
G1 F1864 X119.584 Y135.23 E0.06744
G1 F2283.6 X119.442 Y134.571 E0.04495
G1 F2315.3 X119.577 Y135.316 E0.0498
G1 F1885 X119.473 Y135.978 E0.05414
G1 F1800 X119.198 Y136.375 E0.04086
G1 X118.982 Y136.561 E0.02412
G1 X118.598 Y136.772 E0.03707
G1 X118.087 Y136.894 E0.04445
G1 X116.594 Y136.895 E0.12631
G1 X116.374 Y136.794 E0.02048
G1 X115.867 Y137.006 E0.04649
G1 X114.917 Y137.141 E0.08118
G1 X114.584 Y137.143 E0.02817
G1 X113.101 Y136.839 E0.12807
G1 X112.608 Y136.625 E0.04547
G1 X111.58 Y135.682 E0.11802
G1 X111.382 Y135.437 E0.02665
G1 X111.234 Y135.146 E0.02762
G1 X110.907 Y134.066 E0.09547
G1 X110.837 Y132.912 E0.09781
G1 X110.839 Y127.982 E0.41708
G1 X110.873 Y127.755 E0.01942
G1 X110.985 Y127.435 E0.02868
G1 X111.223 Y127.078 E0.0363
G1 X111.519 Y126.822 E0.03311
G0 F6000 X118.296 Y126.283
G0 X119.28 Y126.698
G0 X118.89 Y127.965
G0 X119.351 Y130.239
G1 F3672 X119.351 Y131.859 E0.06718
G1 F3368.8 X119.351 Y133.479 E0.07323
G1 F2995.1 X119.442 Y134.571 E0.05571
G1 F2700 E-0.6
G0 F6000 X119.432 Y134.572
G0 X122.724 Y133.358
G0 X124.67 Y132.677
M204 P800
;TYPE:WALL-OUTER
G1 F1500 E0.6
G1 F1959.4 X123.747 Y132.887 E0.07357
G1 F1926.5 X122.733 Y132.999 E0.08064
G1 F1918.5 X122.449 Y133.07 E0.02324
G1 X122.421 Y133.365 E0.02352
G1 X122.471 Y133.621 E0.0207
G1 X122.571 Y133.744 E0.01258
G1 X122.823 Y133.853 E0.02179
G1 X123.303 Y133.903 E0.03831
G1 F1926.5 X123.829 Y133.832 E0.04195
G1 F1932.6 X124.093 Y133.7 E0.02326
G1 X124.221 Y133.526 E0.01702
G1 F1942.9 X124.301 Y133.065 E0.03667
G1 F1967.8 X124.575 Y132.719 E0.03415
G1 F1984.9 X124.67 Y132.677 E0.00797
G0 F6000 X124.427 Y132.732
G1 F2700 E-0.6
G0 F6000 X123.931 Y133.195
G0 X122.726 Y133.31
G0 X119.85 Y133.31
G0 X119.39 Y129.755
G0 X119.039 Y127.021
G0 X119.536 Y127.726
G1 F1500 E0.6
G1 F1812.4 X119.802 Y127.533 E0.02761
G1 F1800 X120.687 Y127.39 E0.07584
G1 X121.792 Y127.727 E0.09774
G1 X122.063 Y128.049 E0.03561
G1 X122.576 Y127.647 E0.05514
G1 X124.053 Y127.316 E0.12806
G1 X125.198 Y127.495 E0.09805
G1 X126.06 Y128.026 E0.08565
G1 F1847.1 X126.211 Y128.208 E0.0195
G1 F1993.5 X126.574 Y128.905 E0.06003
G1 F2154.9 X126.696 Y129.998 E0.07772
G1 F2132.4 X126.561 Y131.26 E0.09064
G1 F1793 X126.251 Y131.882 E0.05903
G1 F1588.2 X126.034 Y132.166 E0.03427
G1 X125.91 Y132.253 E0.01452
G1 F1732.1 X125.039 Y132.601 E0.08246
G1 F1944.9 X124.861 Y132.636 E0.0142
G1 F1869.7 X125.418 Y132.578 E0.04561
G1 F1672.1 X125.975 Y132.52 E0.051
G1 F1588.2 X126.124 Y132.54 E0.01441
G1 X126.344 Y132.658 E0.02394
G1 F1720.7 X126.46 Y132.985 E0.03071
G1 F1920.5 X126.488 Y133.254 E0.02145
G1 F1879.2 X126.33 Y134.34 E0.08893
G1 F1800 X126.24 Y134.548 E0.01917
G1 X125.684 Y135.306 E0.07953
G1 X125.565 Y135.413 E0.01354
G1 X124.592 Y135.944 E0.09378
G1 X123.298 Y136.131 E0.11061
G1 X121.965 Y135.964 E0.11366
G1 F1801.8 X120.927 Y135.456 E0.09767
G1 X120.355 Y134.64 E0.08422
G1 X120.269 Y134.432 E0.01902
G1 F1800 X120.1 Y133.426 E0.0863
G1 X120.099 Y129.623 E0.32174
G1 X119.705 Y129.58 E0.03353
G1 F1864 X119.521 Y129.343 E0.02451
G1 F1976.3 X119.446 Y129.102 E0.01945
G1 F2002.2 X119.443 Y127.933 E0.08891
G1 F1900.6 X119.536 Y127.726 E0.01818
G0 F6000 X119.738 Y127.579
G1 F2700 E-0.6
G0 F6000 X119.243 Y126.877
G0 X134.554 Y127.249
G0 X135.582 Y127.846
G0 X137.946 Y128.13
G1 F1500 E0.6
G1 F2842.1 X138.239 Y127.85 E0.02172
G1 F2803.1 X138.844 Y127.574 E0.03613
G1 F2807.3 X139.53 Y127.473 E0.03761
G1 F3075.4 X139.86 Y127.522 E0.01652
G1 F3600 X140.824 Y127.823 E0.04272
G1 F3793.4 X140.694 Y127.741 E0.00617
G1 F3558.1 X140.576 Y127.568 E0.00896
G1 F3261.1 X140.478 Y127.214 E0.01715
G1 F3070.2 X140.306 Y127.032 E0.01242
G1 F2975.7 X139.922 Y126.896 E0.02085
G1 F2864.3 X139.308 Y126.842 E0.03277
G1 F2781.8 X138.608 Y126.945 E0.03873
G1 F2803.1 X138.227 Y127.164 E0.02387
G1 F2842.1 X138.023 Y127.564 E0.02406
G1 X137.946 Y128.13 E0.03061
G0 F6000 X138.126 Y127.958
G1 F2700 E-0.6
G0 F6000 X135.782 Y126.702
G0 X135.952 Y125.223
G0 X136.568 Y125.805
G1 F1500 E0.6
G1 F1800 X136.704 Y125.666 E0.01645
G1 X137.765 Y125.02 E0.10509
G1 X139.347 Y124.791 E0.13523
G1 X140.7 Y124.962 E0.11538
G1 X141.752 Y125.471 E0.09887
G1 F1780.8 X142.459 Y126.324 E0.09474
G1 F1738.6 X142.741 Y127.566 E0.11155
G1 F1715.9 X142.642 Y127.791 E0.02182
G1 F1756.9 X142.448 Y127.972 E0.023
G1 F1800 X142.253 Y128.086 E0.01911
G1 X142.1 Y128.108 E0.01308
G1 F2051.4 X141.521 Y127.983 E0.04397
G1 F2842.1 X140.942 Y127.858 E0.03174
G1 X141.462 Y128.141 E0.03172
G1 F2051.4 X141.982 Y128.425 E0.04398
G1 F1803.5 X142.116 Y128.563 E0.01624
G1 F1808.9 X142.765 Y129.925 E0.12701
G1 F1875.4 X142.928 Y131.701 E0.14482
G1 F1910.5 X142.826 Y132.816 E0.08925
G1 F1837.8 X142.847 Y132.824 E0.00186
G1 F1800 X142.766 Y133.491 E0.05684
G1 X142.098 Y134.89 E0.13116
G1 X141.007 Y135.813 E0.1209
G1 X139.621 Y136.138 E0.12044
G1 X138.81 Y136.015 E0.0694
G1 X138.144 Y135.704 E0.06218
G1 X138.017 Y135.609 E0.01342
G1 X137.909 Y135.728 E0.0136
G1 X137.536 Y135.876 E0.03395
G1 X136.314 Y135.876 E0.10338
G1 X136.164 Y135.845 E0.01296
G1 X136.004 Y135.749 E0.01579
