;FLAVOR:RepRap
;TIME:977
;Filament used: 1.19028m
;Layer height: 0.24
;MINX:114.135
;MINY:127.542
;MINZ:0.2
;MAXX:165.943
;MAXY:182.307
;MAXZ:31.88
;Exported with Cura-DuetRRF v1.2.9 plugin by Thomas Kriechbaumer
;LINEARADVANCEPROCESSED
;Generated with Cura_SteamEngine 5.3.0
T0
M104 S245
M109 S245
M82 ;absolute extrusion mode

M83 ;relative extrusion mode
G1 F1800 E-0.4
;LAYER_COUNT:133
M572 S0.063000 D0 ;added by LinearAdvanceSettingPlugin
;LAYER:0
M107
G0 F4800 X134.594 Y129.533 Z0.2
;TYPE:SKIRT
G1 F1800 E0.4
G1 X135.283 Y128.833 E0.03912
G1 X135.946 Y128.307 E0.0337
G1 X136.774 Y127.876 E0.03717
G1 X137.468 Y127.628 E0.02935
G1 X137.967 Y127.566 E0.02003
G1 X138.817 Y127.604 E0.03388
G1 X139.527 Y127.828 E0.02965
G1 X140.033 Y128.149 E0.02386
G1 X140.648 Y127.783 E0.0285
G1 X140.956 Y127.683 E0.0129
G1 X141.839 Y127.542 E0.03561
G1 X142.954 Y127.702 E0.04486
G1 X143.84 Y128.142 E0.0394
G1 X144.636 Y128.692 E0.03853
G1 X145.019 Y129.039 E0.02058
G1 X145.639 Y129.745 E0.03742
G1 X146.228 Y130.729 E0.04567
G1 X146.414 Y131.533 E0.03286
G1 X146.536 Y132.805 E0.05089
G1 X146.707 Y133.927 E0.0452
G1 X146.936 Y135.011 E0.04412
G1 X147.251 Y136.163 E0.04756
G1 X147.598 Y137.188 E0.0431
G1 X148.101 Y138.417 E0.05289
G1 X148.563 Y139.379 E0.0425
G1 X149.104 Y140.366 E0.04482
G1 X149.776 Y141.426 E0.04998
G1 X150.576 Y142.544 E0.05475
G1 X150.888 Y143.121 E0.02612
G1 X151.113 Y144.133 E0.04129
G1 X151.456 Y144.196 E0.01389
G1 X152.449 Y144.618 E0.04297
G1 X153.661 Y145.663 E0.06373
G1 X154.549 Y146.343 E0.04454
G1 X155.463 Y146.965 E0.04403
G1 X156.424 Y147.538 E0.04456
G1 X157.46 Y148.083 E0.04662
G1 X158.56 Y148.572 E0.04794
G1 X159.616 Y148.972 E0.04497
G1 X160.764 Y149.337 E0.04797
G1 X161.371 Y149.558 E0.02573
G1 X162.511 Y150.152 E0.05119
G1 X163.144 Y150.603 E0.03095
G1 X163.927 Y151.321 E0.04231
G1 X164.38 Y151.848 E0.02768
G1 X165.047 Y152.865 E0.04844
G1 X165.344 Y153.475 E0.02702
G1 X165.749 Y154.712 E0.05184
G1 X165.877 Y155.4 E0.02787
G1 X165.943 Y156.606 E0.0481
G1 X165.889 Y157.317 E0.0284
G1 X165.718 Y158.217 E0.03648
G1 X165.348 Y159.319 E0.04629
G1 X165.011 Y160.004 E0.0304
G1 X164.421 Y160.901 E0.04276
G1 X163.786 Y161.631 E0.03853
G1 X163.185 Y162.172 E0.0322
G1 X162.394 Y162.726 E0.03846
G1 X161.458 Y163.209 E0.04195
G1 X160.712 Y163.486 E0.03169
G1 X159.601 Y163.839 E0.04643
G1 X158.6 Y164.216 E0.0426
G1 X157.531 Y164.693 E0.04662
G1 X156.42 Y165.271 E0.04988
G1 X155.53 Y165.799 E0.04121
G1 X154.604 Y166.422 E0.04445
G1 X153.689 Y167.119 E0.04581
G1 X152.9 Y167.792 E0.0413
G1 X151.949 Y168.7 E0.05236
G1 X151.365 Y169.092 E0.02801
G1 X150.66 Y169.364 E0.03009
G1 X149.797 Y169.419 E0.03444
G1 X148.934 Y169.201 E0.03545
G1 X149.214 Y169.576 E0.01864
G1 X149.338 Y169.845 E0.0118
G1 X149.512 Y170.487 E0.02649
G1 X149.498 Y171.375 E0.03537
G1 X149.266 Y172.155 E0.03241
G1 X148.662 Y173.23 E0.04911
G1 X148.236 Y174.088 E0.03815
G1 X147.793 Y175.11 E0.04436
G1 X147.474 Y175.967 E0.03642
G1 X147.101 Y177.135 E0.04883
G1 X146.856 Y177.799 E0.02819
G1 X146.404 Y178.687 E0.03968
G1 X145.827 Y179.523 E0.04045
G1 X145.224 Y180.191 E0.03584
G1 X144.555 Y180.771 E0.03526
G1 X143.565 Y181.418 E0.0471
G1 X143.037 Y181.678 E0.02344
G1 X141.918 Y182.064 E0.04714
G1 X141.017 Y182.242 E0.03658
G1 X139.843 Y182.307 E0.04683
G1 X139.114 Y182.251 E0.02912
G1 X138.093 Y182.046 E0.04147
G1 X137.1 Y181.703 E0.04184
G1 X136.402 Y181.355 E0.03106
G1 X135.515 Y180.766 E0.0424
G1 X134.849 Y180.187 E0.03515
G1 X134.253 Y179.526 E0.03544
G1 X133.675 Y178.689 E0.04051
G1 X133.194 Y177.733 E0.04262
G1 X132.938 Y177.026 E0.02995
G1 X132.623 Y176.027 E0.04172
G1 X132.245 Y175.013 E0.0431
G1 X131.853 Y174.112 E0.03913
G1 X131.397 Y173.196 E0.04075
G1 X130.829 Y172.161 E0.04702
G1 X130.626 Y171.622 E0.02294
G1 X130.543 Y170.941 E0.02732
G1 X130.598 Y170.264 E0.02705
G1 X130.946 Y169.439 E0.03566
G1 X131.108 Y169.187 E0.01193
G1 X130.58 Y169.379 E0.02237
G1 X130.04 Y169.41 E0.02154
G1 X129.25 Y169.322 E0.03166
G1 X128.551 Y169.006 E0.03055
G1 X128.106 Y168.677 E0.02204
G1 X127.22 Y167.83 E0.04881
G1 X126.287 Y167.037 E0.04876
G1 X125.507 Y166.445 E0.039
G1 X124.61 Y165.84 E0.04309
G1 X123.621 Y165.252 E0.04582
G1 X122.544 Y164.692 E0.04834
G1 X121.493 Y164.224 E0.04582
G1 X120.461 Y163.833 E0.04395
G1 X119.291 Y163.459 E0.04892
G1 X118.408 Y163.117 E0.03771
G1 X117.844 Y162.824 E0.02531
G1 X117.007 Y162.259 E0.04022
G1 X116.212 Y161.547 E0.0425
G1 X115.698 Y160.955 E0.03122
G1 X115.031 Y159.935 E0.04854
G1 X114.623 Y159.053 E0.0387
G1 X114.389 Y158.331 E0.03023
G1 X114.197 Y157.357 E0.03954
G1 X114.135 Y156.2 E0.04614
G1 X114.189 Y155.488 E0.02844
G1 X114.376 Y154.526 E0.03903
G1 X114.679 Y153.613 E0.03831
G1 X115.067 Y152.802 E0.0358
G1 X115.653 Y151.908 E0.04257
G1 X116.2 Y151.272 E0.03341
G1 X117.058 Y150.506 E0.04581
G1 X117.701 Y150.069 E0.03096
G1 X118.624 Y149.595 E0.04132
G1 X119.389 Y149.312 E0.03248
G1 X120.473 Y148.967 E0.0453
G1 X121.509 Y148.575 E0.04411
G1 X122.616 Y148.083 E0.04824
G1 X123.674 Y147.527 E0.0476
G1 X124.642 Y146.947 E0.04494
G1 X125.509 Y146.357 E0.04176
G1 X126.434 Y145.649 E0.04639
G1 X127.64 Y144.607 E0.06347
G1 X128.529 Y144.238 E0.03833
G1 X128.983 Y144.121 E0.01867
G1 X129.056 Y143.64 E0.01938
G1 X129.367 Y142.722 E0.0386
G1 X130.292 Y141.445 E0.0628
G1 X130.968 Y140.375 E0.0504
G1 X131.525 Y139.361 E0.04607
G1 X132.014 Y138.333 E0.04534
G1 X132.458 Y137.245 E0.0468
G1 X132.831 Y136.146 E0.04622
G1 X133.135 Y135.026 E0.04622
G1 X133.379 Y133.884 E0.04651
G1 X133.539 Y132.814 E0.04309
G1 X133.678 Y131.345 E0.05876
G1 X133.995 Y130.488 E0.03639
G1 X134.594 Y129.533 E0.04489
G0 F4800 X134.988 Y129.846
G1 F1800 X135.594 Y129.225 E0.03456
G1 X136.219 Y128.729 E0.03178
G1 X137.005 Y128.32 E0.03529
G1 X137.585 Y128.117 E0.02447
G1 X137.945 Y128.066 E0.01448
G1 X138.731 Y128.101 E0.03133
G1 X139.315 Y128.285 E0.02438
G1 X139.833 Y128.614 E0.02444
G1 X140.033 Y128.827 E0.01164
G1 X140.281 Y128.584 E0.01383
G1 X140.857 Y128.241 E0.0267
G1 X141.035 Y128.177 E0.00753
G1 X141.844 Y128.048 E0.03263
G1 X142.802 Y128.185 E0.03854
G1 X143.617 Y128.59 E0.03624
G1 X144.3 Y129.063 E0.03309
G1 X144.683 Y129.41 E0.02058
G1 X145.234 Y130.042 E0.03339
G1 X145.759 Y130.92 E0.04074
G1 X145.916 Y131.581 E0.02706
G1 X146.038 Y132.858 E0.05109
G1 X146.215 Y134.015 E0.04661
G1 X146.45 Y135.129 E0.04534
G1 X146.774 Y136.313 E0.04889
G1 X147.135 Y137.377 E0.04475
G1 X147.646 Y138.626 E0.05374
G1 X148.112 Y139.596 E0.04286
G1 X148.678 Y140.628 E0.04687
G1 X149.363 Y141.709 E0.05097
G1 X150.136 Y142.782 E0.05267
G1 X150.415 Y143.298 E0.02336
G1 X150.593 Y144.098 E0.03264
G1 X150.614 Y144.572 E0.0189
G1 X151.26 Y144.656 E0.02594
G1 X152.18 Y145.047 E0.03981
G1 X153.338 Y146.046 E0.06091
G1 X154.249 Y146.743 E0.04568
G1 X155.195 Y147.387 E0.04558
G1 X156.181 Y147.975 E0.04572
G1 X157.247 Y148.536 E0.04797
G1 X158.375 Y149.037 E0.04915
G1 X159.44 Y149.44 E0.04535
G1 X160.593 Y149.807 E0.04819
G1 X161.2 Y150.028 E0.02573
G1 X162.223 Y150.561 E0.04594
G1 X162.806 Y150.972 E0.02841
G1 X163.589 Y151.69 E0.04231
G1 X163.999 Y152.172 E0.0252
G1 X164.597 Y153.084 E0.04343
G1 X164.894 Y153.694 E0.02702
G1 X165.257 Y154.803 E0.04647
G1 X165.385 Y155.491 E0.02787
G1 X165.444 Y156.568 E0.04296
G1 X165.39 Y157.279 E0.0284
G1 X165.227 Y158.122 E0.03419
G1 X164.899 Y159.098 E0.04101
G1 X164.562 Y159.783 E0.0304
G1 X164.043 Y160.574 E0.03768
G1 X163.451 Y161.259 E0.03606
G1 X162.85 Y161.8 E0.0322
G1 X162.109 Y162.315 E0.03594
G1 X161.284 Y162.74 E0.03696
G1 X160.538 Y163.017 E0.03169
G1 X159.431 Y163.369 E0.04626
G1 X158.403 Y163.756 E0.04374
G1 X157.313 Y164.242 E0.04753
G1 X156.189 Y164.827 E0.05046
G1 X155.261 Y165.378 E0.04298
G1 X154.311 Y166.017 E0.0456
G1 X153.376 Y166.729 E0.0468
G1 X152.564 Y167.421 E0.04249
G1 X151.633 Y168.311 E0.05129
G1 X151.133 Y168.646 E0.02397
G1 X150.553 Y168.87 E0.02476
G1 X149.844 Y168.915 E0.02829
G1 X149.221 Y168.758 E0.02559
G1 X148.794 Y168.57 E0.01858
G1 X148.26 Y168.1 E0.02833
G1 X148.144 Y167.952 E0.00749
G1 X147.806 Y167.288 E0.02967
G1 X147.693 Y166.648 E0.02588
G1 X147.689 Y165.003 E0.06551
G1 X147.878 Y164.232 E0.03161
G1 X148.15 Y163.723 E0.02298
G1 X148.781 Y162.944 E0.03992
G1 X149.229 Y162.296 E0.03137
G1 X149.679 Y161.526 E0.03552
G1 X150.037 Y160.789 E0.03263
G1 X150.341 Y160.019 E0.03297
G1 X150.581 Y159.24 E0.03246
G1 X150.775 Y158.381 E0.03507
G1 X150.885 Y157.653 E0.02932
G1 X150.949 Y156.772 E0.03518
G1 X150.95 Y156.036 E0.02931
G1 X150.877 Y155.076 E0.03834
G1 X150.773 Y154.386 E0.02779
G1 X150.574 Y153.53 E0.035
G1 X150.336 Y152.77 E0.03172
G1 X150.027 Y151.992 E0.03334
G1 X149.663 Y151.248 E0.03299
G1 X149.263 Y150.561 E0.03166
G1 X148.76 Y149.836 E0.03514
G1 X148.133 Y149.059 E0.03976
G1 X147.758 Y148.243 E0.03576
G1 X147.686 Y147.722 E0.02095
G1 X147.699 Y147.237 E0.01932
G1 X147.422 Y147.236 E0.01103
G1 X146.801 Y147.124 E0.02513
G1 X146.633 Y147.061 E0.00715
G1 X146.079 Y146.729 E0.02572
G1 X145.653 Y146.298 E0.02413
G1 X144.826 Y145.173 E0.05561
G1 X144.041 Y143.979 E0.05691
G1 X143.322 Y142.739 E0.05708
G1 X142.713 Y141.54 E0.05356
G1 X142.092 Y140.138 E0.06107
G1 X141.626 Y138.903 E0.05257
G1 X141.195 Y137.538 E0.05701
G1 X140.813 Y136.049 E0.06122
G1 X140.558 Y134.754 E0.05256
G1 X140.369 Y133.434 E0.0531
G1 X140.061 Y133.135 E0.0171
G1 X139.705 Y133.446 E0.01883
G1 X139.522 Y134.753 E0.05256
G1 X139.263 Y136.066 E0.0533
G1 X138.879 Y137.559 E0.06139
G1 X138.446 Y138.92 E0.05688
G1 X137.98 Y140.155 E0.05257
G1 X137.358 Y141.56 E0.06119
G1 X136.769 Y142.718 E0.05174
G1 X135.994 Y144.047 E0.06127
G1 X135.187 Y145.264 E0.05815
G1 X134.359 Y146.383 E0.05544
G1 X133.751 Y146.917 E0.03223
G1 X133.128 Y147.159 E0.02662
G1 X132.54 Y147.249 E0.02369
G1 X132.366 Y147.25 E0.00693
G1 X132.377 Y147.911 E0.02633
G1 X132.164 Y148.644 E0.0304
G1 X131.902 Y149.108 E0.02122
G1 X131.327 Y149.82 E0.03645
G1 X130.822 Y150.553 E0.03545
G1 X130.403 Y151.267 E0.03297
G1 X130.053 Y151.992 E0.03206
G1 X129.74 Y152.78 E0.03377
G1 X129.496 Y153.568 E0.03285
G1 X129.303 Y154.425 E0.03498
G1 X129.192 Y155.157 E0.02949
G1 X129.129 Y156.031 E0.0349
G1 X129.128 Y156.776 E0.02967
G1 X129.191 Y157.622 E0.03379
G1 X129.31 Y158.437 E0.0328
G1 X129.487 Y159.206 E0.03143
G1 X129.736 Y160.019 E0.03386
G1 X130.034 Y160.772 E0.03225
G1 X130.43 Y161.586 E0.03605
G1 X130.825 Y162.258 E0.03104
G1 X131.325 Y162.979 E0.03494
G1 X132.005 Y163.821 E0.0431
G1 X132.33 Y164.622 E0.03443
G1 X132.389 Y165.126 E0.02021
G1 X132.389 Y166.583 E0.05802
G1 X132.305 Y167.173 E0.02373
G1 X132.061 Y167.762 E0.02539
G1 X131.864 Y168.024 E0.01305
G1 X131.378 Y168.496 E0.02698
G1 X131.221 Y168.599 E0.00748
G1 X130.543 Y168.88 E0.02923
G1 X130.095 Y168.913 E0.01789
G1 X129.382 Y168.834 E0.02857
G1 X128.806 Y168.573 E0.02518
G1 X128.451 Y168.315 E0.01748
G1 X127.554 Y167.458 E0.04941
G1 X126.611 Y166.656 E0.0493
G1 X125.787 Y166.03 E0.04121
G1 X124.89 Y165.425 E0.04309
G1 X123.852 Y164.808 E0.04809
G1 X122.768 Y164.244 E0.04866
G1 X121.679 Y163.759 E0.04748
G1 X120.638 Y163.365 E0.04433
G1 X119.47 Y162.992 E0.04883
G1 X118.639 Y162.673 E0.03545
G1 X118.075 Y162.38 E0.02531
G1 X117.339 Y161.885 E0.03532
G1 X116.59 Y161.219 E0.03992
G1 X116.076 Y160.627 E0.03122
G1 X115.451 Y159.663 E0.04575
G1 X115.099 Y158.899 E0.0335
G1 X114.865 Y158.177 E0.03023
G1 X114.696 Y157.329 E0.03444
G1 X114.634 Y156.238 E0.04352
G1 X114.688 Y155.526 E0.02844
G1 X114.851 Y154.683 E0.03419
G1 X115.154 Y153.77 E0.03831
G1 X115.517 Y153.02 E0.03318
G1 X116.034 Y152.232 E0.03753
G1 X116.534 Y151.644 E0.03074
G1 X117.339 Y150.92 E0.04312
G1 X117.982 Y150.483 E0.03096
G1 X118.798 Y150.064 E0.03653
G1 X119.54 Y149.789 E0.03151
G1 X120.638 Y149.44 E0.04588
G1 X121.695 Y149.04 E0.04501
G1 X122.841 Y148.53 E0.04995
G1 X123.912 Y147.967 E0.04819
G1 X124.903 Y147.374 E0.04599
G1 X125.809 Y146.757 E0.04365
G1 X126.742 Y146.043 E0.04679
G1 X127.905 Y145.039 E0.06119
G1 X128.721 Y144.7 E0.03519
G1 X129.189 Y144.586 E0.01918
G1 X129.469 Y144.578 E0.01116
G1 X129.457 Y144.358 E0.00877
G1 X129.53 Y143.8 E0.02241
G1 X129.817 Y142.953 E0.03562
G1 X130.709 Y141.721 E0.06057
G1 X131.397 Y140.633 E0.05127
G1 X131.975 Y139.58 E0.04784
G1 X132.466 Y138.548 E0.04551
G1 X132.924 Y137.427 E0.04823
G1 X133.307 Y136.298 E0.04748
G1 X133.621 Y135.144 E0.04763
G1 X133.868 Y133.988 E0.04708
G1 X134.037 Y132.862 E0.04535
G1 X134.17 Y131.456 E0.05624
G1 X134.446 Y130.709 E0.03171
G1 X134.988 Y129.846 E0.04058
G0 F4800 X135.382 Y130.158
G1 F1800 X135.952 Y129.574 E0.0325
G1 X136.49 Y129.152 E0.02723
G1 X137.236 Y128.764 E0.03349
G1 X137.746 Y128.59 E0.02146
G1 X137.923 Y128.566 E0.00711
G1 X138.645 Y128.598 E0.02878
G1 X139.165 Y128.762 E0.02171
G1 X139.55 Y129.026 E0.01859
G1 X139.919 Y129.479 E0.02327
G1 X140.03 Y129.76 E0.01203
G1 X140.31 Y129.267 E0.02258
G1 X140.537 Y129.014 E0.01354
G1 X141.113 Y128.671 E0.0267
G1 X141.849 Y128.554 E0.02968
G1 X142.65 Y128.668 E0.03222
G1 X143.394 Y129.038 E0.03309
G1 X143.964 Y129.434 E0.02764
G1 X144.347 Y129.781 E0.02058
G1 X144.827 Y130.336 E0.02922
G1 X145.29 Y131.11 E0.03592
G1 X145.429 Y131.696 E0.02398
G1 X145.541 Y132.911 E0.04859
G1 X145.723 Y134.106 E0.04814
G1 X145.964 Y135.247 E0.04644
G1 X146.296 Y136.458 E0.05001
G1 X146.672 Y137.566 E0.0466
G1 X147.189 Y138.829 E0.05435
G1 X147.666 Y139.823 E0.04391
G1 X148.25 Y140.886 E0.0483
G1 X148.947 Y141.988 E0.05193
G1 X149.73 Y143.074 E0.05332
G1 X149.942 Y143.475 E0.01806
G1 X150.105 Y144.207 E0.02987
G1 X150.124 Y144.474 E0.01066
G1 X150.014 Y145.14 E0.02688
G1 X150.473 Y145.058 E0.01857
G1 X151.128 Y145.143 E0.0263
G1 X151.911 Y145.476 E0.03389
G1 X153.017 Y146.43 E0.05817
G1 X153.95 Y147.144 E0.04679
G1 X154.927 Y147.809 E0.04707
G1 X155.948 Y148.418 E0.04735
G1 X157.022 Y148.983 E0.04833
G1 X158.19 Y149.502 E0.0509
G1 X159.264 Y149.908 E0.04573
G1 X160.422 Y150.277 E0.0484
G1 X161.029 Y150.498 E0.02573
G1 X161.935 Y150.97 E0.04068
G1 X162.518 Y151.381 E0.02841
G1 X163.208 Y152.014 E0.03729
G1 X163.618 Y152.496 E0.0252
G1 X164.147 Y153.303 E0.03843
G1 X164.444 Y153.913 E0.02702
G1 X164.765 Y154.894 E0.04111
G1 X164.893 Y155.582 E0.02787
G1 X164.945 Y156.53 E0.03781
G1 X164.891 Y157.241 E0.0284
G1 X164.752 Y157.965 E0.02936
G1 X164.45 Y158.877 E0.03826
G1 X164.113 Y159.562 E0.0304
G1 X163.663 Y160.249 E0.03271
G1 X163.116 Y160.887 E0.03347
G1 X162.515 Y161.428 E0.0322
G1 X161.879 Y161.871 E0.03087
G1 X161.109 Y162.271 E0.03456
G1 X160.387 Y162.54 E0.03068
G1 X159.273 Y162.894 E0.04655
G1 X158.21 Y163.295 E0.04525
G1 X157.731 Y163.503 E0.0208
G1 X157.082 Y163.798 E0.02839
G1 X155.946 Y164.389 E0.051
G1 X154.999 Y164.952 E0.04388
G1 X154.013 Y165.615 E0.04732
G1 X153.063 Y166.339 E0.04757
G1 X152.23 Y167.049 E0.04359
G1 X151.316 Y167.922 E0.05034
G1 X150.855 Y168.231 E0.0221
G1 X150.446 Y168.376 E0.01728
G1 X149.891 Y168.411 E0.02215
G1 X149.343 Y168.273 E0.02251
G1 X149.065 Y168.143 E0.01222
G1 X148.59 Y167.725 E0.0252
G1 X148.252 Y167.061 E0.02967
G1 X148.189 Y166.583 E0.0192
G1 X148.189 Y165.064 E0.06049
G1 X148.364 Y164.351 E0.02924
G1 X148.539 Y164.038 E0.01428
G1 X149.174 Y163.254 E0.04018
G1 X149.655 Y162.558 E0.03369
G1 X150.12 Y161.763 E0.03668
G1 X150.495 Y160.99 E0.03422
G1 X150.813 Y160.185 E0.03447
G1 X151.065 Y159.367 E0.03409
G1 X151.265 Y158.481 E0.03617
G1 X151.383 Y157.7 E0.03146
G1 X151.449 Y156.795 E0.03614
G1 X151.45 Y156.012 E0.03118
G1 X151.376 Y155.038 E0.0389
G1 X151.263 Y154.287 E0.03025
G1 X151.057 Y153.401 E0.03623
G1 X150.808 Y152.604 E0.03325
G1 X150.489 Y151.8 E0.03445
G1 X150.106 Y151.016 E0.03475
G1 X149.683 Y150.289 E0.0335
G1 X149.162 Y149.539 E0.03637
G1 X148.561 Y148.793 E0.03815
G1 X148.243 Y148.102 E0.03029
G1 X148.186 Y147.735 E0.01479
G1 X148.202 Y147.131 E0.02406
G1 X148.307 Y146.671 E0.01879
G1 X148.098 Y146.721 E0.00856
G1 X147.511 Y146.744 E0.0234
G1 X146.89 Y146.632 E0.02513
G1 X146.39 Y146.332 E0.02322
G1 X146.056 Y146.002 E0.0187
G1 X145.244 Y144.898 E0.05458
G1 X144.474 Y143.728 E0.05578
G1 X143.755 Y142.488 E0.05708
G1 X143.159 Y141.314 E0.05243
G1 X142.56 Y139.961 E0.05893
G1 X142.094 Y138.726 E0.05257
G1 X141.672 Y137.388 E0.05587
