;FLAVOR:RepRap
;TIME:383
;Filament used: 0.454267m
;Layer height: 0.2
;MINX:106.898
;MINY:120.569
;MINZ:0.3
;MAXX:173.102
;MAXY:179.411
;MAXZ:1.5
;Exported with Cura-DuetRRF v1.2.9 plugin by Thomas Kriechbaumer
;LINEARADVANCEPROCESSED
;Generated with Cura_SteamEngine 5.3.0
T0
M104 S215
M109 S215
M82 ;absolute extrusion mode

M83 ;relative extrusion mode
G1 F2700 E-0.6
;LAYER_COUNT:7
M572 S0.050000 D0 ;added by LinearAdvanceSettingPlugin
;LAYER:0
M107
M204 T5000
G1 F600 Z0.5
G0 F12000 X110.048 Y126.583 Z0.5
M204 P6000
;TYPE:SKIRT
G1 F600 Z0.3
G1 F1500 E0.6
G1 F1800 X110.742 Y126.132 E0.04704
G1 X111.4 Y125.858 E0.04051
G1 X112.233 Y125.67 E0.04854
G1 X113.052 Y125.614 E0.04666
G1 X115.841 Y125.389 E0.15903
G1 X118.591 Y125.088 E0.15724
G1 X121.346 Y124.708 E0.15807
G1 X124.033 Y124.26 E0.15483
G1 X126.763 Y123.724 E0.15813
G1 X129.474 Y123.112 E0.15796
G1 X132.159 Y122.425 E0.15752
G1 X134.787 Y121.673 E0.15536
G1 X137.112 Y120.941 E0.13854
G1 X138.019 Y120.667 E0.05385
G1 X138.55 Y120.592 E0.03048
G1 X139.765 Y120.569 E0.06907
G1 X141.031 Y120.577 E0.07196
G1 X141.664 Y120.619 E0.03606
G1 X142.145 Y120.709 E0.02781
G1 X142.908 Y120.939 E0.04529
G1 X144.717 Y121.524 E0.10806
G1 X147.356 Y122.293 E0.15623
G1 X150.061 Y123.001 E0.15892
G1 X152.741 Y123.621 E0.15635
G1 X155.468 Y124.172 E0.15813
G1 X158.171 Y124.638 E0.1559
G1 X160.914 Y125.032 E0.15751
G1 X163.628 Y125.344 E0.15527
G1 X167.402 Y125.651 E0.21521
G1 X168.115 Y125.733 E0.04079
G1 X168.875 Y125.959 E0.04507
G1 X169.623 Y126.345 E0.04784
G1 X169.947 Y126.578 E0.02268
G1 X170.554 Y127.164 E0.04795
G1 X170.904 Y127.62 E0.03267
G1 X171.712 Y129.043 E0.09301
G1 X171.793 Y129.159 E0.00804
G1 X172.62 Y130.655 E0.09716
G1 X172.919 Y131.414 E0.04637
G1 X173.076 Y132.181 E0.0445
G1 X173.102 Y132.596 E0.02363
G1 X173.054 Y133.389 E0.04515
G1 X172.95 Y133.968 E0.03344
G1 X172.817 Y134.629 E0.03832
G1 X172.353 Y137.326 E0.15554
G1 X171.962 Y140.064 E0.1572
G1 X171.652 Y142.776 E0.15515
G1 X171.41 Y145.594 E0.16076
G1 X171.255 Y148.31 E0.15462
G1 X171.175 Y151.083 E0.15768
G1 X171.173 Y153.855 E0.15755
G1 X171.249 Y156.625 E0.1575
G1 X171.401 Y159.342 E0.15467
G1 X171.635 Y162.118 E0.15834
G1 X171.947 Y164.874 E0.15764
G1 X172.338 Y167.632 E0.15833
G1 X172.943 Y171.091 E0.19959
G1 X173.036 Y171.57 E0.02773
G1 X173.102 Y172.266 E0.03974
G1 X173.049 Y173.08 E0.04636
G1 X172.816 Y174.008 E0.05438
G1 X172.426 Y174.757 E0.048
G1 X171.925 Y175.65 E0.0582
G1 X171.547 Y176.301 E0.04279
G1 X170.896 Y177.458 E0.07546
G1 X170.422 Y178.064 E0.04373
G1 X169.942 Y178.484 E0.03625
G1 X169.242 Y178.936 E0.04736
G1 X168.62 Y179.194 E0.03827
G1 X168.26 Y179.296 E0.02127
G1 X167.499 Y179.407 E0.04371
G1 X167.097 Y179.411 E0.02285
G1 X166.372 Y179.329 E0.04147
G1 X165.404 Y179.107 E0.05645
G1 X162.718 Y178.533 E0.15611
G1 X159.972 Y178.028 E0.15869
G1 X157.226 Y177.603 E0.15793
G1 X154.503 Y177.259 E0.156
G1 X151.783 Y176.995 E0.15532
G1 X148.981 Y176.801 E0.15964
G1 X146.247 Y176.69 E0.15552
G1 X143.483 Y176.656 E0.15711
G1 X140.132 Y176.719 E0.1905
G1 X139.081 Y176.705 E0.05974
G1 X137.771 Y176.667 E0.07449
G1 X135 Y176.665 E0.1575
G1 X132.228 Y176.742 E0.15761
G1 X129.495 Y176.895 E0.15558
G1 X126.732 Y177.129 E0.1576
G1 X123.984 Y177.439 E0.15718
G1 X121.241 Y177.827 E0.15746
G1 X118.492 Y178.298 E0.15852
G1 X115.829 Y178.83 E0.15435
G1 X113.686 Y179.315 E0.12488
G1 X113.052 Y179.402 E0.03637
G1 X112.294 Y179.391 E0.04309
G1 X111.888 Y179.328 E0.02335
G1 X111.155 Y179.112 E0.04343
G1 X110.386 Y178.72 E0.04906
G1 X110.056 Y178.483 E0.02309
G1 X109.458 Y177.909 E0.04711
G1 X109.11 Y177.461 E0.03224
G1 X108.292 Y176.022 E0.09408
G1 X108.211 Y175.907 E0.00799
G1 X107.393 Y174.439 E0.09552
G1 X107.08 Y173.647 E0.0484
G1 X106.98 Y173.244 E0.0236
G1 X106.898 Y172.463 E0.04463
G1 X106.946 Y171.67 E0.04515
G1 X107.053 Y171.073 E0.03447
G1 X107.183 Y170.429 E0.03734
G1 X107.647 Y167.733 E0.15549
G1 X108.038 Y164.995 E0.1572
G1 X108.348 Y162.28 E0.15532
G1 X108.59 Y159.465 E0.16059
G1 X108.745 Y156.749 E0.15462
G1 X108.825 Y153.976 E0.15768
G1 X108.827 Y151.204 E0.15755
G1 X108.751 Y148.434 E0.1575
G1 X108.599 Y145.717 E0.15467
G1 X108.365 Y142.94 E0.1584
G1 X108.053 Y140.185 E0.15759
G1 X107.66 Y137.414 E0.15907
G1 X107.057 Y133.966 E0.19895
G1 X106.964 Y133.485 E0.02785
G1 X106.898 Y132.794 E0.03945
G1 X106.951 Y131.979 E0.04642
G1 X107.185 Y131.05 E0.05445
G1 X107.594 Y130.266 E0.05026
G1 X108.095 Y129.376 E0.05805
G1 X108.393 Y128.866 E0.03357
G1 X108.657 Y128.385 E0.03119
G1 X109.116 Y127.587 E0.05232
G1 X109.571 Y127.002 E0.04212
G1 X110.048 Y126.583 E0.03609
G1 F2700 E-0.6
;MESH:F65_Frame_35mm.3mf
G0 F12000 X111.703 Y128.791
G0 X111.304 Y130.317
;TYPE:WALL-INNER
G1 F1500 E0.6
G1 F965.7 X111.039 Y130.911 E0.03445
G1 X110.797 Y131.211 E0.02042
G1 X111.297 Y131.124 E0.02688
G1 X111.923 Y131.202 E0.03342
G1 X111.55 Y130.853 E0.02706
G1 X111.397 Y130.587 E0.01626
G1 X111.304 Y130.317 E0.01513
G0 F12000 X111.711 Y129.188
G0 X112.853 Y128.69
G0 X113.798 Y129.246
G0 X114.181 Y130.283
G1 F969.8 X114.58 Y129.774 E0.03411
G1 X114.983 Y129.487 E0.0261
G1 X114.412 Y129.377 E0.03067
G1 F961.5 X114.03 Y129.228 E0.02181
G1 X114.21 Y129.755 E0.02963
G1 F969.8 X114.224 Y130.009 E0.01342
G1 X114.181 Y130.283 E0.01463
G0 F12000 X115.031 Y129.672
G0 X116.028 Y129.547
G0 X116.956 Y130.42
G0 X116.616 Y132.147
G1 F963.6 X117.107 Y131.997 E0.02725
G1 X117.45 Y131.997 E0.01821
G1 X117.699 Y132.052 E0.01354
G1 X117.46 Y131.767 E0.01975
G1 X117.167 Y131.156 E0.03597
G1 X117.001 Y131.641 E0.02721
G1 X116.616 Y132.147 E0.03375
G0 F12000 X117.993 Y132.385
G0 X118.546 Y133.718
G0 X116.831 Y135.208
G0 X116.376 Y134.677
G1 F838 X116.588 Y135.244 E0.03695
G1 F815.2 X116.658 Y135.872 E0.03965
G1 X117.063 Y135.372 E0.04038
G1 F838 X117.457 Y134.968 E0.03445
G1 X116.924 Y134.945 E0.03257
G1 X116.56 Y134.8 E0.02392
G1 X116.376 Y134.677 E0.01351
G0 F12000 X116.831 Y135.208
G0 X116.648 Y135.896
G1 F688.1 X116.446 Y136.39 E0.03968
G0 F12000 X116.089 Y137.106
G0 X115.865 Y137.415
G1 F833.3 X115.799 Y137.415 E0.00405
G1 X115.765 Y137.473 E0.00413
G1 X115.799 Y137.531 E0.00413
G1 X115.865 Y137.531 E0.00405
G1 X115.899 Y137.473 E0.00413
G0 F12000 X114.635 Y137.138
G1 F788.1 X115.025 Y137.463 E0.03295
G1 F900 X115.075 Y137.496 E0.00341
G1 X115.476 Y137.852 E0.03048
G1 X115.828 Y138.294 E0.03212
G1 F898.2 X116.109 Y138.803 E0.03311
G1 F889.3 X120.597 Y149.69 E0.67734
G1 F892.9 X120.655 Y150.207 E0.02981
G1 F900 X120.622 Y150.681 E0.02701
G1 F887.6 X120.462 Y151.209 E0.0318
G1 F853.9 X120.287 Y151.555 E0.02323
G1 F857.1 X120.049 Y151.823 E0.02139
G1 F892.9 X119.721 Y152.106 E0.02482
G1 F900 X119.33 Y152.331 E0.02564
G1 F845.9 X118.767 Y152.53 E0.03611
G1 X119.33 Y152.73 E0.03613
G1 F900 X119.721 Y152.953 E0.02558
G1 F862.1 X120.272 Y153.48 E0.04524
G1 F838 X120.468 Y153.847 E0.0254
G1 F873.8 X120.607 Y154.304 E0.02796
G1 F900 X120.655 Y154.703 E0.02284
G1 F892.9 X120.6 Y155.362 E0.03789
G1 X116.109 Y166.257 E0.67515
G1 F900 X115.897 Y166.658 E0.02578
G1 F867.1 X115.474 Y167.228 E0.04188
G1 F752.5 X114.685 Y167.899 E0.07041
G1 F735.3 X114.963 Y167.906 E0.01935
G1 F818.2 X115.61 Y168.036 E0.04126
G1 F872.1 X115.965 Y168.24 E0.02402
G1 F778.5 X116.427 Y168.621 E0.03935
G1 F729.3 X116.343 Y167.647 E0.06857
G1 F834.9 X116.412 Y167.009 E0.03932
G1 F898.2 X116.574 Y166.443 E0.03353
G1 X120.947 Y155.832 E0.65362
G1 F894.6 X121.109 Y155.411 E0.02579
G1 F889.3 X121.512 Y154.79 E0.04258
G1 F896.4 X121.776 Y154.584 E0.01911
G1 F689.1 X122.216 Y154.116 E0.04768
G1 F632.9 X121.937 Y154.032 E0.02355
G1 F806.5 X121.263 Y153.754 E0.04625
G1 F860.4 X120.847 Y153.395 E0.03267
G1 F824.2 X120.743 Y153.214 E0.01296
G1 F862.1 X120.609 Y152.766 E0.02775
G1 F900 X120.609 Y152.293 E0.02688
G1 F868.7 X120.798 Y151.745 E0.03413
G1 X121.261 Y151.306 E0.03757
G1 F900 X121.614 Y151.149 E0.02196
G1 F833.3 X122.176 Y151.053 E0.035
G1 F676.7 X122.501 Y151.027 E0.02465
G1 F720 X122.042 Y150.677 E0.04101
G1 F900 X121.559 Y150.305 E0.03465
G1 F892.9 X121.167 Y149.774 E0.03781
G1 X120.948 Y149.227 E0.03376
G1 F898.2 X116.572 Y138.612 E0.65389
G1 X116.412 Y138.053 E0.03311
G1 F900 X116.352 Y137.477 E0.03292
G1 X116.396 Y136.894 E0.03323
G1 F785.3 X116.446 Y136.39 E0.03299
G1 X115.965 Y136.821 E0.04207
G1 F900 X115.781 Y136.931 E0.01218
G1 X115.274 Y137.105 E0.03047
G1 F788.1 X114.635 Y137.138 E0.04153
G1 F689.1 X114.136 Y136.927 E0.04022
G0 F12000 X113.507 Y136.588
G0 X113.476 Y135.879
G1 F831.8 X113.372 Y136.258 E0.02417
G1 X113.077 Y136.704 E0.03289
G1 X112.922 Y136.84 E0.01268
G1 X113.473 Y136.847 E0.03389
G1 X113.604 Y136.87 E0.00818
G1 F788.1 X114.117 Y136.925 E0.03349
G1 X113.721 Y136.422 E0.04155
G1 F831.8 X113.476 Y135.879 E0.03664
G0 F12000 X113.484 Y136.612
G0 X112.045 Y136.937
G0 X110.839 Y136.241
G0 X110.852 Y135.021
G0 X111.526 Y134.247
G1 F965.7 X110.882 Y134.162 E0.03441
G1 X110.428 Y133.934 E0.02691
G1 X110.554 Y134.214 E0.01626
G1 F959.5 X110.68 Y134.889 E0.03661
G1 X110.976 Y134.568 E0.02328
G1 F965.7 X111.207 Y134.391 E0.01542
G1 X111.526 Y134.247 E0.01854
G0 F12000 X110.852 Y135.021
G0 X110.839 Y136.241
G0 X113.985 Y137.182
G0 X114.954 Y137.667
G0 X115.69 Y138.46
G0 X121.221 Y150.655
G1 F721.2 X121.145 Y150.655 E0.00539
G1 X121.105 Y150.722 E0.00554
G1 X121.144 Y150.789 E0.0055
G1 X121.221 Y150.789 E0.00546
G1 X121.261 Y150.722 E0.00554
G0 F12000 X122.501 Y151.027
G1 F601.6 X122.943 Y151.241 E0.04176
G1 F598.4 X123.373 Y151.675 E0.05223
G0 F12000 X123.756 Y152.241
G0 X123.406 Y153.334
G1 F590.6 X122.942 Y153.819 E0.05814
G1 F601.6 X122.726 Y153.945 E0.02126
G1 F579.2 X122.216 Y154.116 E0.04751
G0 F12000 X121.257 Y154.345
G1 F728.2 X121.218 Y154.411 E0.00539
G1 X121.142 Y154.411 E0.00534
G1 X121.103 Y154.345 E0.00539
G1 X121.142 Y154.279 E0.00539
G1 X121.218 Y154.279 E0.00534
G0 F12000 X120.132 Y152.53
G1 F765.3 X120.095 Y152.593 E0.00488
G1 X120.023 Y152.593 E0.00481
G1 X119.986 Y152.53 E0.00488
G1 X120.023 Y152.467 E0.00488
G1 X120.095 Y152.467 E0.00481
G0 F12000 X118.767 Y152.53
G1 F850.7 X118.32 Y152.529 E0.02688
G0 F12000 X121.588 Y153.69
G0 X123.733 Y152.841
G0 X123.406 Y153.334
G1 F612.2 X123.922 Y152.932 E0.05465
G1 F648.4 X124.276 Y152.748 E0.03147
G1 F634.7 X124.768 Y152.576 E0.04201
G1 F604.8 X125.024 Y152.522 E0.02213
G1 F617.3 X124.413 Y152.366 E0.05226
G1 F648.4 X124.089 Y152.22 E0.02804
G1 F784 X123.743 Y151.841 E0.03348
G1 F742.6 X123.373 Y151.675 E0.02794
G1 X123.396 Y152.109 E0.02994
G1 F784 X123.588 Y152.53 E0.03019
G1 F637.4 X123.516 Y153.019 E0.03967
G1 F602.4 X123.406 Y153.334 E0.02833
G0 F12000 X123.733 Y152.841
G0 X125.024 Y152.522
G1 F594.5 X125.19 Y152.53 E0.0143
G1 F596.8 X137.719 Y152.53 E1.07387
G0 F12000 X138.482 Y152.53
G0 X139.002 Y152.53
G1 F900 X139.571 Y152.959 E0.0405
G1 X140 Y153.527 E0.04046
G1 X140.429 Y152.959 E0.04046
G1 X140.998 Y152.53 E0.0405
G1 X140.429 Y152.102 E0.04047
G1 X140 Y151.532 E0.04055
G1 X139.571 Y152.102 E0.04055
G1 X139.002 Y152.53 E0.04047
G0 F12000 X137.719 Y152.53
G1 F706.4 X138.134 Y152.707 E0.03267
G1 F885.8 X138.55 Y152.855 E0.0255
G1 F900 X138.938 Y153.079 E0.02546
G1 X139.217 Y153.313 E0.0207
G1 X139.449 Y153.589 E0.02049
G1 X139.675 Y153.981 E0.02572
G1 F885.8 X139.823 Y154.396 E0.02544
G1 F706.4 X140 Y154.81 E0.0326
G1 X140.177 Y154.396 E0.0326
G1 F885.8 X140.325 Y153.981 E0.02544
G1 F900 X140.551 Y153.589 E0.02572
G1 X140.783 Y153.313 E0.02049
G1 X141.064 Y153.077 E0.02086
G1 X141.45 Y152.855 E0.02531
G1 F885.8 X141.866 Y152.707 E0.0255
G1 F706.4 X142.281 Y152.53 E0.03267
G1 X141.866 Y152.353 E0.03267
G1 F885.8 X141.45 Y152.205 E0.0255
G1 F900 X141.064 Y151.983 E0.02531
G1 X140.782 Y151.748 E0.02086
G1 X140.547 Y151.466 E0.02086
G1 X140.325 Y151.08 E0.02531
G1 F884.1 X140.176 Y150.663 E0.02562
G1 F705.3 X140 Y150.25 E0.03256
G1 X139.824 Y150.663 E0.03256
G1 F884.1 X139.675 Y151.08 E0.02562
G1 F900 X139.453 Y151.466 E0.02531
G1 X139.218 Y151.748 E0.02086
G1 X138.936 Y151.983 E0.02086
G1 X138.55 Y152.205 E0.02531
G1 F885.8 X138.134 Y152.353 E0.0255
G1 F706.4 X137.719 Y152.53 E0.03267
G0 F12000 X138.482 Y152.53
G0 X139.424 Y153.105
G0 X140 Y154.047
G0 X140 Y154.81
G1 F593.7 X140 Y159.125 E0.3718
G1 F619 X139.941 Y159.406 E0.02373
G1 F666.7 X139.742 Y159.991 E0.04741
G1 F689.1 X139.537 Y160.357 E0.03114
G1 F713.2 X139.233 Y160.683 E0.03197
G1 X139.608 Y160.559 E0.02833
G1 F689.1 X140.079 Y160.529 E0.03503
G1 X140.392 Y160.559 E0.02334
G1 F713.2 X140.767 Y160.683 E0.02833
G1 X140.464 Y160.357 E0.03192
G1 F689.1 X140.258 Y159.991 E0.03118
G1 F666.7 X140.059 Y159.406 E0.04741
G1 F619 X140 Y159.125 E0.02373
G0 F12000 X140 Y159.889
G0 X138.942 Y160.865
G1 F884.1 X138.539 Y161.084 E0.02654
G1 F910.9 X137.849 Y161.279 E0.04026
G1 F909.1 X136.421 Y161.28 E0.08035
G1 F896.4 X135.96 Y161.389 E0.02703
G1 F898.2 X135.356 Y161.682 E0.03823
G1 F903.6 X135.09 Y161.895 E0.01929
G1 F900 X134.683 Y162.42 E0.03776
G1 F898.2 X134.535 Y162.735 E0.01982
G1 F900 X134.404 Y163.163 E0.02544
G1 F892.9 X134.322 Y164.455 E0.07417
G1 F842.7 X134.204 Y164.882 E0.02689
G1 F797.9 X133.974 Y165.337 E0.03269
G1 F792.3 X133.481 Y165.819 E0.04452
G1 X133.732 Y165.984 E0.01939
G1 X134.023 Y166.363 E0.03085
G1 F813.7 X134.153 Y166.728 E0.02436
G1 F857.1 X134.171 Y166.962 E0.01401
G1 F833.3 X134.181 Y166.317 E0.0396
G1 F792.3 X134.256 Y165.043 E0.0824
G1 F836.4 X134.322 Y164.455 E0.03619
G0 F12000 X134.171 Y166.962
G1 F889.3 X134.169 Y167.103 E0.00811
G1 F887.6 X134.097 Y168.39 E0.07429
G0 F12000 X135.036 Y170.566
G1 F1046.5 X134.722 Y170.366 E0.0182
G1 X134.349 Y170.022 E0.0248
G1 X134.227 Y170.28 E0.01395
G1 X133.914 Y170.633 E0.02306
G1 X135.036 Y170.566 E0.05494
G0 F12000 X119.064 Y171.471
G0 X118.768 Y171.094
G1 F666.7 X118.843 Y171.391 E0.0235
G1 X118.834 Y171.877 E0.0373
G1 X118.738 Y172.162 E0.02308
G1 F704.2 X119.32 Y171.947 E0.04507
G1 F792.3 X119.907 Y171.915 E0.03796
G1 F872.1 X120.538 Y171.893 E0.03703
G1 F896.4 X132.783 Y171.163 E0.7
G1 F870.4 X133.189 Y171.13 E0.02394
G1 F875.5 X133.691 Y171.112 E0.02935
G1 F900 X135.673 Y170.995 E0.11285
G1 F901.8 X136.551 Y170.944 E0.04989
G1 F896.4 X137.294 Y170.896 E0.04249
G1 F894.6 X137.996 Y171.113 E0.04201
G1 F900 X138.268 Y171.253 E0.01739
G1 F708.7 X138.772 Y171.48 E0.0399
G1 F647.5 X138.681 Y171.21 E0.02251
G1 F803.6 X138.563 Y170.67 E0.03519
G1 F790.9 X138.528 Y170.116 E0.0359
G1 F621.5 X138.532 Y169.841 E0.02264
G1 F687 X137.934 Y170.11 E0.04882
G1 F894.6 X137.322 Y170.38 E0.03825
G1 F884.1 X136.234 Y170.469 E0.06316
G1 F889.3 X135.595 Y170.316 E0.03779
G1 F900 X135.209 Y170.134 E0.02426
G1 X134.884 Y169.9 E0.02276
G1 X134.62 Y169.632 E0.02138
G1 X134.357 Y169.227 E0.02745
G1 X134.201 Y168.834 E0.02403
G1 F887.6 X134.097 Y168.39 E0.02628
G1 F882.4 X134.022 Y169.595 E0.06999
G1 F894.6 X133.827 Y170.043 E0.02794
G1 F900 X133.422 Y170.44 E0.03223
G1 F875.5 X133.114 Y170.611 E0.02058
G1 F872.1 X132.662 Y170.668 E0.02672
G1 F896.4 X132.191 Y170.571 E0.02744
G1 F900 X131.948 Y170.444 E0.01558
G1 X131.678 Y170.22 E0.01994
G1 X131.456 Y169.864 E0.02385
G1 X131.182 Y170.23 E0.02599
G1 X130.665 Y170.587 E0.03571
G1 X130.419 Y170.698 E0.01534
G1 F898.2 X129.848 Y170.843 E0.03355
G1 X120.51 Y171.394 E0.53273
G1 F875.5 X119.938 Y171.392 E0.03342
G1 F795.1 X119.33 Y171.331 E0.03932
G1 F705.3 X118.768 Y171.094 E0.04423
G0 F12000 X119.064 Y171.471
G0 X117.704 Y173.005
G1 F974 X117.217 Y173.075 E0.02584
G1 X116.631 Y172.931 E0.03169
G1 X117.002 Y173.424 E0.0324
G1 X117.167 Y173.905 E0.02671
G1 X117.465 Y173.287 E0.03603
G1 X117.704 Y173.005 E0.01941
G0 F12000 X118.546 Y171.847
G0 X118.062 Y170.582
G0 X116.83 Y169.851
G0 X116.376 Y170.383
G1 F838 X116.56 Y170.26 E0.01351
G1 X116.924 Y170.115 E0.02392
G1 X117.451 Y170.092 E0.0322
G1 X117.063 Y169.688 E0.03419
G1 F816.7 X116.651 Y169.165 E0.0417
G1 X116.588 Y169.815 E0.0409
G1 F838 X116.376 Y170.383 E0.03701
G0 F12000 X116.83 Y169.851
G0 X116.639 Y169.133
G1 F687 X116.427 Y168.621 E0.04126
G0 F12000 X116.091 Y167.953
G0 X115.901 Y167.578
G1 F842.7 X115.867 Y167.635 E0.00403
G1 X115.802 Y167.635 E0.00395
G1 X115.769 Y167.578 E0.004
G1 X115.803 Y167.521 E0.00403
G1 X115.867 Y167.521 E0.00388
