;FLAVOR:RepRap
;TIME:526
;Filament used: 0.622207m
;Layer height: 0.2
;MINX:100.466
;MINY:115.858
;MINZ:0.3
;MAXX:179.534
;MAXY:184.123
;MAXZ:1.5
;Exported with Cura-DuetRRF v1.2.9 plugin by Thomas Kriechbaumer
;LINEARADVANCEPROCESSED
;Generated with Cura_SteamEngine 5.3.0
T0
M104 S215
M109 S215
M82 ;absolute extrusion mode

M83 ;relative extrusion mode
G1 F2700 E-0.4
;LAYER_COUNT:7
M572 S0.050000 D0 ;added by LinearAdvanceSettingPlugin
;LAYER:0
M107
M204 T5000
G1 F600 Z0.5
G0 F12000 X103.405 Y117.299 Z0.5
M204 P6000
;TYPE:SKIRT
G1 F600 Z0.3
G1 F1500 E0.4
G1 F1800 X104.004 Y116.769 E0.04546
G1 X104.648 Y116.361 E0.04333
G1 X105.342 Y116.073 E0.04271
G1 X106.003 Y115.923 E0.03852
G1 X106.786 Y115.877 E0.04458
G1 X107.36 Y115.93 E0.03276
G1 X108.178 Y116.072 E0.04719
G1 X110.912 Y116.507 E0.15735
G1 X113.624 Y116.859 E0.15544
G1 X116.418 Y117.142 E0.15962
G1 X119.152 Y117.341 E0.1558
G1 X121.916 Y117.463 E0.15725
G1 X124.69 Y117.509 E0.15769
G1 X127.461 Y117.474 E0.15751
G1 X130.196 Y117.364 E0.15558
G1 X132.994 Y117.172 E0.15941
G1 X135.706 Y116.907 E0.15488
G1 X136.316 Y116.828 E0.03496
G1 X138.718 Y116.556 E0.1374
G1 X139.719 Y116.539 E0.0569
G1 X141.066 Y116.548 E0.07656
G1 X141.637 Y116.585 E0.03252
G1 X144.771 Y116.965 E0.17943
G1 X147.526 Y117.219 E0.15725
G1 X150.252 Y117.393 E0.15525
G1 X153.059 Y117.492 E0.15964
G1 X155.83 Y117.511 E0.1575
G1 X158.566 Y117.453 E0.15554
G1 X161.337 Y117.316 E0.15769
G1 X164.094 Y117.102 E0.15717
G1 X166.825 Y116.81 E0.15611
G1 X169.584 Y116.437 E0.15824
G1 X172.614 Y115.936 E0.17456
G1 X173.432 Y115.858 E0.0467
G1 X174.297 Y115.978 E0.04964
G1 X174.668 Y116.077 E0.02182
G1 X175.384 Y116.376 E0.0441
G1 X175.968 Y116.747 E0.03932
G1 X176.26 Y116.988 E0.02152
G1 X176.752 Y117.509 E0.04073
G1 X177.416 Y118.4 E0.06316
G1 X177.494 Y118.484 E0.00652
G1 X178.771 Y120.209 E0.12199
G1 X179.18 Y120.951 E0.04816
G1 X179.342 Y121.376 E0.02585
G1 X179.528 Y122.22 E0.04912
G1 X179.534 Y123.001 E0.04439
G1 X179.295 Y125.023 E0.11573
G1 X179.272 Y125.129 E0.00616
G1 X179.1 Y126.517 E0.07949
G1 X178.345 Y129.833 E0.1933
G1 X177.817 Y132.52 E0.15564
G1 X177.364 Y135.226 E0.15594
G1 X176.985 Y137.97 E0.15744
G1 X176.683 Y140.727 E0.15764
G1 X176.459 Y143.491 E0.15761
G1 X176.313 Y146.274 E0.1584
G1 X176.247 Y148.983 E0.15402
G1 X176.258 Y151.764 E0.15807
G1 X176.348 Y154.536 E0.15764
G1 X176.516 Y157.299 E0.15733
G1 X176.757 Y160.015 E0.15498
G1 X177.086 Y162.815 E0.16024
G1 X177.483 Y165.524 E0.15562
G1 X177.962 Y168.251 E0.15737
G1 X178.517 Y170.963 E0.15734
G1 X179.1 Y173.48 E0.14685
G1 X179.263 Y174.801 E0.07565
G1 X179.292 Y174.916 E0.00674
G1 X179.526 Y176.951 E0.11643
G1 X179.514 Y177.745 E0.04513
G1 X179.346 Y178.595 E0.04925
G1 X179.148 Y179.156 E0.03381
G1 X178.807 Y179.747 E0.03878
G1 X178.033 Y180.79 E0.07382
G1 X177.486 Y181.505 E0.05117
G1 X176.758 Y182.484 E0.06934
G1 X176.291 Y182.984 E0.03889
G1 X175.697 Y183.441 E0.0426
G1 X175.352 Y183.639 E0.02261
G1 X174.656 Y183.927 E0.04281
G1 X173.997 Y184.077 E0.03841
G1 X173.224 Y184.123 E0.04401
G1 X172.518 Y184.041 E0.0404
G1 X171.965 Y183.899 E0.03245
G1 X170.657 Y183.468 E0.07828
G1 X170.606 Y183.458 E0.00295
G1 X169.925 Y183.229 E0.04084
G1 X167.245 Y182.409 E0.15929
G1 X164.599 Y181.681 E0.15598
G1 X161.919 Y181.025 E0.15682
G1 X159.194 Y180.438 E0.15843
G1 X156.51 Y179.94 E0.15516
G1 X153.771 Y179.511 E0.15758
G1 X151.014 Y179.158 E0.15798
G1 X148.259 Y178.885 E0.15735
G1 X145.526 Y178.691 E0.15573
G1 X142.76 Y178.575 E0.15735
G1 X139.987 Y178.535 E0.15763
G1 X137.217 Y178.575 E0.15746
G1 X134.446 Y178.693 E0.15764
G1 X131.719 Y178.887 E0.15539
G1 X128.958 Y179.161 E0.1577
G1 X126.209 Y179.513 E0.15752
G1 X123.466 Y179.944 E0.15782
G1 X120.774 Y180.445 E0.15563
G1 X118.073 Y181.025 E0.15702
G1 X115.369 Y181.689 E0.15825
G1 X112.702 Y182.424 E0.15724
G1 X110.07 Y183.23 E0.15645
G1 X109.384 Y183.465 E0.04121
G1 X109.266 Y183.493 E0.00689
G1 X107.706 Y184.008 E0.09337
G1 X106.793 Y184.121 E0.05229
G1 X106.4 Y184.118 E0.02234
G1 X105.699 Y184.021 E0.04022
G1 X105.332 Y183.923 E0.02159
G1 X104.618 Y183.625 E0.04397
G1 X104.031 Y183.253 E0.0395
G1 X103.742 Y183.014 E0.02132
G1 X103.247 Y182.491 E0.04093
G1 X102.567 Y181.579 E0.06466
G1 X102.507 Y181.517 E0.0049
G1 X101.227 Y179.788 E0.12227
G1 X100.819 Y179.047 E0.04808
G1 X100.658 Y178.624 E0.02572
G1 X100.472 Y177.78 E0.04912
G1 X100.466 Y176.999 E0.04439
G1 X100.705 Y174.977 E0.11573
G1 X100.728 Y174.871 E0.00616
G1 X100.887 Y173.586 E0.07359
G1 X101.655 Y170.167 E0.19917
G1 X102.183 Y167.48 E0.15564
G1 X102.636 Y164.774 E0.15594
G1 X103.015 Y162.03 E0.15744
G1 X103.317 Y159.273 E0.15764
G1 X103.541 Y156.509 E0.15761
G1 X103.687 Y153.726 E0.1584
G1 X103.753 Y151.006 E0.15464
G1 X103.742 Y148.236 E0.15744
G1 X103.652 Y145.464 E0.15764
G1 X103.484 Y142.7 E0.15739
G1 X103.243 Y139.985 E0.15492
G1 X102.913 Y137.176 E0.16075
G1 X102.517 Y134.476 E0.1551
G1 X102.038 Y131.748 E0.15742
G1 X101.483 Y129.037 E0.15728
G1 X100.9 Y126.519 E0.1469
G1 X100.737 Y125.197 E0.07571
G1 X100.708 Y125.083 E0.00669
G1 X100.474 Y123.042 E0.11677
G1 X100.486 Y122.253 E0.04485
G1 X100.654 Y121.405 E0.04913
G1 X100.852 Y120.843 E0.03387
G1 X101.194 Y120.252 E0.03881
G1 X101.993 Y119.176 E0.07617
G1 X102.514 Y118.495 E0.04873
G1 X103.405 Y117.299 E0.08477
G1 F2700 E-0.4
;MESH:F75_45_Frame_1.5mm.3mf
G0 F12000 X105.441 Y119.185
G0 X105.577 Y119.993
M204 P800
;TYPE:WALL-OUTER
G1 F1500 E0.4
G1 F664.7 X105.694 Y119.678 E0.02586
G1 F667.7 X105.936 Y119.382 E0.02929
G1 F668.6 X106.256 Y119.194 E0.02839
G1 F669.6 X106.715 Y119.126 E0.03545
G1 F668.6 X106.968 Y119.175 E0.01971
G1 F667.7 X107.315 Y119.358 E0.03006
G1 F666.7 X107.476 Y119.512 E0.0171
G1 F765.3 X107.633 Y120.097 E0.04049
G1 F900 X107.588 Y120.518 E0.02406
G1 X107.446 Y120.801 E0.018
G1 F949.4 X107.162 Y121.028 E0.01959
G1 F1046.5 X106.942 Y121.117 E0.0116
G1 F1034.5 X106.531 Y121.181 E0.02057
G1 F939.5 X106.208 Y121.113 E0.01797
G1 F900 X105.924 Y120.904 E0.02004
G1 X105.768 Y120.7 E0.0146
G1 F860.4 X105.623 Y120.29 E0.02585
G1 F734.1 X105.577 Y119.993 E0.02094
G0 F12000 X105.664 Y119.759
G0 X105.409 Y119.662
G0 X104.377 Y121.153
G0 X104.209 Y120.894
G1 F714.3 X104.031 Y121.071 E0.01798
G1 F664.7 X103.713 Y121.274 E0.02903
G1 F665.7 X103.48 Y121.499 E0.02489
G1 F664.7 X103.284 Y121.767 E0.02555
G1 F666.7 X103.144 Y122.061 E0.02499
G1 X103.059 Y122.386 E0.02578
G1 F665.7 X103.034 Y122.715 E0.02535
G1 X103.067 Y123.046 E0.02556
G1 F664.7 X103.164 Y123.363 E0.02551
G1 F661.8 X103.337 Y123.698 E0.02914
G1 F762.7 X103.389 Y124.015 E0.02154
G1 F900 X103.502 Y124.544 E0.03075
G1 X103.488 Y124.839 E0.01679
G1 F757.6 X103.536 Y125.054 E0.01487
G1 F661.8 X103.43 Y125.464 E0.03273
G1 F667.7 X103.443 Y126.07 E0.04644
G1 F666.7 X103.528 Y126.365 E0.02356
G1 F665.7 X103.657 Y126.633 E0.02286
G1 F667.7 X104.043 Y127.086 E0.0456
G1 F668.6 X104.294 Y127.261 E0.02341
G1 F667.7 X104.845 Y127.464 E0.04499
G1 X105.147 Y127.495 E0.02326
G1 F666.7 X105.449 Y127.472 E0.02324
G1 F660.8 X105.861 Y127.368 E0.03289
G1 F698.8 X106.025 Y127.37 E0.01201
G1 F809.4 X106.098 Y127.41 E0.00526
G1 F891.1 X106.636 Y127.432 E0.03091
G1 F761.4 X107.197 Y127.554 E0.03857
G1 F662.7 X107.716 Y127.791 E0.04404
G1 F657.9 X108.132 Y127.879 E0.03306
G1 F755 X108.725 Y128.191 E0.0454
G1 F900 X109.103 Y128.454 E0.02617
G1 X109.362 Y128.718 E0.02102
G1 X109.608 Y129.076 E0.02469
G1 X119.429 Y147.048 E1.16405
G1 X119.558 Y147.346 E0.01846
G1 X119.637 Y147.707 E0.021
G1 X119.641 Y148.042 E0.01904
G1 X119.586 Y148.348 E0.01767
G1 X119.445 Y148.708 E0.02197
G1 X119.255 Y148.993 E0.01947
G1 X119.019 Y149.234 E0.01917
G1 X118.642 Y149.492 E0.02596
G1 X117.947 Y149.703 E0.04128
G1 X117.815 Y149.883 E0.01269
G1 X117.815 Y150.117 E0.0133
G1 X117.948 Y150.297 E0.01272
G1 X118.642 Y150.508 E0.04123
G1 X119.019 Y150.766 E0.02596
G1 F901.8 X119.254 Y151.007 E0.01909
G1 X119.455 Y151.311 E0.02067
G1 F900 X119.586 Y151.652 E0.02076
G1 X119.641 Y151.958 E0.01767
G1 X119.637 Y152.293 E0.01904
G1 X119.565 Y152.636 E0.01992
G1 X119.431 Y152.948 E0.0193
G1 X109.596 Y170.944 E1.16563
G1 X109.391 Y171.247 E0.02079
G1 X109.099 Y171.549 E0.02388
G1 X108.756 Y171.791 E0.02386
G1 F757.6 X108.066 Y172.134 E0.05203
G1 F660.8 X107.717 Y172.209 E0.02763
G1 F662.7 X107.198 Y172.446 E0.04404
G1 F761.4 X106.637 Y172.568 E0.03857
G1 F887.6 X106.098 Y172.592 E0.0311
G1 F753.8 X105.764 Y172.607 E0.02269
G1 F663.7 X105.45 Y172.528 E0.02495
G1 F666.7 X105.147 Y172.505 E0.02332
G1 F667.7 X104.845 Y172.536 E0.02326
G1 X104.294 Y172.739 E0.04499
G1 F668.6 X104.043 Y172.914 E0.02341
G1 F667.7 X103.655 Y173.372 E0.04599
G1 F666.7 X103.528 Y173.632 E0.0222
G1 X103.443 Y173.929 E0.0237
G1 F667.7 X103.43 Y174.534 E0.04636
G1 F661.8 X103.536 Y174.945 E0.03281
G1 F757.6 X103.488 Y175.159 E0.01481
G1 F900 X103.502 Y175.453 E0.01673
G1 X103.389 Y175.984 E0.03086
G1 F833.3 X103.402 Y176.064 E0.00498
G1 F714.3 X103.337 Y176.302 E0.01767
G1 F661.8 X103.164 Y176.637 E0.02914
G1 F664.7 X103.067 Y176.954 E0.02551
G1 F665.7 X103.034 Y177.285 E0.02556
G1 F664.7 X103.06 Y177.616 E0.02555
G1 F665.7 X103.143 Y177.933 E0.02518
G1 X103.287 Y178.237 E0.02585
G1 F664.7 X103.48 Y178.501 E0.02517
G1 F665.7 X103.714 Y178.727 E0.025
G1 F666.7 X103.991 Y178.906 E0.02531
G1 F721.2 X104.208 Y179.108 E0.02103
G1 F836.4 X104.239 Y179.18 E0.00479
G1 F896.4 X104.583 Y179.566 E0.0295
G1 F743.8 X104.848 Y179.851 E0.02676
G1 F648.4 X104.999 Y180.429 E0.04713
G1 F665.7 X105.129 Y180.695 E0.02275
G1 F667.7 X105.513 Y181.143 E0.04521
G1 F668.6 X106.035 Y181.444 E0.0461
G1 F667.7 X106.622 Y181.55 E0.0457
G1 F666.7 X106.924 Y181.527 E0.02324
G1 X107.212 Y181.454 E0.0228
G1 F667.7 X107.743 Y181.163 E0.04639
G1 F661.8 X108.033 Y180.879 E0.03138
G1 F758.9 X108.256 Y180.801 E0.01593
G1 F900 X108.502 Y180.642 E0.01665
G1 X109.016 Y180.473 E0.03075
G1 F834.9 X109.079 Y180.422 E0.00497
G1 F715.4 X109.321 Y180.36 E0.01786
G1 F665.7 X109.699 Y180.344 E0.02907
G1 X110.021 Y180.265 E0.02548
G1 F664.7 X110.322 Y180.134 E0.02526
G1 F666.7 X110.599 Y179.944 E0.02577
G1 X110.828 Y179.715 E0.02485
G1 F664.7 X111.018 Y179.438 E0.02585
G1 X111.156 Y179.134 E0.02569
G1 X111.229 Y178.821 E0.02473
G1 F662.7 X111.249 Y178.438 E0.0296
G1 F715.4 X111.312 Y178.197 E0.01781
G1 F833.3 X111.363 Y178.134 E0.00498
G1 F900 X111.522 Y177.651 E0.0289
G1 F760.1 X111.758 Y177.17 E0.03606
G1 F660.8 X112.037 Y176.884 E0.03093
G1 F764 X112.111 Y176.934 E0.00598
G1 F900 X112.392 Y176.651 E0.02267
G1 X113.026 Y176.248 E0.0427
G1 X137.467 Y169.749 E1.43744
G1 X138.053 Y169.703 E0.03341
G1 X138.653 Y169.876 E0.03549
G1 X139.144 Y170.233 E0.0345
G1 X139.465 Y170.714 E0.03287
G1 X139.586 Y171.068 E0.02126
G1 X139.634 Y171.409 E0.01957
G1 X139.695 Y171.541 E0.00826
G1 X139.874 Y171.682 E0.01295
G1 X140.126 Y171.682 E0.01432
G1 X140.305 Y171.541 E0.01295
G1 X140.366 Y171.409 E0.00826
G1 X140.414 Y171.068 E0.01957
G1 X140.535 Y170.714 E0.02126
G1 X140.856 Y170.233 E0.03287
G1 X141.347 Y169.876 E0.0345
G1 X141.947 Y169.703 E0.03549
G1 X142.533 Y169.749 E0.03341
G1 X166.974 Y176.248 E1.43744
G1 X167.608 Y176.651 E0.0427
G1 F750 X167.787 Y176.683 E0.0124
G1 F649.4 X168.243 Y177.17 E0.05256
G1 F758.9 X168.478 Y177.651 E0.03609
G1 F900 X168.637 Y178.134 E0.0289
G1 F833.3 X168.688 Y178.197 E0.00498
G1 F714.3 X168.751 Y178.438 E0.01784
G1 F661.8 X168.771 Y178.821 E0.02965
G1 F663.7 X168.844 Y179.134 E0.02477
G1 F664.7 X168.982 Y179.438 E0.02569
G1 X169.172 Y179.715 E0.02585
G1 F666.7 X169.401 Y179.944 E0.02485
G1 X169.678 Y180.134 E0.02577
G1 F664.7 X169.979 Y180.265 E0.02526
G1 F665.7 X170.301 Y180.344 E0.02548
G1 X170.681 Y180.359 E0.02922
G1 F762.7 X170.984 Y180.472 E0.02169
G1 F900 X171.467 Y180.629 E0.02887
G1 X171.744 Y180.801 E0.01853
G1 F758.9 X171.966 Y180.879 E0.01586
G1 F661.8 X172.257 Y181.163 E0.03143
G1 F667.7 X172.788 Y181.454 E0.04639
G1 X173.076 Y181.527 E0.02276
G1 F666.7 X173.378 Y181.55 E0.02324
G1 F667.7 X173.965 Y181.444 E0.0457
G1 F669.6 X174.487 Y181.143 E0.04603
G1 F667.7 X174.871 Y180.695 E0.04521
G1 F665.7 X175.001 Y180.429 E0.02275
G1 F664.7 X175.088 Y180.124 E0.02441
G1 F764 X175.418 Y179.564 E0.04352
G1 F898.2 X175.762 Y179.181 E0.02932
G1 F764 X176.01 Y178.906 E0.02479
G1 F667.7 X176.286 Y178.727 E0.0252
G1 F665.7 X176.52 Y178.501 E0.025
G1 X176.713 Y178.237 E0.02513
G1 F667.7 X176.857 Y177.933 E0.02577
G1 F666.7 X176.94 Y177.616 E0.02514
G1 F664.7 X176.966 Y177.285 E0.02555
G1 X176.933 Y176.954 E0.0256
G1 X176.836 Y176.637 E0.02551
G1 F661.8 X176.664 Y176.303 E0.02904
G1 F714.3 X176.598 Y176.064 E0.01776
G1 F833.3 X176.611 Y175.984 E0.00498
G1 F900 X176.505 Y175.487 E0.02888
G1 X176.512 Y175.159 E0.01865
G1 F756.3 X176.449 Y174.998 E0.01169
G1 F660.8 X176.57 Y174.534 E0.03712
G1 F667.7 X176.557 Y173.929 E0.04636
G1 F665.7 X176.472 Y173.632 E0.02374
G1 X176.345 Y173.372 E0.02224
G1 F667.7 X175.957 Y172.914 E0.04599
G1 F668.6 X175.706 Y172.739 E0.02341
G1 X175.155 Y172.536 E0.04492
G1 F667.7 X174.853 Y172.505 E0.02326
G1 F666.7 X174.55 Y172.528 E0.02332
G1 F660.8 X174.139 Y172.632 E0.03282
G1 F698.8 X173.975 Y172.63 E0.01201
G1 F809.4 X173.902 Y172.59 E0.00526
G1 F891.1 X173.364 Y172.568 E0.03091
G1 F765.3 X172.762 Y172.421 E0.04142
G1 F666.7 X172.284 Y172.209 E0.04012
G1 F658.9 X171.868 Y172.121 E0.03301
G1 F755 X171.275 Y171.809 E0.0454
G1 F900 X170.897 Y171.546 E0.02617
G1 X170.609 Y171.247 E0.0236
G1 X170.404 Y170.944 E0.02079
G1 X160.569 Y152.948 E1.16563
G1 X160.427 Y152.608 E0.02094
G1 X160.363 Y152.293 E0.01827
G1 X160.359 Y151.958 E0.01904
G1 X160.427 Y151.606 E0.02038
G1 X160.556 Y151.291 E0.01935
G1 X160.745 Y151.007 E0.01939
G1 X160.981 Y150.766 E0.01917
G1 X161.358 Y150.508 E0.02596
G1 X162.053 Y150.297 E0.04128
G1 X162.184 Y150.117 E0.01265
G1 X162.184 Y149.883 E0.0133
G1 X162.053 Y149.703 E0.01265
G1 X161.358 Y149.492 E0.04128
G1 X160.981 Y149.234 E0.02596
G1 X160.715 Y148.956 E0.02187
G1 X160.555 Y148.708 E0.01677
G1 X160.414 Y148.348 E0.02197
G1 X160.359 Y148.042 E0.01767
G1 X160.363 Y147.707 E0.01904
G1 X160.435 Y147.364 E0.01992
G1 X160.571 Y147.048 E0.01955
G1 X170.392 Y129.076 E1.16405
G1 X170.638 Y128.718 E0.02469
G1 X170.9 Y128.451 E0.02126
G1 X171.244 Y128.209 E0.02391
G1 F757.6 X171.934 Y127.866 E0.05203
G1 F659.8 X172.283 Y127.791 E0.02767
G1 F662.7 X172.802 Y127.554 E0.04404
G1 F761.4 X173.363 Y127.432 E0.03857
G1 F887.6 X173.902 Y127.408 E0.0311
G1 F753.8 X174.236 Y127.393 E0.02269
G1 F663.7 X174.551 Y127.472 E0.02503
G1 F665.7 X174.853 Y127.495 E0.02327
G1 F666.7 X175.155 Y127.464 E0.02329
G1 F668.6 X175.706 Y127.261 E0.04492
G1 X175.957 Y127.086 E0.02341
G1 F667.7 X176.343 Y126.633 E0.0456
G1 X176.472 Y126.365 E0.02279
G1 F666.7 X176.557 Y126.07 E0.02356
G1 X176.57 Y125.464 E0.04651
G1 F660.8 X176.464 Y125.054 E0.03278
G1 F757.6 X176.512 Y124.839 E0.01487
G1 F900 X176.505 Y124.51 E0.0187
G1 F896.4 X176.609 Y124.015 E0.02886
G1 F764 X176.688 Y123.655 E0.02468
G1 F665.7 X176.836 Y123.363 E0.02516
G1 X176.933 Y123.046 E0.02547
G1 F664.7 X176.966 Y122.715 E0.0256
G1 F663.7 X176.941 Y122.386 E0.02543
G1 F665.7 X176.856 Y122.061 E0.02581
G1 X176.716 Y121.767 E0.02502
G1 F663.7 X176.52 Y121.499 E0.02559
G1 F664.7 X176.287 Y121.274 E0.02493
G1 X175.97 Y121.071 E0.02897
G1 F715.4 X175.791 Y120.894 E0.018
G1 F834.9 X175.762 Y120.819 E0.00493
G1 F900 X175.417 Y120.434 E0.02938
G1 F765.3 X175.081 Y119.844 E0.04538
G1 F665.7 X174.871 Y119.305 E0.04445
G1 F666.7 X174.487 Y118.857 E0.04527
G1 F669.6 X173.965 Y118.556 E0.04603
G1 F668.6 X173.378 Y118.45 E0.04563
G1 F666.7 X173.076 Y118.473 E0.02324
G1 F667.7 X172.788 Y118.546 E0.02276
G1 X172.257 Y118.837 E0.04639
G1 F665.7 X172.02 Y119.065 E0.02527
G1 F764 X171.467 Y119.371 E0.04232
G1 F900 X170.984 Y119.528 E0.02887
G1 F834.9 X170.921 Y119.578 E0.00493
G1 F715.4 X170.679 Y119.64 E0.01786
G1 F665.7 X170.301 Y119.656 E0.02907
G1 X169.979 Y119.735 E0.02548
G1 F664.7 X169.678 Y119.866 E0.02526
G1 F666.7 X169.401 Y120.056 E0.02577
G1 X169.172 Y120.285 E0.02485
G1 F664.7 X168.984 Y120.558 E0.02551
G1 X168.844 Y120.866 E0.02604
G1 X168.772 Y121.175 E0.02442
G1 X168.752 Y121.511 E0.0259
G1 F765.3 X168.637 Y121.866 E0.02494
