;FLAVOR:RepRap
;TIME:647
;Filament used: 1.33477m
;Layer height: 0.3
;MINX:119.019
;MINY:130.214
;MINZ:0.2
;MAXX:147.327
;MAXY:169.786
;MAXZ:11.6
;Exported with Cura-DuetRRF v1.2.9 plugin by Thomas Kriechbaumer
;Generated with Cura_SteamEngine 5.3.0
T0
M104 S215
M109 S215
M82 ;absolute extrusion mode

M83 ;relative extrusion mode
G1 F2100 E-0.4
;LAYER_COUNT:39
;LAYER:0
M107
G0 F6000 X120.33 Y130.815 Z0.2
;TYPE:SKIRT
G1 F2100 E0.4
G1 F1800 X120.047 Y131.13 E0.02049
G1 X119.827 Y131.492 E0.0205
G1 X119.679 Y131.89 E0.02055
G1 X119.608 Y132.307 E0.02047
G1 X119.498 Y133.798 E0.07234
G1 X119.482 Y134.638 E0.04065
G1 X119.481 Y142.194 E0.36563
G1 X119.393 Y146.341 E0.20072
G1 X119.237 Y149.093 E0.13338
G1 X119.03 Y152.005 E0.14127
G1 X119.02 Y152.708 E0.03402
G1 X119.019 Y165.941 E0.64034
G1 X119.073 Y166.845 E0.04382
G1 X119.167 Y167.953 E0.05381
G1 X119.339 Y168.453 E0.02559
G1 X119.549 Y168.821 E0.0205
G1 X119.825 Y169.143 E0.02052
G1 X120.156 Y169.408 E0.02052
G1 X120.53 Y169.606 E0.02048
G1 X120.935 Y169.73 E0.0205
G1 X121.357 Y169.776 E0.02054
G1 X122.055 Y169.786 E0.03378
G1 X130.923 Y169.786 E0.42912
G1 X131.703 Y169.774 E0.03775
G1 X134.465 Y169.774 E0.13365
G1 X135.326 Y169.786 E0.04167
G1 X144.456 Y169.786 E0.44179
G1 X144.886 Y169.742 E0.02092
G1 X145.295 Y169.629 E0.02053
G1 X145.675 Y169.441 E0.02052
G1 X146.012 Y169.185 E0.02048
G1 X146.296 Y168.87 E0.02052
G1 X146.516 Y168.508 E0.0205
G1 X146.664 Y168.111 E0.0205
G1 X146.735 Y167.693 E0.02052
G1 X146.846 Y166.19 E0.07293
G1 X146.861 Y165.393 E0.03857
G1 X146.863 Y157.769 E0.36892
G1 X146.952 Y153.619 E0.20086
G1 X147.109 Y150.865 E0.13348
G1 X147.314 Y147.982 E0.13986
G1 X147.323 Y147.319 E0.03209
G1 X147.327 Y134.084 E0.64043
G1 X147.286 Y133.364 E0.0349
G1 X147.177 Y132.047 E0.06395
G1 X147.005 Y131.547 E0.02559
G1 X146.795 Y131.179 E0.0205
G1 X146.519 Y130.857 E0.02052
G1 X146.188 Y130.592 E0.02052
G1 X145.814 Y130.394 E0.02048
G1 X145.409 Y130.27 E0.0205
G1 X144.987 Y130.224 E0.02054
G1 X144.289 Y130.214 E0.03378
G1 X135.112 Y130.216 E0.44407
G1 X134.668 Y130.226 E0.02149
G1 X131.879 Y130.226 E0.13496
G1 X131.018 Y130.214 E0.04167
G1 X121.887 Y130.214 E0.44184
G1 X121.456 Y130.258 E0.02096
G1 X121.048 Y130.372 E0.0205
G1 X120.668 Y130.56 E0.02052
G1 X120.585 Y130.623 E0.00504
G0 F1620 X120.33 Y130.815
G1 F2100 E-0.4
;MESH:FE_Wingman_Peanut_Mount_Rev-03.3mf(38)
G0 F6000 X122.356 Y132.978
G0 X122.942 Y134.034
G0 X122.092 Y134.034
;TYPE:WALL-OUTER
G1 F2100 E0.4
G1 F1800 X121.982 Y134.113 E0.00655
G1 X121.981 Y147.814 E0.66298
G1 X122.092 Y147.894 E0.00662
G1 X122.092 Y149.214 E0.06387
G1 X131.413 Y149.214 E0.45104
G1 X131.413 Y147.894 E0.06387
G1 X131.523 Y147.815 E0.00655
G1 X131.526 Y134.117 E0.66284
G1 X131.413 Y134.035 E0.00676
G1 X131.413 Y132.714 E0.06392
G1 X122.092 Y132.714 E0.45104
G1 X122.092 Y133.714 E0.04839
G0 F1620 X122.092 Y134.034
G0 F6000 X121.982 Y134.113
G0 X121.982 Y134.228
G0 X122.555 Y134.2
;TYPE:WALL-INNER
G1 F1800 X122.482 Y134.252 E0.00434
G1 X122.481 Y147.675 E0.64953
G1 X122.554 Y147.728 E0.00437
G1 X122.592 Y147.964 E0.01157
G1 X122.592 Y148.714 E0.03629
G1 X130.913 Y148.714 E0.40265
G1 X130.913 Y147.964 E0.03629
G1 X130.95 Y147.728 E0.01156
G1 X131.023 Y147.676 E0.00434
G1 X131.026 Y134.257 E0.64934
G1 X130.951 Y134.203 E0.00447
G1 X130.913 Y133.963 E0.01176
G1 X130.913 Y133.214 E0.03624
G1 X122.592 Y133.214 E0.40265
G1 X122.592 Y133.882 E0.03232
G0 F1620 X122.592 Y133.964
G0 X122.555 Y134.2
G0 F6000 X122.982 Y134.39
G1 F1800 X122.981 Y147.536 E0.63613
G1 X123.029 Y147.57 E0.00285
G1 X123.092 Y148.214 E0.03131
G1 X130.413 Y148.214 E0.35426
G1 X130.475 Y147.572 E0.03121
G1 X130.523 Y147.538 E0.00285
G1 X130.526 Y134.397 E0.63588
G1 X130.477 Y134.362 E0.00291
G1 X130.413 Y133.714 E0.03151
G1 X123.092 Y133.714 E0.35426
G1 X123.055 Y134.095 E0.01852
G0 F1620 X123.03 Y134.356
G0 X122.982 Y134.39
G0 F6000 X123.534 Y134.189
;TYPE:SKIN
G1 F1800 X123.457 Y134.534 E0.01711
G1 X123.456 Y147.393 E0.62224
G1 X123.534 Y147.739 E0.01716
G1 X129.97 Y147.738 E0.31143
G1 X130.048 Y147.394 E0.01707
G1 X130.05 Y134.541 E0.62195
G1 X129.972 Y134.188 E0.01749
G1 X123.854 Y134.189 E0.29605
G0 F1620 X123.534 Y134.189
G0 F6000 X123.957 Y134.689
G1 F1800 X123.956 Y147.238 E0.60724
G1 X129.548 Y147.238 E0.27059
G1 X129.549 Y134.689 E0.60724
G1 X124.277 Y134.689 E0.25511
G0 F1620 X123.957 Y134.689
G0 F6000 X124.458 Y135.19
G1 F1800 X124.456 Y146.738 E0.5588
G1 X129.048 Y146.738 E0.2222
G1 X129.048 Y135.19 E0.5588
G1 X124.778 Y135.19 E0.20662
G0 F1620 X124.458 Y135.19
G0 F6000 X124.958 Y135.69
G1 F1800 X124.956 Y146.238 E0.51041
G1 X128.548 Y146.238 E0.17381
G1 X128.548 Y135.69 E0.51041
G1 X125.278 Y135.69 E0.15823
G0 F1620 X124.958 Y135.69
G0 F6000 X125.458 Y136.19
G1 F1800 X125.456 Y145.738 E0.46202
G1 X128.048 Y145.738 E0.12543
G1 X128.048 Y136.19 E0.46202
G1 X125.778 Y136.19 E0.10984
G0 F1620 X125.458 Y136.19
G0 F6000 X125.958 Y136.69
G1 F1800 X125.956 Y145.238 E0.41363
G1 X127.548 Y145.238 E0.07704
G1 X127.548 Y136.69 E0.41363
G1 X126.278 Y136.69 E0.06145
G0 F1620 X125.958 Y136.69
G0 F6000 X126.48 Y137.212
G1 F1651.4 X126.479 Y144.715 E0.39574
G1 F1648.4 X127.025 Y144.715 E0.02885
G1 F1651.4 X127.026 Y137.212 E0.39574
G1 X126.501 Y137.212 E0.02769
G0 F1620 X126.48 Y137.212
G1 F2100 E-0.4
;MESH:FE_Wingman_Peanut_Mount_Rev-03.3mf(37)
G0 F6000 X131.263 Y134.478
G0 X132.442 Y134.478
G0 X134.366 Y134.48
G0 X135.551 Y134.48
G0 X135.392 Y134.034
;TYPE:WALL-OUTER
G1 F2100 E0.4
G1 F1800 X135.282 Y134.113 E0.00655
G1 X135.281 Y147.814 E0.66298
G1 X135.392 Y147.894 E0.00662
G1 X135.392 Y149.214 E0.06387
G1 X144.713 Y149.214 E0.45104
G1 X144.713 Y147.894 E0.06387
G1 X144.823 Y147.815 E0.00655
G1 X144.826 Y134.117 E0.66284
G1 X144.713 Y134.035 E0.00676
G1 X144.713 Y132.714 E0.06392
G1 X135.392 Y132.714 E0.45104
G1 X135.392 Y133.714 E0.04839
G0 F1620 X135.392 Y134.034
G0 F6000 X135.282 Y134.113
G0 X135.282 Y134.228
G0 X135.855 Y134.2
;TYPE:WALL-INNER
G1 F1800 X135.782 Y134.252 E0.00434
G1 X135.781 Y147.675 E0.64953
G1 X135.854 Y147.728 E0.00437
G1 X135.892 Y147.964 E0.01157
G1 X135.892 Y148.714 E0.03629
G1 X144.213 Y148.714 E0.40265
G1 X144.213 Y147.964 E0.03629
G1 X144.25 Y147.728 E0.01156
G1 X144.323 Y147.676 E0.00434
G1 X144.326 Y134.257 E0.64934
G1 X144.251 Y134.203 E0.00447
G1 X144.213 Y133.963 E0.01176
G1 X144.213 Y133.214 E0.03624
G1 X135.892 Y133.214 E0.40265
G1 X135.892 Y133.882 E0.03232
G0 F1620 X135.892 Y133.964
G0 X135.855 Y134.2
G0 F6000 X136.282 Y134.39
G1 F1800 X136.281 Y147.536 E0.63613
G1 X136.329 Y147.57 E0.00285
G1 X136.392 Y148.214 E0.03131
G1 X143.713 Y148.214 E0.35426
G1 X143.775 Y147.572 E0.03121
G1 X143.823 Y147.538 E0.00285
G1 X143.826 Y134.397 E0.63588
G1 X143.777 Y134.362 E0.00291
G1 X143.713 Y133.714 E0.03151
G1 X136.392 Y133.714 E0.35426
G1 X136.355 Y134.095 E0.01852
G0 F1620 X136.33 Y134.356
G0 X136.282 Y134.39
G0 F6000 X136.834 Y134.189
;TYPE:SKIN
G1 F1800 X136.757 Y134.534 E0.01711
G1 X136.756 Y147.393 E0.62224
G1 X136.834 Y147.739 E0.01716
G1 X143.27 Y147.738 E0.31143
G1 X143.348 Y147.394 E0.01707
G1 X143.35 Y134.541 E0.62195
G1 X143.272 Y134.188 E0.01749
G1 X137.154 Y134.189 E0.29605
G0 F1620 X136.834 Y134.189
G0 F6000 X137.257 Y134.689
G1 F1800 X137.256 Y147.238 E0.60724
G1 X142.848 Y147.238 E0.27059
G1 X142.849 Y134.689 E0.60724
G1 X137.577 Y134.689 E0.25511
G0 F1620 X137.257 Y134.689
G0 F6000 X137.758 Y135.19
G1 F1800 X137.756 Y146.738 E0.5588
G1 X142.348 Y146.738 E0.2222
G1 X142.348 Y135.19 E0.5588
G1 X138.078 Y135.19 E0.20662
G0 F1620 X137.758 Y135.19
G0 F6000 X138.258 Y135.69
G1 F1800 X138.256 Y146.238 E0.51041
G1 X141.848 Y146.238 E0.17381
G1 X141.848 Y135.69 E0.51041
G1 X138.578 Y135.69 E0.15823
G0 F1620 X138.258 Y135.69
G0 F6000 X138.758 Y136.19
G1 F1800 X138.756 Y145.738 E0.46202
G1 X141.348 Y145.738 E0.12543
G1 X141.348 Y136.19 E0.46202
G1 X139.078 Y136.19 E0.10984
G0 F1620 X138.758 Y136.19
G0 F6000 X139.258 Y136.69
G1 F1800 X139.256 Y145.238 E0.41363
G1 X140.848 Y145.238 E0.07704
G1 X140.848 Y136.69 E0.41363
G1 X139.578 Y136.69 E0.06145
G0 F1620 X139.258 Y136.69
G0 F6000 X139.78 Y137.212
G1 F1651.4 X139.779 Y144.715 E0.39574
G1 F1648.4 X140.325 Y144.715 E0.02885
G1 F1651.4 X140.326 Y137.212 E0.39574
G1 X139.801 Y137.212 E0.02769
G0 F1620 X139.78 Y137.212
G1 F2100 E-0.4
;MESH:FE_Wingman_Peanut_Mount_Rev-03.3mf(16)
G0 F6000 X143.932 Y148.944
G0 X143.932 Y151.056
G0 X144.251 Y150.786
;TYPE:WALL-OUTER
G1 F2100 E0.4
G1 F1800 X134.93 Y150.786 E0.45104
G1 X134.93 Y152.106 E0.06387
G1 X134.82 Y152.185 E0.00655
G1 X134.819 Y165.886 E0.66298
G1 X134.93 Y165.966 E0.00662
G1 X134.93 Y167.286 E0.06387
G1 X144.251 Y167.286 E0.45104
G1 X144.251 Y165.966 E0.06387
G1 X144.361 Y165.887 E0.00655
G1 X144.364 Y152.189 E0.66284
G1 X144.251 Y152.107 E0.00676
G1 X144.251 Y151.106 E0.04844
G0 F1620 X144.251 Y150.786
G0 F6000 X144.001 Y150.786
G0 X143.431 Y151.606
G0 X143.864 Y152.329
;TYPE:WALL-INNER
G1 F1800 X143.789 Y152.275 E0.00447
G1 X143.751 Y152.035 E0.01176
G1 X143.751 Y151.286 E0.03624
G1 X135.43 Y151.286 E0.40265
G1 X135.43 Y152.036 E0.03629
G1 X135.393 Y152.272 E0.01156
G1 X135.32 Y152.324 E0.00434
G1 X135.319 Y165.747 E0.64953
G1 X135.392 Y165.8 E0.00437
G1 X135.43 Y166.036 E0.01157
G1 X135.43 Y166.786 E0.03629
G1 X143.751 Y166.786 E0.40265
G1 X143.751 Y166.036 E0.03629
G1 X143.788 Y165.8 E0.01156
G1 X143.861 Y165.748 E0.00434
G1 X143.864 Y152.649 E0.63385
G0 F1620 X143.864 Y152.329
G0 F6000 X143.251 Y151.786
G1 F1800 X135.93 Y151.786 E0.35426
G1 X135.868 Y152.428 E0.03121
G1 X135.82 Y152.462 E0.00285
G1 X135.819 Y165.608 E0.63613
G1 X135.867 Y165.642 E0.00285
G1 X135.93 Y166.286 E0.03131
G1 X143.251 Y166.286 E0.35426
G1 X143.313 Y165.644 E0.03121
G1 X143.361 Y165.61 E0.00285
G1 X143.364 Y152.469 E0.63588
G1 X143.315 Y152.434 E0.00291
G1 X143.282 Y152.104 E0.01605
G0 F1620 X143.251 Y151.786
G0 F6000 X142.81 Y152.26
;TYPE:SKIN
G1 F1800 X136.372 Y152.261 E0.31153
G1 X136.295 Y152.606 E0.01711
G1 X136.294 Y165.465 E0.62224
G1 X136.372 Y165.811 E0.01716
G1 X142.808 Y165.81 E0.31143
G1 X142.886 Y165.466 E0.01707
G1 X142.888 Y152.613 E0.62195
G1 X142.879 Y152.572 E0.00203
G0 F1620 X142.81 Y152.26
G0 F6000 X142.387 Y152.761
G1 F1800 X136.795 Y152.761 E0.27059
G1 X136.794 Y165.31 E0.60724
G1 X142.386 Y165.31 E0.27059
G1 X142.387 Y153.081 E0.59175
G0 F1620 X142.387 Y152.761
G0 F6000 X141.886 Y153.262
G1 F1800 X137.296 Y153.262 E0.22211
G1 X137.294 Y164.81 E0.5588
G1 X141.886 Y164.81 E0.2222
G1 X141.886 Y153.582 E0.54332
G0 F1620 X141.886 Y153.262
G0 F6000 X141.386 Y153.762
G1 F1800 X137.796 Y153.762 E0.17372
G1 X137.794 Y164.31 E0.51041
G1 X141.386 Y164.31 E0.17381
G1 X141.386 Y154.082 E0.49493
G0 F1620 X141.386 Y153.762
G0 F6000 X140.886 Y154.262
G1 F1800 X138.296 Y154.262 E0.12533
G1 X138.294 Y163.81 E0.46202
G1 X140.886 Y163.81 E0.12543
G1 X140.886 Y154.582 E0.44654
G0 F1620 X140.886 Y154.262
G0 F6000 X140.386 Y154.762
G1 F1800 X138.796 Y154.762 E0.07694
G1 X138.794 Y163.31 E0.41363
G1 X140.386 Y163.31 E0.07704
G1 X140.386 Y155.082 E0.39815
G0 F1620 X140.386 Y154.762
G0 F6000 X139.864 Y155.284
G1 F1651.4 X139.318 Y155.284 E0.0288
G1 X139.317 Y162.787 E0.39574
G1 F1648.4 X139.863 Y162.787 E0.02885
G1 F1651.4 X139.864 Y155.284 E0.39574
G1 F2100 E-0.4
;MESH:FE_Wingman_Peanut_Mount_Rev-03.3mf(17)
G0 F6000 X135.084 Y152.55
G0 X133.904 Y152.55
G0 X131.98 Y152.55
G0 X130.801 Y152.55
G0 X130.951 Y152.107
;TYPE:WALL-OUTER
G1 F2100 E0.4
G1 F1800 X130.951 Y150.786 E0.06392
G1 X121.63 Y150.786 E0.45104
G1 X121.63 Y152.106 E0.06387
G1 X121.52 Y152.185 E0.00655
G1 X121.519 Y165.886 E0.66298
G1 X121.63 Y165.966 E0.00662
G1 X121.63 Y167.286 E0.06387
G1 X130.951 Y167.286 E0.45104
G1 X130.951 Y165.966 E0.06387
G1 X131.061 Y165.887 E0.00655
G1 X131.064 Y152.37 E0.65408
G0 F1620 X131.064 Y152.189
G0 X130.951 Y152.107
G0 F6000 X130.951 Y151.857
G0 X130.564 Y152.329
;TYPE:WALL-INNER
G1 F1800 X130.489 Y152.275 E0.00447
G1 X130.451 Y152.035 E0.01176
G1 X130.451 Y151.286 E0.03624
G1 X122.13 Y151.286 E0.40265
G1 X122.13 Y152.036 E0.03629
G1 X122.093 Y152.272 E0.01156
G1 X122.02 Y152.324 E0.00434
G1 X122.019 Y165.747 E0.64953
G1 X122.092 Y165.8 E0.00437
G1 X122.13 Y166.036 E0.01157
G1 X122.13 Y166.786 E0.03629
G1 X130.451 Y166.786 E0.40265
G1 X130.451 Y166.036 E0.03629
G1 X130.488 Y165.8 E0.01156
G1 X130.561 Y165.748 E0.00434
G1 X130.564 Y152.649 E0.63385
G0 F1620 X130.564 Y152.329
G0 F6000 X130.064 Y152.469
G1 F1800 X130.015 Y152.434 E0.00291
G1 X129.951 Y151.786 E0.03151
G1 X122.63 Y151.786 E0.35426
G1 X122.568 Y152.428 E0.03121
G1 X122.52 Y152.462 E0.00285
G1 X122.519 Y165.608 E0.63613
G1 X122.567 Y165.642 E0.00285
G1 X122.63 Y166.286 E0.03131
G1 X129.951 Y166.286 E0.35426
G1 X130.013 Y165.644 E0.03121
G1 X130.061 Y165.61 E0.00285
G1 X130.064 Y152.789 E0.6204
G0 F1620 X130.064 Y152.469
G0 F6000 X129.51 Y152.26
;TYPE:SKIN
G1 F1800 X123.072 Y152.261 E0.31153
G1 X122.995 Y152.606 E0.01711
G1 X122.994 Y165.465 E0.62224
G1 X123.072 Y165.811 E0.01716
G1 X129.508 Y165.81 E0.31143
G1 X129.586 Y165.466 E0.01707
G1 X129.588 Y152.613 E0.62195
G1 X129.579 Y152.572 E0.00203
G0 F1620 X129.51 Y152.26
G0 F6000 X129.087 Y152.761
G1 F1800 X123.495 Y152.761 E0.27059
G1 X123.494 Y165.31 E0.60724
G1 X129.086 Y165.31 E0.27059
G1 X129.087 Y153.081 E0.59175
G0 F1620 X129.087 Y152.761
G0 F6000 X128.586 Y153.262
G1 F1800 X123.996 Y153.262 E0.22211
G1 X123.994 Y164.81 E0.5588
G1 X128.586 Y164.81 E0.2222
G1 X128.586 Y153.582 E0.54332
G0 F1620 X128.586 Y153.262
G0 F6000 X128.086 Y153.762
G1 F1800 X124.496 Y153.762 E0.17372
G1 X124.494 Y164.31 E0.51041
G1 X128.086 Y164.31 E0.17381
G1 X128.086 Y154.082 E0.49493
G0 F1620 X128.086 Y153.762
G0 F6000 X127.586 Y154.262
G1 F1800 X124.996 Y154.262 E0.12533
G1 X124.994 Y163.81 E0.46202
G1 X127.586 Y163.81 E0.12543
G1 X127.586 Y154.582 E0.44654
G0 F1620 X127.586 Y154.262
G0 F6000 X127.086 Y154.762
G1 F1800 X125.496 Y154.762 E0.07694
G1 X125.494 Y163.31 E0.41363
G1 X127.086 Y163.31 E0.07704
G1 X127.086 Y155.082 E0.39815
G0 F1620 X127.086 Y154.762
G0 F6000 X126.564 Y155.284
G1 F1651.4 X126.018 Y155.284 E0.0288
G1 X126.017 Y162.787 E0.39574
G1 F1648.4 X126.563 Y162.787 E0.02885
G1 F1651.4 X126.564 Y155.284 E0.39574
G1 F2100 E-0.4
;MESH:NOMESH
G0 F600 X126.564 Y155.284 Z0.5
G0 F6000 X122.412 Y151.056
G0 X122.412 Y148.944
G0 X121.787 Y132.714
;TIME_ELAPSED:56.038209
;LAYER:1
M106 S102
;TYPE:WALL-OUTER
;MESH:FE_Wingman_Peanut_Mount_Rev-03.3mf(38)
G1 F2100 E0.4
G1 F1950 X121.786 Y134.051 E0.08588
G1 X121.578 Y134.187 E0.01596
G1 X121.578 Y147.74 E0.87056
G1 X121.787 Y147.876 E0.01602
G1 X121.787 Y149.214 E0.08594
G1 X131.718 Y149.214 E0.6379
G1 X131.718 Y147.876 E0.08594
G1 X131.927 Y147.74 E0.01602
G1 X131.928 Y134.189 E0.87043
G1 X131.718 Y134.052 E0.01611
G1 X131.718 Y132.714 E0.08594
G1 X121.999 Y132.714 E0.62429
G0 F1755 X121.787 Y132.714
G0 F12000 X121.787 Y132.964
G0 X122.287 Y133.214
;TYPE:WALL-INNER
G1 F3900 X122.286 Y133.965 E0.04824
G1 X122.224 Y134.264 E0.01961
G1 X122.078 Y134.359 E0.01119
G1 X122.078 Y147.568 E0.84846
G1 X122.225 Y147.663 E0.01124
G1 X122.287 Y147.964 E0.01974
G1 X122.287 Y148.714 E0.04818
G1 X131.218 Y148.714 E0.57367
G1 X131.218 Y147.964 E0.04818
G1 X131.28 Y147.663 E0.01974
G1 X131.427 Y147.568 E0.01124
G1 X131.428 Y134.363 E0.84821
G1 X131.28 Y134.266 E0.01137
G1 X131.218 Y133.963 E0.01987
G1 X131.218 Y133.214 E0.04811
G1 X122.499 Y133.214 E0.56005
G0 F3510 X122.287 Y133.214
G0 F12000 X122.787 Y133.714
G1 F3900 X122.786 Y133.965 E0.01612
G1 X122.682 Y134.464 E0.03274
G1 X122.578 Y134.532 E0.00798
G1 X122.578 Y147.395 E0.82624
G1 X122.683 Y147.463 E0.00804
G1 X122.787 Y147.964 E0.03287
G1 X122.787 Y148.214 E0.01606
G1 X130.718 Y148.214 E0.50944
G1 X130.718 Y147.964 E0.01606
G1 X130.822 Y147.463 E0.03287
G1 X130.927 Y147.395 E0.00804
G1 X130.928 Y134.536 E0.82598
G1 X130.822 Y134.466 E0.00816
G1 X130.718 Y133.963 E0.03299
G1 X130.718 Y133.714 E0.01599
G1 X122.999 Y133.714 E0.49582
G0 F3510 X122.787 Y133.714
G0 F12000 X123.221 Y134.19
;TYPE:SKIN
G1 F1950 X123.119 Y134.649 E0.0302
G1 X123.054 Y134.726 E0.00647
G1 X123.054 Y147.2 E0.80125
G1 X123.119 Y147.277 E0.00647
G1 X123.221 Y147.739 E0.03039
