;FLAVOR:RepRap
;TIME:1589
;Filament used: 2.35403m
;Layer height: 0.24
;MINX:96.162
;MINY:133.177
;MINZ:0.2
;MAXX:181.774
;MAXY:166.823
;MAXZ:14.6
;Exported with Cura-DuetRRF v1.2.9 plugin by Thomas Kriechbaumer
;LINEARADVANCEPROCESSED
;Generated with Cura_SteamEngine 5.3.0
T0
M104 S245
M109 S245
M82 ;absolute extrusion mode

M83 ;relative extrusion mode
G1 F1800 E-0.4
;LAYER_COUNT:61
M572 S0.063000 D0 ;added by LinearAdvanceSettingPlugin
;LAYER:0
M107
G0 F4800 X98.07 Y133.964 Z0.2
;TYPE:SKIRT
G1 F1800 E0.4
G1 X98.627 Y133.621 E0.02605
G1 X99.559 Y133.283 E0.03948
G1 X100.472 Y133.177 E0.0366
G1 X124.636 Y133.184 E0.96233
G1 X125.4 Y133.284 E0.03069
G1 X126.327 Y133.6 E0.039
G1 X127.316 Y134.247 E0.04707
G1 X128.027 Y135.066 E0.04319
G1 X128.53 Y136.01 E0.0426
G1 X128.756 Y136.863 E0.03514
G1 X128.817 Y136.534 E0.01333
G1 X129.02 Y135.974 E0.02372
G1 X129.536 Y135.095 E0.04059
G1 X130.145 Y134.483 E0.03438
G1 X131.027 Y133.934 E0.04137
G1 X131.299 Y133.816 E0.01181
G1 X132.37 Y133.589 E0.0436
G1 X156.764 Y133.591 E0.97149
G1 X157.433 Y133.69 E0.02693
G1 X158.449 Y134.094 E0.04354
G1 X159.3 Y134.739 E0.04253
G1 X159.75 Y135.308 E0.02889
G1 X160.099 Y135.894 E0.02716
G1 X160.333 Y136.475 E0.02494
G1 X160.494 Y137.4 E0.03739
G1 X160.494 Y140.409 E0.11983
G1 X160.93 Y139.872 E0.02755
G1 X161.75 Y139.34 E0.03893
G1 X162.713 Y139.11 E0.03943
G1 X166.016 Y139.11 E0.13154
G1 X166.12 Y138.38 E0.02937
G1 X166.384 Y137.581 E0.03351
G1 X166.818 Y136.763 E0.03688
G1 X167.533 Y135.921 E0.04399
G1 X168.174 Y135.44 E0.03192
G1 X169.065 Y134.934 E0.04081
G1 X170.273 Y134.626 E0.04965
G1 X171.495 Y134.626 E0.04867
G1 X172.696 Y134.932 E0.04936
G1 X173.745 Y135.511 E0.04772
G1 X174.427 Y136.132 E0.03673
G1 X175.003 Y136.849 E0.03663
G1 X175.444 Y137.754 E0.04009
G1 X175.653 Y138.397 E0.02693
G1 X175.746 Y139.11 E0.02864
G1 X178.884 Y139.11 E0.12497
G1 X179.643 Y139.21 E0.03049
G1 X179.813 Y139.265 E0.00712
G1 X180.523 Y139.649 E0.03215
G1 X181.012 Y140.046 E0.02508
G1 X181.544 Y140.866 E0.03893
G1 X181.774 Y141.829 E0.03943
G1 X181.774 Y146 E0.16611
G1 X181.674 Y146.759 E0.03049
G1 X181.619 Y146.929 E0.00712
G1 X181.307 Y147.506 E0.02612
G1 X181.588 Y148.051 E0.02442
G1 X181.774 Y148.829 E0.03186
G1 X181.774 Y152.5 E0.1462
G1 X181.674 Y153.259 E0.03049
G1 X181.619 Y153.429 E0.00712
G1 X181.307 Y154.006 E0.02612
G1 X181.588 Y154.551 E0.02442
G1 X181.774 Y155.329 E0.03186
G1 X181.764 Y158.144 E0.11211
G1 X181.66 Y158.853 E0.02854
G1 X181.235 Y159.639 E0.03559
G1 X180.838 Y160.128 E0.02508
G1 X180.018 Y160.66 E0.03893
G1 X179.055 Y160.89 E0.03943
G1 X175.745 Y160.89 E0.13182
G1 X175.653 Y161.598 E0.02843
G1 X175.382 Y162.42 E0.03447
G1 X174.945 Y163.247 E0.03725
G1 X174.183 Y164.133 E0.04654
G1 X173.432 Y164.663 E0.03661
G1 X172.698 Y165.057 E0.03318
G1 X171.524 Y165.374 E0.04843
G1 X170.276 Y165.374 E0.0497
G1 X169.08 Y165.069 E0.04915
G1 X168.154 Y164.561 E0.04206
G1 X167.475 Y164.015 E0.0347
G1 X166.863 Y163.289 E0.03782
G1 X166.397 Y162.467 E0.03763
G1 X166.095 Y161.538 E0.0389
G1 X166.02 Y160.89 E0.02598
G1 X162.884 Y160.89 E0.12489
G1 X162.125 Y160.79 E0.03049
G1 X161.955 Y160.735 E0.00712
G1 X161.245 Y160.351 E0.03215
G1 X160.817 Y160.003 E0.02197
G1 X160.491 Y159.545 E0.02239
G1 X160.49 Y162.82 E0.13043
G1 X160.173 Y164.015 E0.04924
G1 X160.102 Y164.17 E0.00679
G1 X159.373 Y165.231 E0.05127
G1 X158.468 Y165.901 E0.04484
G1 X157.6 Y166.262 E0.03744
G1 X156.7 Y166.414 E0.03635
G1 X132.236 Y166.409 E0.97428
G1 X130.956 Y166.061 E0.05283
G1 X130.06 Y165.444 E0.04333
G1 X129.319 Y164.637 E0.04363
G1 X128.848 Y163.609 E0.04503
G1 X128.747 Y163.109 E0.02031
G1 X128.644 Y163.744 E0.02562
G1 X128.018 Y165 E0.05589
G1 X127.137 Y165.896 E0.05004
G1 X126.131 Y166.493 E0.04659
G1 X125.19 Y166.763 E0.03899
G1 X124.587 Y166.822 E0.02413
G1 X100.293 Y166.823 E0.96751
G1 X99.434 Y166.675 E0.03471
G1 X98.582 Y166.36 E0.03618
G1 X97.7 Y165.784 E0.04195
G1 X96.89 Y164.874 E0.04852
G1 X96.329 Y163.726 E0.05089
G1 X96.162 Y162.658 E0.04305
G1 X96.164 Y137.203 E1.01374
G1 X96.385 Y136.138 E0.04332
G1 X96.88 Y135.16 E0.04365
G1 X97.438 Y134.484 E0.03491
G1 X98.07 Y133.964 E0.03259
G0 F4800 X98.332 Y134.39
G1 F1800 X98.847 Y134.073 E0.02408
G1 X99.672 Y133.774 E0.03495
G1 X100.53 Y133.674 E0.0344
G1 X124.571 Y133.68 E0.95743
G1 X125.289 Y133.774 E0.02884
G1 X126.106 Y134.052 E0.03437
G1 X126.982 Y134.626 E0.04171
G1 X127.614 Y135.354 E0.03839
G1 X128.062 Y136.194 E0.03791
G1 X128.246 Y136.89 E0.02867
G1 X128.309 Y137.418 E0.02118
G1 X128.314 Y162.652 E1.00494
G1 X128.162 Y163.589 E0.0378
G1 X127.605 Y164.707 E0.04974
G1 X126.826 Y165.499 E0.04424
G1 X125.933 Y166.029 E0.04136
G1 X125.095 Y166.27 E0.03473
G1 X124.539 Y166.324 E0.02225
G1 X100.337 Y166.323 E0.96384
G1 X99.564 Y166.19 E0.03124
G1 X98.81 Y165.911 E0.03202
G1 X98.028 Y165.4 E0.0372
G1 X97.309 Y164.593 E0.04304
G1 X96.811 Y163.574 E0.04517
G1 X96.662 Y162.619 E0.03849
G1 X96.664 Y137.257 E1.01004
G1 X96.862 Y136.303 E0.0388
G1 X97.302 Y135.433 E0.03883
G1 X97.791 Y134.841 E0.03058
G1 X98.332 Y134.39 E0.02805
G0 F4800 X98.594 Y134.816
G1 F1800 X99.067 Y134.525 E0.02212
G1 X99.785 Y134.265 E0.03041
G1 X100.588 Y134.171 E0.0322
G1 X124.506 Y134.176 E0.95253
G1 X125.178 Y134.264 E0.02699
G1 X125.885 Y134.504 E0.02973
G1 X126.65 Y135.006 E0.03644
G1 X127.2 Y135.639 E0.0334
G1 X127.594 Y136.379 E0.03339
G1 X127.75 Y136.953 E0.02369
G1 X127.809 Y137.418 E0.01867
G1 X127.814 Y162.609 E1.00323
G1 X127.68 Y163.437 E0.0334
G1 X127.194 Y164.412 E0.04339
G1 X126.515 Y165.102 E0.03855
G1 X125.735 Y165.565 E0.03612
G1 X125.001 Y165.776 E0.03042
G1 X124.49 Y165.826 E0.02045
G1 X100.381 Y165.823 E0.96014
G1 X99.694 Y165.705 E0.02776
G1 X99.036 Y165.461 E0.02795
G1 X98.357 Y165.018 E0.03229
G1 X97.728 Y164.311 E0.03769
G1 X97.293 Y163.422 E0.03942
G1 X97.162 Y162.581 E0.0339
G1 X97.164 Y137.311 E1.00637
G1 X97.339 Y136.468 E0.03429
G1 X97.723 Y135.709 E0.03388
G1 X98.149 Y135.193 E0.02665
G1 X98.594 Y134.816 E0.02323
G0 F4800 X98.917 Y135.198
G1 F1800 X99.286 Y134.977 E0.01713
G1 X99.901 Y134.755 E0.02604
G1 X100.588 Y134.671 E0.02756
G1 X124.441 Y134.672 E0.94994
G1 X125.064 Y134.754 E0.02502
G1 X125.664 Y134.957 E0.02523
G1 X126.32 Y135.388 E0.03126
G1 X126.786 Y135.924 E0.02829
G1 X127.125 Y136.561 E0.02874
G1 X127.267 Y137.084 E0.02158
G1 X127.312 Y137.475 E0.01567
G1 X127.314 Y162.566 E0.99925
G1 X127.198 Y163.282 E0.02889
G1 X126.781 Y164.119 E0.03724
G1 X126.204 Y164.705 E0.03275
G1 X125.537 Y165.101 E0.03089
G1 X124.907 Y165.282 E0.0261
G1 X124.441 Y165.328 E0.01865
G1 X100.425 Y165.323 E0.95643
G1 X99.822 Y165.219 E0.02437
G1 X99.262 Y165.012 E0.02378
G1 X98.687 Y164.636 E0.02736
G1 X98.147 Y164.03 E0.03233
G1 X97.775 Y163.27 E0.0337
G1 X97.662 Y162.543 E0.0293
G1 X97.664 Y137.365 E1.00271
G1 X97.816 Y136.633 E0.02977
G1 X98.144 Y135.985 E0.02892
G1 X98.506 Y135.546 E0.02266
G1 X98.917 Y135.198 E0.02145
G0 F4800 X99.174 Y135.627
G1 F1800 X99.504 Y135.429 E0.01533
G1 X100.015 Y135.245 E0.02163
G1 X100.588 Y135.171 E0.02301
G1 X124.441 Y135.172 E0.94994
G1 X124.948 Y135.243 E0.02039
G1 X125.443 Y135.41 E0.0208
G1 X125.99 Y135.77 E0.02608
G1 X126.372 Y136.209 E0.02318
G1 X126.656 Y136.743 E0.02409
G1 X126.784 Y137.215 E0.01948
G1 X126.814 Y137.523 E0.01232
G1 X126.814 Y162.523 E0.99562
G1 X126.716 Y163.127 E0.02437
G1 X126.368 Y163.826 E0.0311
G1 X125.893 Y164.308 E0.02695
G1 X125.335 Y164.639 E0.02584
G1 X124.814 Y164.789 E0.02159
G1 X124.441 Y164.828 E0.01494
G1 X100.469 Y164.823 E0.95468
G1 X99.907 Y164.726 E0.02271
G1 X99.491 Y164.564 E0.01778
G1 X99.012 Y164.251 E0.02279
G1 X98.567 Y163.751 E0.02666
G1 X98.257 Y163.118 E0.02807
G1 X98.162 Y162.505 E0.0247
G1 X98.164 Y137.419 E0.99905
G1 X98.293 Y136.798 E0.02526
G1 X98.566 Y136.258 E0.0241
G1 X98.834 Y135.923 E0.01709
G1 X99.174 Y135.627 E0.01795
G0 F4800 X99.441 Y136.05
G1 F1800 X99.686 Y135.895 E0.01155
G1 X100.083 Y135.74 E0.01697
G1 X100.588 Y135.671 E0.0203
G1 X124.441 Y135.672 E0.94994
G1 X124.874 Y135.737 E0.01744
G1 X125.221 Y135.863 E0.0147
G1 X125.66 Y136.152 E0.02093
G1 X125.936 Y136.454 E0.01629
G1 X126.176 Y136.881 E0.01951
G1 X126.286 Y137.263 E0.01583
G1 X126.316 Y137.571 E0.01232
G1 X126.314 Y162.48 E0.992
G1 X126.234 Y162.972 E0.01985
G1 X125.955 Y163.533 E0.02495
G1 X125.582 Y163.911 E0.02115
G1 X125.134 Y164.177 E0.02075
G1 X124.757 Y164.292 E0.0157
G1 X124.441 Y164.328 E0.01267
G1 X100.469 Y164.323 E0.95468
G1 X99.999 Y164.235 E0.01904
G1 X99.684 Y164.103 E0.0136
G1 X99.343 Y163.871 E0.01643
G1 X98.986 Y163.469 E0.02141
G1 X98.739 Y162.966 E0.02232
G1 X98.662 Y162.505 E0.01861
G1 X98.664 Y137.468 E0.99709
G1 X98.769 Y136.964 E0.0205
G1 X98.963 Y136.562 E0.01778
G1 X99.168 Y136.295 E0.01341
G1 X99.441 Y136.05 E0.01461
G1 F1800 E-0.4
G0 F4800 X99.6 Y135.626
G0 X124.495 Y135.398
G0 X129.665 Y137.48
G1 F1800 E0.4
G1 X129.783 Y136.779 E0.02831
G1 X129.907 Y136.437 E0.01449
G1 X130.332 Y135.714 E0.0334
G1 X130.772 Y135.271 E0.02487
G1 X131.555 Y134.784 E0.03672
G1 X132.474 Y134.589 E0.03741
G1 X156.69 Y134.586 E0.9644
G1 X157.17 Y134.663 E0.01936
G1 X157.953 Y134.974 E0.03355
G1 X158.597 Y135.462 E0.03218
G1 X158.89 Y135.82 E0.01842
G1 X159.239 Y136.406 E0.02716
G1 X159.356 Y136.698 E0.01253
G1 X159.494 Y137.492 E0.03209
G1 X159.49 Y162.692 E1.00359
G1 X159.229 Y163.675 E0.0405
G1 X158.645 Y164.525 E0.04107
G1 X157.97 Y165.025 E0.03345
G1 X157.318 Y165.296 E0.02812
G1 X156.618 Y165.414 E0.02827
G1 X132.366 Y165.409 E0.96583
G1 X131.388 Y165.143 E0.04036
G1 X130.716 Y164.68 E0.0325
G1 X130.164 Y164.079 E0.0325
G1 X129.785 Y163.253 E0.03619
G1 X129.665 Y162.539 E0.02883
G1 X129.665 Y137.48 E0.99797
G1 F1800 E-0.4
G0 F4800 X131.09 Y135.662
G1 F1800 E0.4
G1 X131.743 Y135.255 E0.03064
G1 X132.526 Y135.089 E0.03188
G1 X156.69 Y135.086 E0.96233
G1 X156.986 Y135.128 E0.01191
G1 X157.704 Y135.413 E0.03076
G1 X158.248 Y135.825 E0.02718
G1 X158.46 Y136.076 E0.01308
G1 X158.809 Y136.662 E0.02716
G1 X158.872 Y136.833 E0.00726
G1 X158.994 Y137.537 E0.02845
G1 X158.99 Y162.628 E0.99925
G1 X158.768 Y163.463 E0.03441
G1 X158.281 Y164.172 E0.03426
G1 X157.721 Y164.587 E0.02776
G1 X157.177 Y164.813 E0.02346
G1 X156.577 Y164.914 E0.02423
G1 X132.431 Y164.909 E0.96161
G1 X131.604 Y164.684 E0.03413
G1 X131.044 Y164.298 E0.02709
G1 X130.586 Y163.799 E0.02697
G1 X130.267 Y163.105 E0.03042
G1 X130.165 Y162.498 E0.02451
G1 X130.165 Y137.521 E0.99471
G1 X130.276 Y136.862 E0.02661
G1 X130.338 Y136.691 E0.00724
G1 X130.731 Y136.023 E0.03087
G1 X131.09 Y135.662 E0.02028
G0 F4800 X131.162 Y136.277
G1 F1800 X131.398 Y136.058 E0.01282
G1 X131.931 Y135.726 E0.02501
G1 X132.578 Y135.589 E0.02634
G1 X156.69 Y135.586 E0.96026
G1 X156.857 Y135.615 E0.00675
G1 X157.458 Y135.853 E0.02574
G1 X157.902 Y136.19 E0.0222
G1 X158.03 Y136.332 E0.00761
G1 X158.379 Y136.918 E0.02716
G1 X158.494 Y137.582 E0.02684
G1 X158.49 Y162.563 E0.99486
G1 X158.307 Y163.251 E0.02835
G1 X157.917 Y163.819 E0.02744
G1 X157.472 Y164.149 E0.02206
G1 X157.036 Y164.33 E0.0188
G1 X156.536 Y164.414 E0.02019
G1 X132.496 Y164.409 E0.95739
G1 X131.82 Y164.225 E0.0279
G1 X131.328 Y163.886 E0.02379
G1 X131.007 Y163.518 E0.01945
G1 X130.749 Y162.957 E0.02459
G1 X130.665 Y162.457 E0.02019
G1 X130.665 Y137.562 E0.99144
G1 X130.769 Y136.945 E0.02492
G1 X131.162 Y136.277 E0.03087
G0 F4800 X131.663 Y136.482
G1 F1800 X132.12 Y136.197 E0.02145
G1 X132.578 Y136.089 E0.01874
G1 X156.69 Y136.086 E0.96026
G1 X157.156 Y136.251 E0.01969
G1 X157.6 Y136.588 E0.0222
G1 X157.903 Y137.097 E0.02359
G1 X157.994 Y137.582 E0.01965
G1 X157.99 Y162.498 E0.99228
G1 X157.846 Y163.039 E0.0223
G1 X157.552 Y163.468 E0.02071
G1 X157.267 Y163.693 E0.01446
G1 X156.944 Y163.838 E0.0141
G1 X156.536 Y163.914 E0.01653
G1 X132.561 Y163.909 E0.9548
G1 X132.036 Y163.766 E0.02167
G1 X131.612 Y163.474 E0.0205
G1 X131.398 Y163.206 E0.01366
G1 X131.241 Y162.865 E0.01495
G1 X131.165 Y162.457 E0.01653
G1 X131.165 Y137.562 E0.99144
G1 X131.247 Y137.118 E0.01798
G1 X131.556 Y136.592 E0.0243
G1 X131.663 Y136.482 E0.00611
G1 F1800 E-0.4
G0 F4800 X129.165 Y137.439
G1 F1800 E0.4
G1 X129.29 Y136.696 E0.03001
G1 X129.451 Y136.227 E0.01975
G1 X129.933 Y135.406 E0.03791
G1 X130.46 Y134.876 E0.02977
G1 X131.291 Y134.359 E0.03898
G1 X131.451 Y134.295 E0.00686
G1 X132.422 Y134.089 E0.03953
G1 X156.69 Y134.086 E0.96647
G1 X157.302 Y134.177 E0.02464
G1 X158.201 Y134.534 E0.03852
G1 X158.948 Y135.1 E0.03732
G1 X159.32 Y135.564 E0.02368
G1 X159.669 Y136.15 E0.02716
G1 X159.849 Y136.612 E0.01975
G1 X159.994 Y137.446 E0.03371
G1 X159.99 Y162.756 E1.00797
G1 X159.69 Y163.887 E0.0466
G1 X159.009 Y164.878 E0.04789
G1 X158.219 Y165.463 E0.03915
G1 X157.459 Y165.779 E0.03278
G1 X156.659 Y165.914 E0.03231
G1 X132.301 Y165.909 E0.97005
G1 X131.172 Y165.602 E0.04659
G1 X130.388 Y165.062 E0.03791
G1 X129.742 Y164.359 E0.03802
G1 X129.303 Y163.401 E0.04197
G1 X129.165 Y162.58 E0.03315
G1 X129.165 Y137.439 E1.00124
G1 F1800 E-0.4
G0 F4800 X131.938 Y135.961
G0 X156.722 Y135.812
G0 X157.756 Y136.329
G0 X160.494 Y142
G1 F1800 E0.4
G1 X160.589 Y141.309 E0.02778
G1 X160.952 Y140.638 E0.03038
G1 X161.269 Y140.248 E0.02002
G1 X161.949 Y139.806 E0.0323
G1 X162.77 Y139.61 E0.03362
G1 X166.504 Y139.61 E0.14871
G1 X166.512 Y139.166 E0.01769
G1 X166.609 Y138.495 E0.027
G1 X166.846 Y137.777 E0.03011
G1 X167.234 Y137.045 E0.03299
G1 X167.879 Y136.286 E0.03967
G1 X168.421 Y135.875 E0.02709
G1 X169.256 Y135.401 E0.03824
G1 X170.334 Y135.126 E0.04431
G1 X171.431 Y135.126 E0.04369
G1 X172.51 Y135.401 E0.04434
G1 X173.454 Y135.922 E0.04294
G1 X174.061 Y136.474 E0.03267
G1 X174.58 Y137.12 E0.033
G1 X174.969 Y137.909 E0.03503
G1 X175.163 Y138.505 E0.02496
G1 X175.266 Y139.3 E0.03193
G1 X175.267 Y139.61 E0.01235
G1 X178.884 Y139.61 E0.14405
G1 X179.575 Y139.705 E0.02778
G1 X180.246 Y140.068 E0.03038
G1 X180.636 Y140.385 E0.02002
G1 X181.078 Y141.065 E0.0323
G1 X181.274 Y141.886 E0.03362
G1 X181.274 Y146 E0.16384
G1 X181.179 Y146.691 E0.02778
G1 X180.816 Y147.362 E0.03038
G1 X180.724 Y147.484 E0.00609
G1 X181.102 Y148.167 E0.03109
G1 X181.274 Y148.886 E0.02944
G1 X181.274 Y152.5 E0.14393
G1 X181.179 Y153.191 E0.02778
G1 X180.816 Y153.862 E0.03038
G1 X180.724 Y153.984 E0.00609
G1 X181.102 Y154.667 E0.03109
G1 X181.274 Y155.386 E0.02944
G1 X181.269 Y158.072 E0.10697
G1 X181.178 Y158.693 E0.025
G1 X180.816 Y159.362 E0.03029
G1 X180.499 Y159.752 E0.02002
G1 X179.819 Y160.194 E0.0323
G1 X178.998 Y160.39 E0.03362
G1 X175.266 Y160.39 E0.14863
G1 X175.265 Y160.706 E0.01258
G1 X175.163 Y161.488 E0.03141
G1 X174.921 Y162.223 E0.03082
G1 X174.529 Y162.964 E0.03339
G1 X173.844 Y163.761 E0.04185
G1 X173.195 Y164.223 E0.03173
G1 X172.514 Y164.589 E0.03079
G1 X171.457 Y164.874 E0.0436
G1 X170.337 Y164.874 E0.0446
G1 X169.264 Y164.6 E0.0441
G1 X168.436 Y164.146 E0.03761
G1 X167.824 Y163.654 E0.03127
G1 X167.277 Y163.005 E0.0338
G1 X166.858 Y162.266 E0.03383
G1 X166.586 Y161.429 E0.03505
G1 X166.501 Y160.692 E0.02955
G1 X166.499 Y160.39 E0.01203
G1 X162.884 Y160.39 E0.14397
G1 X162.193 Y160.295 E0.02778
G1 X161.522 Y159.932 E0.03038
G1 X161.132 Y159.615 E0.02002
G1 X160.69 Y158.935 E0.0323
G1 X160.494 Y158.114 E0.03362
G1 X160.494 Y142 E0.64174
G1 F1800 E-0.4
G0 F4800 X161.607 Y140.625
G1 F1800 E0.4
G1 X162.15 Y140.272 E0.02579
G1 X162.827 Y140.11 E0.02772
G1 X167 Y140.11 E0.16619
G1 X167.007 Y139.238 E0.03473
G1 X167.098 Y138.61 E0.02527
G1 X167.308 Y137.973 E0.02671
G1 X167.652 Y137.325 E0.02922
G1 X168.223 Y136.652 E0.03515
G1 X168.668 Y136.31 E0.02235
G1 X169.444 Y135.869 E0.03555
G1 X170.398 Y135.626 E0.03921
G1 X171.37 Y135.626 E0.03871
G1 X172.322 Y135.869 E0.03913
G1 X173.161 Y136.332 E0.03816
G1 X173.697 Y136.82 E0.02887
G1 X174.156 Y137.391 E0.02918
G1 X174.493 Y138.064 E0.02997
G1 X174.674 Y138.621 E0.02332
G1 X174.766 Y139.301 E0.02733
G1 X174.768 Y140.11 E0.03222
G1 X178.884 Y140.11 E0.16392
G1 X179.417 Y140.188 E0.02145
G1 X180.008 Y140.508 E0.02677
G1 X180.259 Y140.723 E0.01316
G1 X180.612 Y141.266 E0.02579
G1 X180.774 Y141.943 E0.02772
G1 X180.774 Y146 E0.16157
G1 X180.696 Y146.533 E0.02145
G1 X180.376 Y147.124 E0.02677
G1 X180.161 Y147.375 E0.01316
G1 X179.991 Y147.499 E0.00838
