;FLAVOR:RepRap
;TIME:1467
;Filament used: 1.26554m
;Layer height: 0.16
;MINX:129.748
;MINY:121.41
;MINZ:0.2
;MAXX:168.252
;MAXY:158.69
;MAXZ:20.52
;Exported with Cura-DuetRRF v1.2.9 plugin by Thomas Kriechbaumer
;LINEARADVANCEPROCESSED
;Generated with Cura_SteamEngine 5.3.0
T0
M104 S210
M109 S210
M82 ;absolute extrusion mode

M83 ;relative extrusion mode
G1 F2100 E-0.3
;LAYER_COUNT:128
M572 S0.400000 D0 ;added by LinearAdvanceSettingPlugin
;LAYER:0
M107
G0 F6000 X130.45 Y123.547 Z0.2
;TYPE:SKIRT
G1 F2100 E0.3
G1 F1800 X130.917 Y123.098 E0.02633
G1 X131.686 Y122.379 E0.04279
G1 X132.099 Y122.044 E0.02161
G1 X132.455 Y121.815 E0.0172
G1 X133.189 Y121.542 E0.03183
G1 X133.669 Y121.431 E0.02002
G1 X134.801 Y121.41 E0.04602
G1 X145.407 Y121.41 E0.43107
G1 X147.249 Y121.437 E0.07487
G1 X147.708 Y121.45 E0.01866
G1 X150.975 Y121.444 E0.13278
G1 X152.811 Y121.41 E0.07463
G1 X163.407 Y121.41 E0.43066
G1 X164.108 Y121.42 E0.02849
G1 X164.807 Y121.528 E0.02875
G1 X165.272 Y121.686 E0.01996
G1 X165.89 Y122.034 E0.02883
G1 X166.288 Y122.353 E0.02073
G1 X167.515 Y123.502 E0.06832
G1 X167.835 Y123.877 E0.02004
G1 X168.044 Y124.245 E0.0172
G1 X168.18 Y124.647 E0.01725
G1 X168.24 Y125.138 E0.0201
G1 X168.252 Y126.163 E0.04166
G1 X168.25 Y127.487 E0.05381
G1 X168.24 Y128.184 E0.02833
G1 X168.051 Y131.45 E0.13297
G1 X167.972 Y134.242 E0.11352
G1 X167.972 Y137.012 E0.11258
G1 X168.049 Y139.749 E0.11129
G1 X168.16 Y141.846 E0.08535
G1 X168.24 Y143.129 E0.05225
G1 X168.252 Y144.163 E0.04203
G1 X168.25 Y145.511 E0.05479
G1 X168.238 Y146.2 E0.02801
G1 X168.19 Y146.621 E0.01722
G1 X168.064 Y147.03 E0.01739
G1 X166.76 Y150.146 E0.13729
G1 X165.804 Y151.941 E0.08266
G1 X165.57 Y152.294 E0.01721
G1 X165.275 Y152.598 E0.01722
G1 X164.917 Y152.847 E0.01772
G1 X162.79 Y154.037 E0.09906
G1 X160.43 Y155.44 E0.11159
G1 X158.992 Y156.339 E0.06893
G1 X156.415 Y157.981 E0.12419
G1 X155.803 Y158.359 E0.02924
G1 X155.423 Y158.547 E0.01723
G1 X155.015 Y158.66 E0.01721
G1 X154.466 Y158.69 E0.02235
G1 X153.756 Y158.64 E0.02893
G1 X152.429 Y158.53 E0.05412
G1 X149.62 Y158.375 E0.11434
G1 X146.885 Y158.301 E0.1112
G1 X144.113 Y158.305 E0.11266
G1 X141.341 Y158.387 E0.11271
G1 X138.612 Y158.546 E0.11111
G1 X137.85 Y158.611 E0.03108
G1 X136.792 Y158.688 E0.04311
G1 X136.369 Y158.679 E0.0172
G1 X135.954 Y158.59 E0.01725
G1 X135.564 Y158.426 E0.0172
G1 X135.211 Y158.191 E0.01724
G1 X134.82 Y157.806 E0.0223
G1 X134.234 Y156.891 E0.04416
G1 X133.851 Y156.27 E0.02965
G1 X133.186 Y154.954 E0.05993
G1 X133.145 Y154.888 E0.00316
G1 X132.606 Y153.795 E0.04953
G1 X132.272 Y153.147 E0.02963
G1 X131.182 Y150.153 E0.1295
G1 X130.441 Y148.325 E0.08017
G1 X130.417 Y148.245 E0.00339
G1 X129.919 Y146.993 E0.05476
G1 X129.764 Y146.464 E0.0224
G1 X129.75 Y145.602 E0.03504
G1 X129.75 Y143.805 E0.07304
G1 X129.761 Y143.108 E0.02833
G1 X129.952 Y139.823 E0.13374
G1 X130.03 Y137.063 E0.11222
G1 X130.03 Y134.277 E0.11323
G1 X129.952 Y131.548 E0.11096
G1 X129.838 Y129.687 E0.07578
G1 X129.776 Y128.514 E0.04774
G1 X129.748 Y127.068 E0.05878
G1 X129.75 Y125.814 E0.05097
G1 X129.76 Y125.136 E0.02756
G1 X129.806 Y124.715 E0.01721
G1 X129.931 Y124.309 E0.01727
G1 X130.129 Y123.935 E0.0172
G1 X130.246 Y123.793 E0.00748
G0 F1620 X130.45 Y123.547
G1 F2100 E-0.3
G0 F6000 X132.25 Y125.319
G1 F2100 E0.3
G1 F1800 X132.315 Y125.286 E0.00296
G1 X132.373 Y125.247 E0.00284
G1 X132.932 Y124.73 E0.03095
G1 X132.951 Y124.71 E0.00112
G1 X133.423 Y124.165 E0.0293
G1 X133.602 Y124.028 E0.00916
G1 X133.959 Y123.91 E0.01528
G1 X139.285 Y123.91 E0.21647
G1 X139.289 Y123.923 E0.00055
G1 X139.362 Y123.971 E0.00355
G1 X139.385 Y124.336 E0.01486
G1 X139.314 Y124.38 E0.00339
G1 X139.302 Y124.412 E0.00139
G1 X137.718 Y124.428 E0.06438
G1 X137.699 Y124.429 E0.00077
G1 X136.888 Y124.5 E0.03309
G1 X136.84 Y124.509 E0.00198
G1 X136.134 Y124.714 E0.02988
G1 X136.11 Y124.722 E0.00103
G1 X135.675 Y124.899 E0.01909
G1 X135.632 Y124.922 E0.00198
G1 X135.16 Y125.232 E0.02295
G1 X135.126 Y125.259 E0.00176
G1 X134.824 Y125.542 E0.01682
G1 X134.793 Y125.576 E0.00187
G1 X134.493 Y125.986 E0.02065
G1 X134.471 Y126.022 E0.00171
G1 X134.171 Y126.622 E0.02726
G1 X134.153 Y126.67 E0.00208
G1 X134.057 Y127.032 E0.01522
G1 X134.051 Y127.062 E0.00124
G1 X133.946 Y127.831 E0.03155
G1 X133.944 Y127.876 E0.00183
G1 X133.963 Y128.317 E0.01794
G1 X133.967 Y128.349 E0.00131
G1 X134.081 Y129.008 E0.02718
G1 X134.09 Y129.045 E0.00155
G1 X134.29 Y129.641 E0.02555
G1 X134.301 Y129.667 E0.00115
G1 X134.6 Y130.306 E0.02867
G1 X134.618 Y130.339 E0.00153
G1 X134.993 Y130.899 E0.02739
G1 X135.101 Y130.989 E0.00571
G1 X135.165 Y131.003 E0.00266
G1 X135.182 Y131.369 E0.01489
G1 X135.195 Y131.438 E0.00285
G1 X135.506 Y132.364 E0.0397
G1 X135.526 Y132.408 E0.00196
G1 X135.95 Y133.147 E0.03463
G1 X135.956 Y133.158 E0.00051
G1 X136.393 Y133.842 E0.03299
G1 X135.824 Y134.205 E0.02743
G1 X135.228 Y134.08 E0.02475
G1 X135.198 Y134.076 E0.00123
G1 X134.576 Y134.023 E0.02537
G1 X134.573 Y133.758 E0.01077
G1 X134.564 Y133.694 E0.00263
G1 X134.261 Y132.597 E0.04626
G1 X134.247 Y132.559 E0.00165
G1 X133.895 Y131.795 E0.03419
G1 X133.884 Y131.773 E0.001
G1 X133.529 Y131.168 E0.02851
G1 X133.3 Y130.643 E0.02328
G1 X133.139 Y129.819 E0.03412
G1 X133.127 Y129.775 E0.00185
G1 X132.816 Y128.987 E0.03443
G1 X132.805 Y128.963 E0.00107
G1 X132.385 Y128.157 E0.03694
G1 X132.304 Y128.066 E0.00495
G1 X132.25 Y128.029 E0.00266
G1 X132.25 Y127.325 E0.02861
G1 X132.303 Y127.265 E0.00325
G1 X132.326 Y127.155 E0.00457
G1 X132.307 Y126.155 E0.04065
G1 X132.265 Y126.022 E0.00567
G1 X132.25 Y126.009 E0.00081
G1 X132.25 Y125.639 E0.01504
G0 F1620 X132.25 Y125.319
G0 F6000 X132.75 Y125.579
G1 F1800 X133.271 Y125.097 E0.02885
G1 X133.329 Y125.037 E0.00339
G1 X133.767 Y124.531 E0.0272
G1 X133.838 Y124.477 E0.00363
G1 X134.04 Y124.41 E0.00865
G1 X135.55 Y124.41 E0.06137
G1 X135.486 Y124.436 E0.00281
G1 X135.357 Y124.504 E0.00593
G1 X134.885 Y124.814 E0.02295
G1 X134.784 Y124.894 E0.00524
G1 X134.482 Y125.177 E0.01682
G1 X134.39 Y125.281 E0.00564
G1 X134.09 Y125.691 E0.02065
G1 X134.024 Y125.799 E0.00514
G1 X133.724 Y126.399 E0.02726
G1 X133.67 Y126.542 E0.00621
G1 X133.574 Y126.904 E0.01522
G1 X133.556 Y126.995 E0.00377
G1 X133.451 Y127.764 E0.03155
G1 X133.445 Y127.897 E0.00541
G1 X133.464 Y128.338 E0.01794
G1 X133.474 Y128.434 E0.00392
G1 X133.588 Y129.093 E0.02718
G1 X133.616 Y129.204 E0.00465
G1 X133.816 Y129.8 E0.02555
G1 X133.848 Y129.879 E0.00346
G1 X134.147 Y130.518 E0.02867
G1 X134.203 Y130.617 E0.00462
G1 X134.578 Y131.177 E0.02739
G1 X134.678 Y131.284 E0.00595
G1 X134.683 Y131.392 E0.00439
G1 X134.721 Y131.597 E0.00847
G1 X135.032 Y132.523 E0.0397
G1 X135.092 Y132.657 E0.00597
G1 X135.516 Y133.396 E0.03463
G1 X135.535 Y133.427 E0.00148
G1 X135.688 Y133.666 E0.01153
G1 X135.331 Y133.591 E0.01483
G1 X135.24 Y133.578 E0.00374
G1 X135.046 Y133.562 E0.00791
G1 X134.743 Y132.464 E0.0463
G1 X134.701 Y132.35 E0.00494
G1 X134.349 Y131.586 E0.03419
G1 X134.315 Y131.52 E0.00302
G1 X133.975 Y130.941 E0.02729
G1 X133.78 Y130.495 E0.01978
G1 X133.63 Y129.724 E0.03192
G1 X133.592 Y129.592 E0.00558
G1 X133.281 Y128.804 E0.03443
G1 X133.248 Y128.732 E0.00322
G1 X132.828 Y127.926 E0.03694
G1 X132.75 Y127.822 E0.00528
G1 X132.75 Y127.465 E0.01451
G1 X132.8 Y127.355 E0.00491
G1 X132.826 Y127.146 E0.00856
G1 X132.807 Y126.146 E0.04065
G1 X132.763 Y125.906 E0.00992
G1 X132.758 Y125.897 E0.00042
G0 F1620 X132.75 Y125.883
G0 X132.75 Y125.579
G0 F6000 X133.25 Y125.798
G1 F1800 X133.611 Y125.464 E0.01999
G1 X133.707 Y125.365 E0.0056
G1 X133.718 Y125.353 E0.00066
G1 X133.686 Y125.396 E0.00218
G1 X133.577 Y125.575 E0.00852
G1 X133.305 Y126.12 E0.02476
G1 X133.264 Y125.846 E0.01126
G0 F1620 X133.261 Y125.824
G0 X133.25 Y125.798
G1 F2100 E-0.3
G0 F6000 X140.646 Y124.356
G1 F2100 E0.3
G1 F1800 X140.624 Y123.983 E0.01519
G1 X140.685 Y123.946 E0.0029
G1 X140.699 Y123.91 E0.00157
G1 X146.055 Y123.91 E0.21769
G1 X146.244 Y123.952 E0.00787
G1 X146.384 Y124.018 E0.00629
G1 X146.58 Y124.168 E0.01003
G1 X147.05 Y124.71 E0.02916
G1 X147.068 Y124.729 E0.00106
G1 X147.618 Y125.243 E0.0306
G1 X147.681 Y125.285 E0.00308
G1 X147.75 Y125.318 E0.00311
G1 X147.75 Y125.997 E0.0276
G1 X147.699 Y126.055 E0.00314
G1 X147.676 Y126.164 E0.00453
G1 X147.694 Y127.164 E0.04065
G1 X147.736 Y127.298 E0.00571
G1 X147.75 Y127.31 E0.00075
G1 X147.75 Y128.029 E0.02922
G1 X147.738 Y128.038 E0.00061
G1 X147.674 Y128.111 E0.00395
G1 X147.271 Y128.809 E0.03276
G1 X147.257 Y128.839 E0.00135
G1 X146.928 Y129.641 E0.03523
G1 X146.915 Y129.684 E0.00183
G1 X146.734 Y130.533 E0.03528
G1 X146.503 Y131.087 E0.0244
G1 X145.958 Y132.013 E0.04367
G1 X145.946 Y132.035 E0.00102
G1 X145.663 Y132.648 E0.02744
G1 X145.444 Y132.662 E0.00892
G1 X144.543 Y131.248 E0.06815
G1 X144.796 Y130.952 E0.01583
G1 X144.845 Y130.906 E0.00273
G1 X145.394 Y130.142 E0.03824
G1 X145.419 Y130.098 E0.00206
G1 X145.757 Y129.339 E0.03377
G1 X145.771 Y129.301 E0.00165
G1 X145.952 Y128.613 E0.02891
G1 X145.958 Y128.578 E0.00144
G1 X146.007 Y128.152 E0.01743
G1 X146.009 Y128.111 E0.00167
G1 X145.973 Y127.331 E0.03174
G1 X145.965 Y127.282 E0.00202
G1 X145.809 Y126.663 E0.02595
G1 X145.797 Y126.626 E0.00158
G1 X145.607 Y126.179 E0.01974
G1 X145.584 Y126.137 E0.00195
G1 X145.237 Y125.624 E0.02517
G1 X145.206 Y125.586 E0.00199
G1 X144.837 Y125.222 E0.02107
G1 X144.779 Y125.179 E0.00293
G1 X144.013 Y124.77 E0.03529
G1 X143.974 Y124.754 E0.00171
G1 X143.567 Y124.619 E0.01743
G1 X143.543 Y124.612 E0.00102
G1 X142.909 Y124.47 E0.02641
G1 X142.87 Y124.465 E0.0016
G1 X142.122 Y124.416 E0.03047
G1 X142.107 Y124.415 E0.00061
G1 X140.945 Y124.411 E0.04723
G0 F1620 X140.714 Y124.411
G0 X140.711 Y124.399
G0 X140.646 Y124.356
G1 F2100 E-0.3
G0 F6000 X144.4 Y124.41
G1 F2100 E0.3
G1 F1800 X146 Y124.41 E0.06503
G1 X146.079 Y124.428 E0.00329
G1 X146.125 Y124.449 E0.00206
G1 X146.235 Y124.533 E0.00563
G1 X146.672 Y125.037 E0.02711
G1 X146.727 Y125.094 E0.00322
G1 X147.25 Y125.583 E0.0291
G1 X147.25 Y125.859 E0.01122
G1 X147.202 Y125.965 E0.00473
G1 X147.176 Y126.173 E0.00852
G1 X147.194 Y127.173 E0.04065
G1 X147.238 Y127.414 E0.00996
G1 X147.25 Y127.435 E0.00098
G1 X147.25 Y127.851 E0.01691
G1 X147.241 Y127.861 E0.00055
G1 X146.838 Y128.559 E0.03276
G1 X146.794 Y128.649 E0.00407
G1 X146.465 Y129.451 E0.03523
G1 X146.426 Y129.579 E0.00544
G1 X146.254 Y130.383 E0.03342
G1 X146.055 Y130.863 E0.02112
G1 X145.527 Y131.759 E0.04227
G1 X145.497 Y131.816 E0.00262
G1 X145.163 Y131.292 E0.02526
G1 X145.192 Y131.259 E0.00179
G1 X145.251 Y131.198 E0.00345
G1 X145.8 Y130.434 E0.03824
G1 X145.876 Y130.301 E0.00623
G1 X146.214 Y129.542 E0.03377
G1 X146.254 Y129.428 E0.00491
G1 X146.435 Y128.74 E0.02891
G1 X146.455 Y128.635 E0.00434
G1 X146.504 Y128.209 E0.01743
G1 X146.508 Y128.088 E0.00492
G1 X146.472 Y127.308 E0.03174
G1 X146.45 Y127.16 E0.00608
G1 X146.294 Y126.541 E0.02595
G1 X146.257 Y126.431 E0.00472
G1 X146.067 Y125.984 E0.01974
G1 X145.998 Y125.857 E0.00587
G1 X145.651 Y125.344 E0.02517
G1 X145.557 Y125.23 E0.00601
G1 X145.188 Y124.866 E0.02107
G1 X145.014 Y124.738 E0.00878
G1 X144.682 Y124.56 E0.01531
G0 F1620 X144.4 Y124.41
G1 F2100 E-0.3
G0 F6000 X146.178 Y125.231
G1 F2100 E0.3
G1 F1800 X146.294 Y125.365 E0.0072
G1 X146.386 Y125.459 E0.00535
G1 X146.734 Y125.784 E0.01935
G1 X146.681 Y126.15 E0.01503
G1 X146.527 Y125.788 E0.01599
G1 X146.412 Y125.577 E0.00977
G1 X146.221 Y125.294 E0.01388
G0 F1620 X146.178 Y125.231
G1 F2100 E-0.3
G0 F6000 X150.25 Y125.319
G1 F2100 E0.3
G1 F1800 X150.315 Y125.286 E0.00296
G1 X150.373 Y125.247 E0.00284
G1 X150.932 Y124.73 E0.03095
G1 X150.951 Y124.71 E0.00112
G1 X151.423 Y124.165 E0.0293
G1 X151.602 Y124.028 E0.00916
G1 X151.959 Y123.91 E0.01528
G1 X157.285 Y123.91 E0.21647
G1 X157.289 Y123.923 E0.00055
G1 X157.362 Y123.971 E0.00355
G1 X157.385 Y124.336 E0.01486
G1 X157.314 Y124.38 E0.00339
G1 X157.302 Y124.412 E0.00139
G1 X155.718 Y124.428 E0.06438
G1 X155.699 Y124.429 E0.00077
G1 X154.888 Y124.5 E0.03309
G1 X154.84 Y124.509 E0.00198
G1 X154.134 Y124.714 E0.02988
G1 X154.11 Y124.722 E0.00103
G1 X153.675 Y124.899 E0.01909
G1 X153.632 Y124.922 E0.00198
G1 X153.16 Y125.232 E0.02295
G1 X153.126 Y125.259 E0.00176
G1 X152.824 Y125.542 E0.01682
G1 X152.793 Y125.576 E0.00187
G1 X152.493 Y125.986 E0.02065
G1 X152.471 Y126.022 E0.00171
G1 X152.171 Y126.622 E0.02726
G1 X152.153 Y126.67 E0.00208
G1 X152.057 Y127.032 E0.01522
G1 X152.051 Y127.062 E0.00124
G1 X151.946 Y127.831 E0.03155
G1 X151.944 Y127.876 E0.00183
G1 X151.963 Y128.317 E0.01794
G1 X151.967 Y128.349 E0.00131
G1 X152.081 Y129.008 E0.02718
G1 X152.09 Y129.045 E0.00155
G1 X152.29 Y129.641 E0.02555
G1 X152.301 Y129.667 E0.00115
G1 X152.6 Y130.306 E0.02867
G1 X152.618 Y130.339 E0.00153
G1 X152.993 Y130.899 E0.02739
G1 X153.101 Y130.989 E0.00571
G1 X153.165 Y131.003 E0.00266
G1 X153.182 Y131.369 E0.01489
G1 X153.195 Y131.438 E0.00285
G1 X153.506 Y132.364 E0.0397
G1 X153.526 Y132.408 E0.00196
G1 X153.95 Y133.147 E0.03463
G1 X153.956 Y133.158 E0.00051
G1 X154.393 Y133.842 E0.03299
G1 X153.824 Y134.205 E0.02743
G1 X153.228 Y134.08 E0.02475
G1 X153.198 Y134.076 E0.00123
G1 X152.576 Y134.023 E0.02537
G1 X152.573 Y133.758 E0.01077
G1 X152.564 Y133.694 E0.00263
G1 X152.261 Y132.597 E0.04626
G1 X152.247 Y132.559 E0.00165
G1 X151.895 Y131.795 E0.03419
G1 X151.884 Y131.773 E0.001
G1 X151.529 Y131.168 E0.02851
G1 X151.3 Y130.643 E0.02328
G1 X151.139 Y129.819 E0.03412
G1 X151.127 Y129.775 E0.00185
G1 X150.816 Y128.987 E0.03443
G1 X150.805 Y128.963 E0.00107
G1 X150.385 Y128.157 E0.03694
G1 X150.304 Y128.066 E0.00495
G1 X150.25 Y128.029 E0.00266
G1 X150.25 Y127.325 E0.02861
G1 X150.303 Y127.265 E0.00325
G1 X150.326 Y127.155 E0.00457
G1 X150.307 Y126.155 E0.04065
G1 X150.265 Y126.022 E0.00567
G1 X150.25 Y126.009 E0.00081
G1 X150.25 Y125.639 E0.01504
G0 F1620 X150.25 Y125.319
G0 F6000 X150.75 Y125.579
G1 F1800 X151.271 Y125.097 E0.02885
G1 X151.329 Y125.037 E0.00339
G1 X151.767 Y124.531 E0.0272
G1 X151.838 Y124.477 E0.00363
G1 X152.04 Y124.41 E0.00865
G1 X153.55 Y124.41 E0.06137
G1 X153.486 Y124.436 E0.00281
G1 X153.357 Y124.504 E0.00593
G1 X152.885 Y124.814 E0.02295
G1 X152.784 Y124.894 E0.00524
G1 X152.482 Y125.177 E0.01682
G1 X152.39 Y125.281 E0.00564
G1 X152.09 Y125.691 E0.02065
G1 X152.024 Y125.799 E0.00514
G1 X151.724 Y126.399 E0.02726
G1 X151.67 Y126.542 E0.00621
G1 X151.574 Y126.904 E0.01522
G1 X151.556 Y126.995 E0.00377
G1 X151.451 Y127.764 E0.03155
G1 X151.445 Y127.897 E0.00541
G1 X151.464 Y128.338 E0.01794
G1 X151.474 Y128.434 E0.00392
G1 X151.588 Y129.093 E0.02718
G1 X151.616 Y129.204 E0.00465
G1 X151.816 Y129.8 E0.02555
G1 X151.848 Y129.879 E0.00346
G1 X152.147 Y130.518 E0.02867
G1 X152.203 Y130.617 E0.00462
G1 X152.578 Y131.177 E0.02739
G1 X152.678 Y131.284 E0.00595
G1 X152.683 Y131.392 E0.00439
G1 X152.721 Y131.597 E0.00847
G1 X153.032 Y132.523 E0.0397
G1 X153.092 Y132.657 E0.00597
G1 X153.516 Y133.396 E0.03463
G1 X153.535 Y133.427 E0.00148
G1 X153.688 Y133.666 E0.01153
G1 X153.331 Y133.591 E0.01483
G1 X153.24 Y133.578 E0.00374
G1 X153.046 Y133.562 E0.00791
G1 X152.743 Y132.464 E0.0463
G1 X152.701 Y132.35 E0.00494
G1 X152.349 Y131.586 E0.03419
G1 X152.315 Y131.52 E0.00302
G1 X151.975 Y130.941 E0.02729
G1 X151.78 Y130.495 E0.01978
G1 X151.63 Y129.724 E0.03192
G1 X151.592 Y129.592 E0.00558
G1 X151.281 Y128.804 E0.03443
G1 X151.248 Y128.732 E0.00322
G1 X150.828 Y127.926 E0.03694
G1 X150.75 Y127.822 E0.00528
G1 X150.75 Y127.465 E0.01451
G1 X150.8 Y127.355 E0.00491
G1 X150.826 Y127.146 E0.00856
G1 X150.807 Y126.146 E0.04065
G1 X150.763 Y125.906 E0.00992
G1 X150.758 Y125.897 E0.00042
G0 F1620 X150.75 Y125.883
G0 X150.75 Y125.579
G0 F6000 X151.25 Y125.798
G1 F1800 X151.611 Y125.464 E0.01999
G1 X151.707 Y125.365 E0.0056
G1 X151.718 Y125.353 E0.00066
G1 X151.686 Y125.396 E0.00218
G1 X151.577 Y125.575 E0.00852
G1 X151.305 Y126.12 E0.02476
G1 X151.264 Y125.846 E0.01126
G0 F1620 X151.261 Y125.824
G0 X151.25 Y125.798
G1 F2100 E-0.3
G0 F6000 X158.646 Y124.356
G1 F2100 E0.3
G1 F1800 X158.624 Y123.983 E0.01519
G1 X158.685 Y123.946 E0.0029
G1 X158.699 Y123.91 E0.00157
G1 X164.055 Y123.91 E0.21769
