;FLAVOR:RepRap
;TIME:60
;Filament used: 0.0621415m
;Layer height: 0.3
;MINX:112.957
;MINY:132.314
;MINZ:0.2
;MAXX:167.043
;MAXY:167.686
;MAXZ:0.2
;Exported with Cura-DuetRRF v1.2.9 plugin by Thomas Kriechbaumer
;LINEARADVANCEPROCESSED
;Generated with Cura_SteamEngine 5.3.0
T0
M104 S215
M109 S215
M82 ;absolute extrusion mode

M83 ;relative extrusion mode
G1 F2100 E-0.4
;LAYER_COUNT:1
M572 S0.400000 D0 ;added by LinearAdvanceSettingPlugin
;LAYER:0
M107
G0 F6000 X115.044 Y133.594 Z0.2
;TYPE:SKIRT
G1 F2100 E0.4
G1 F1800 X115.751 Y133.101 E0.02803
G1 X116.502 Y132.729 E0.02725
G1 X117.357 Y132.453 E0.02921
G1 X118.307 Y132.328 E0.03116
G1 X118.875 Y132.321 E0.01847
G1 X119.963 Y132.344 E0.03538
G1 X120.626 Y132.368 E0.02157
G1 X123.376 Y132.394 E0.08942
G1 X125.346 Y132.364 E0.06406
G1 X127.209 Y132.318 E0.06059
G1 X130.762 Y132.397 E0.11555
G1 X133.536 Y132.376 E0.0902
G1 X134.712 Y132.337 E0.03826
G1 X135.974 Y132.321 E0.04104
G1 X137.063 Y132.344 E0.03542
G1 X137.726 Y132.368 E0.02157
G1 X140.476 Y132.394 E0.08942
G1 X142.446 Y132.364 E0.06406
G1 X144.309 Y132.318 E0.06059
G1 X147.862 Y132.397 E0.11555
G1 X150.636 Y132.376 E0.0902
G1 X151.812 Y132.337 E0.03826
G1 X153.074 Y132.321 E0.04104
G1 X154.163 Y132.344 E0.03542
G1 X154.826 Y132.368 E0.02157
G1 X157.576 Y132.394 E0.08942
G1 X159.546 Y132.364 E0.06406
G1 X161.623 Y132.314 E0.06755
G1 X162.541 Y132.431 E0.03009
G1 X163.454 Y132.721 E0.03115
G1 X164.102 Y133.015 E0.02314
G1 X164.808 Y133.479 E0.02747
G1 X165.43 Y134.029 E0.027
G1 X165.99 Y134.7 E0.02842
G1 X166.43 Y135.43 E0.02771
G1 X166.699 Y136.081 E0.0229
G1 X166.957 Y137 E0.03104
G1 X167.043 Y137.924 E0.03017
G1 X167.006 Y139.245 E0.04297
G1 X166.966 Y142.038 E0.09082
G1 X167.015 Y145.172 E0.10191
G1 X167.039 Y145.94 E0.02498
G1 X167.006 Y147.245 E0.04245
G1 X166.966 Y150.038 E0.09082
G1 X167.015 Y153.172 E0.10191
G1 X167.039 Y153.94 E0.02498
G1 X167.006 Y155.245 E0.04245
G1 X166.966 Y158.038 E0.09082
G1 X167.015 Y161.171 E0.10188
G1 X167.04 Y161.964 E0.0258
G1 X166.993 Y162.744 E0.02541
G1 X166.808 Y163.63 E0.02943
G1 X166.442 Y164.521 E0.03132
G1 X166.105 Y165.131 E0.02266
G1 X165.587 Y165.803 E0.02759
G1 X164.955 Y166.406 E0.0284
G1 X164.249 Y166.899 E0.028
G1 X163.498 Y167.271 E0.02725
G1 X162.643 Y167.547 E0.02921
G1 X161.693 Y167.672 E0.03116
G1 X161.125 Y167.679 E0.01847
G1 X160.037 Y167.656 E0.03538
G1 X159.374 Y167.632 E0.02157
G1 X156.624 Y167.606 E0.08942
G1 X154.654 Y167.636 E0.06406
G1 X152.791 Y167.682 E0.06059
G1 X149.238 Y167.603 E0.11555
G1 X146.464 Y167.624 E0.0902
G1 X145.288 Y167.663 E0.03826
G1 X144.026 Y167.679 E0.04104
G1 X142.937 Y167.656 E0.03542
G1 X142.274 Y167.632 E0.02157
G1 X139.524 Y167.606 E0.08942
G1 X137.554 Y167.636 E0.06406
G1 X135.691 Y167.682 E0.06059
G1 X132.138 Y167.603 E0.11555
G1 X129.364 Y167.624 E0.0902
G1 X128.188 Y167.663 E0.03826
G1 X126.926 Y167.679 E0.04104
G1 X125.837 Y167.656 E0.03542
G1 X125.174 Y167.632 E0.02157
G1 X122.424 Y167.606 E0.08942
G1 X120.454 Y167.636 E0.06406
G1 X118.373 Y167.686 E0.06768
G1 X117.462 Y167.571 E0.02986
G1 X116.546 Y167.279 E0.03126
G1 X115.896 Y166.984 E0.02321
G1 X115.192 Y166.521 E0.0274
G1 X114.572 Y165.973 E0.02691
G1 X114.005 Y165.293 E0.02879
G1 X113.568 Y164.566 E0.02758
G1 X113.299 Y163.915 E0.0229
G1 X113.043 Y162.998 E0.03096
G1 X112.957 Y162.062 E0.03056
G1 X112.994 Y160.755 E0.04251
G1 X113.034 Y157.962 E0.09082
G1 X112.984 Y154.794 E0.10302
G1 X112.961 Y154.06 E0.02388
G1 X112.994 Y152.755 E0.04245
G1 X113.034 Y149.962 E0.09082
G1 X112.984 Y146.794 E0.10302
G1 X112.961 Y146.06 E0.02388
G1 X112.994 Y144.755 E0.04245
G1 X113.034 Y141.962 E0.09082
G1 X112.984 Y138.794 E0.10302
G1 X112.96 Y138.035 E0.02469
G1 X113.007 Y137.256 E0.02538
G1 X113.192 Y136.369 E0.02946
G1 X113.558 Y135.476 E0.03138
G1 X113.894 Y134.87 E0.02253
G1 X114.414 Y134.197 E0.02765
G1 X114.756 Y133.87 E0.01539
G0 F1620 X115.044 Y133.594
G1 F2100 E-0.4
;MESH:Washer_Trim.3mf(1)
G0 F6000 X116.804 Y135.662
G0 X117.152 Y136.062
;TYPE:WALL-OUTER
G1 F2100 E0.4
G1 F1289.4 X117.531 Y135.822 E0.02545
G1 F1293.1 X117.947 Y135.655 E0.02536
G1 F1291.2 X118.405 Y135.563 E0.02647
G1 F1293.1 X118.898 Y135.563 E0.02789
G1 F1296.8 X119.333 Y135.647 E0.02499
G1 X119.711 Y135.794 E0.02288
G1 F1291.2 X120.152 Y136.065 E0.02933
G1 F1289.4 X120.441 Y136.329 E0.02221
G1 X120.715 Y136.684 E0.02544
G1 F1293.1 X120.933 Y137.115 E0.02733
G1 F1231.2 X121.133 Y138 E0.05391
G1 X120.933 Y138.885 E0.05391
G1 F1293.1 X120.715 Y139.316 E0.02733
G1 F1289.4 X120.458 Y139.654 E0.02409
G1 F1287.6 X120.152 Y139.935 E0.02361
G1 F1291.2 X119.74 Y140.193 E0.02754
G1 F1296.8 X119.333 Y140.352 E0.02465
G1 F1291.2 X118.863 Y140.44 E0.02709
G1 F1287.6 X118.405 Y140.437 E0.02602
G1 F1291.2 X117.972 Y140.354 E0.02498
G1 F1293.1 X117.564 Y140.195 E0.02477
G1 F1291.2 X117.148 Y139.935 E0.02779
G1 F1289.4 X116.849 Y139.66 E0.02305
G1 X116.585 Y139.316 E0.0246
G1 F1291.2 X116.369 Y138.889 E0.02711
G1 F1293.1 X116.248 Y138.467 E0.02484
G1 F1291.2 X116.202 Y138.026 E0.02512
G1 X116.247 Y137.533 E0.02805
G1 F1293.1 X116.369 Y137.111 E0.02485
G1 X116.562 Y136.72 E0.02467
G1 F1291.2 X116.827 Y136.364 E0.02514
G1 F1287.6 X117.152 Y136.062 E0.02521
G0 F6000 X117.363 Y135.929
G1 F2100 E-0.4
G0 F6000 X117.231 Y135.713
G0 X118.407 Y135.37
G0 X119.827 Y135.635
G0 X120.684 Y136.33
G0 X121.566 Y137.809
G1 F2100 E0.4
G0 F6000 X121.805 Y137.758
G1 F1250 X121.665 Y137.099 E0.03943
G1 F1280.2 X121.504 Y136.674 E0.02597
G1 F1282.1 X121.264 Y136.246 E0.028
G1 F1285.7 X120.973 Y135.873 E0.02692
G1 X120.639 Y135.558 E0.02612
G1 F1282.1 X120.246 Y135.287 E0.02724
G1 X119.821 Y135.078 E0.02703
G1 X119.374 Y134.935 E0.02678
G1 F1285.7 X118.91 Y134.861 E0.02674
G1 F1287.6 X118.427 Y134.859 E0.02744
G1 F1283.9 X117.974 Y134.926 E0.02609
G1 F1282.1 X117.51 Y135.066 E0.02766
G1 F1280.2 X117.089 Y135.267 E0.02666
G1 F1283.9 X116.703 Y135.526 E0.02649
G1 F1289.4 X116.342 Y135.858 E0.02783
G1 F1285.7 X116.054 Y136.219 E0.02628
G1 F1282.1 X115.818 Y136.628 E0.02695
G1 X115.647 Y137.061 E0.02657
G1 F1283.9 X115.536 Y137.538 E0.02791
G1 F1285.7 X115.501 Y138 E0.02636
G1 X115.536 Y138.462 E0.02636
G1 F1283.9 X115.647 Y138.937 E0.0278
G1 F1282.1 X115.818 Y139.372 E0.02667
G1 X116.054 Y139.781 E0.02695
G1 F1285.7 X116.342 Y140.142 E0.02628
G1 F1289.4 X116.701 Y140.473 E0.02771
G1 F1285.7 X117.089 Y140.733 E0.02658
G1 F1282.1 X117.51 Y140.934 E0.02662
G1 X117.974 Y141.074 E0.02766
G1 F1285.7 X118.43 Y141.141 E0.02623
G1 X118.91 Y141.138 E0.02731
G1 F1283.9 X119.374 Y141.065 E0.02677
G1 F1280.2 X119.821 Y140.922 E0.02682
G1 X120.246 Y140.713 E0.02706
G1 F1282.1 X120.639 Y140.442 E0.02724
G1 F1285.7 X120.975 Y140.125 E0.02628
G1 F1287.6 X121.266 Y139.75 E0.02697
G1 F1283.9 X121.505 Y139.326 E0.02773
G1 F1282.1 X121.665 Y138.901 E0.02591
G1 F1251.7 X121.807 Y138.242 E0.0394
G1 F1482.7 X122.42 Y138.24 E0.03025
G1 F1666.7 X122.66 Y138.3 E0.01086
G1 F1468.2 X122.66 Y140.787 E0.12393
G1 F1408.5 X122.66 Y143.274 E0.12918
G1 F1353.4 X122.66 Y145.761 E0.13444
G1 F1549.1 X122.085 Y145.76 E0.02716
G1 F1475.4 X121.805 Y145.758 E0.01388
G1 F1250 X121.665 Y145.099 E0.03943
G1 F1280.2 X121.504 Y144.674 E0.02597
G1 F1282.1 X121.264 Y144.246 E0.028
G1 F1285.7 X120.973 Y143.873 E0.02692
G1 X120.639 Y143.558 E0.02612
G1 F1282.1 X120.246 Y143.287 E0.02724
G1 X119.821 Y143.078 E0.02703
G1 X119.374 Y142.935 E0.02678
G1 F1285.7 X118.91 Y142.861 E0.02674
G1 F1287.6 X118.427 Y142.859 E0.02744
G1 F1283.9 X117.974 Y142.926 E0.02609
G1 F1282.1 X117.51 Y143.066 E0.02766
G1 F1280.2 X117.089 Y143.267 E0.02666
G1 F1283.9 X116.703 Y143.526 E0.02649
G1 F1289.4 X116.342 Y143.858 E0.02783
G1 F1285.7 X116.054 Y144.219 E0.02628
G1 F1282.1 X115.818 Y144.628 E0.02695
G1 X115.647 Y145.061 E0.02657
G1 F1283.9 X115.536 Y145.538 E0.02791
G1 F1285.7 X115.501 Y146 E0.02636
G1 X115.536 Y146.462 E0.02636
G1 F1283.9 X115.647 Y146.937 E0.0278
G1 F1282.1 X115.818 Y147.372 E0.02667
G1 X116.054 Y147.781 E0.02695
G1 F1285.7 X116.342 Y148.142 E0.02628
G1 F1289.4 X116.701 Y148.473 E0.02771
G1 F1285.7 X117.089 Y148.733 E0.02658
G1 F1282.1 X117.51 Y148.934 E0.02662
G1 X117.974 Y149.074 E0.02766
G1 F1285.7 X118.43 Y149.141 E0.02623
G1 X118.91 Y149.138 E0.02731
G1 F1283.9 X119.374 Y149.065 E0.02677
G1 F1280.2 X119.821 Y148.922 E0.02682
G1 X120.246 Y148.713 E0.02706
G1 F1282.1 X120.639 Y148.442 E0.02724
G1 F1285.7 X120.975 Y148.125 E0.02628
G1 F1287.6 X121.266 Y147.75 E0.02697
G1 F1283.9 X121.505 Y147.326 E0.02773
G1 F1282.1 X121.665 Y146.901 E0.02591
G1 F1251.7 X121.807 Y146.242 E0.0394
G1 F1477.8 X122.085 Y146.24 E0.01376
G1 F1549.1 X122.66 Y146.24 E0.02716
G1 F1327.4 X122.66 Y153.76 E0.41445
G1 F1549.1 X122.085 Y153.76 E0.02716
G1 F1475.4 X121.805 Y153.758 E0.01388
G1 F1250 X121.665 Y153.099 E0.03943
G1 F1280.2 X121.504 Y152.674 E0.02597
G1 F1282.1 X121.264 Y152.246 E0.028
G1 F1285.7 X120.973 Y151.873 E0.02692
G1 X120.639 Y151.558 E0.02612
G1 F1282.1 X120.246 Y151.287 E0.02724
G1 X119.821 Y151.078 E0.02703
G1 X119.374 Y150.935 E0.02678
G1 F1285.7 X118.91 Y150.861 E0.02674
G1 F1287.6 X118.427 Y150.859 E0.02744
G1 F1283.9 X117.974 Y150.926 E0.02609
G1 F1282.1 X117.51 Y151.066 E0.02766
G1 F1280.2 X117.089 Y151.267 E0.02666
G1 F1283.9 X116.703 Y151.526 E0.02649
G1 F1289.4 X116.342 Y151.858 E0.02783
G1 F1285.7 X116.054 Y152.219 E0.02628
G1 F1282.1 X115.818 Y152.628 E0.02695
G1 X115.647 Y153.061 E0.02657
G1 F1283.9 X115.536 Y153.538 E0.02791
G1 F1285.7 X115.501 Y154 E0.02636
G1 X115.536 Y154.462 E0.02636
G1 F1283.9 X115.647 Y154.937 E0.0278
G1 F1282.1 X115.818 Y155.372 E0.02667
G1 X116.054 Y155.781 E0.02695
G1 F1285.7 X116.342 Y156.142 E0.02628
G1 F1289.4 X116.701 Y156.473 E0.02771
G1 F1285.7 X117.089 Y156.733 E0.02658
G1 F1282.1 X117.51 Y156.934 E0.02662
G1 X117.974 Y157.074 E0.02766
G1 F1285.7 X118.43 Y157.141 E0.02623
G1 X118.91 Y157.138 E0.02731
G1 F1283.9 X119.374 Y157.065 E0.02677
G1 F1280.2 X119.821 Y156.922 E0.02682
G1 X120.246 Y156.713 E0.02706
G1 F1282.1 X120.639 Y156.442 E0.02724
G1 F1285.7 X120.975 Y156.125 E0.02628
G1 F1287.6 X121.266 Y155.75 E0.02697
G1 F1283.9 X121.505 Y155.326 E0.02773
G1 F1282.1 X121.665 Y154.901 E0.02591
G1 F1251.7 X121.807 Y154.242 E0.0394
G1 F1477.8 X122.085 Y154.24 E0.01376
G1 F1549.1 X122.66 Y154.24 E0.02716
G1 F1353.4 X122.66 Y156.727 E0.13444
G1 F1408.5 X122.66 Y159.214 E0.12918
G1 F1468.2 X122.66 Y161.701 E0.12393
G1 F1654.4 X122.482 Y161.756 E0.00824
G1 F1627.5 X121.953 Y161.783 E0.02381
G1 F1329.4 X121.805 Y161.758 E0.00826
G1 F1250 X121.665 Y161.099 E0.03943
G1 F1280.2 X121.504 Y160.674 E0.02597
G1 F1282.1 X121.264 Y160.246 E0.028
G1 F1285.7 X120.973 Y159.873 E0.02692
G1 X120.639 Y159.558 E0.02612
G1 F1282.1 X120.246 Y159.287 E0.02724
G1 X119.821 Y159.078 E0.02703
G1 X119.374 Y158.935 E0.02678
G1 F1285.7 X118.91 Y158.861 E0.02674
G1 F1287.6 X118.427 Y158.859 E0.02744
G1 F1283.9 X117.974 Y158.926 E0.02609
G1 F1282.1 X117.51 Y159.066 E0.02766
G1 F1280.2 X117.089 Y159.267 E0.02666
G1 F1283.9 X116.703 Y159.526 E0.02649
G1 F1289.4 X116.342 Y159.858 E0.02783
G1 F1285.7 X116.054 Y160.219 E0.02628
G1 F1282.1 X115.818 Y160.628 E0.02695
G1 X115.647 Y161.061 E0.02657
G1 F1283.9 X115.536 Y161.538 E0.02791
G1 F1285.7 X115.501 Y162 E0.02636
G1 X115.536 Y162.462 E0.02636
G1 F1283.9 X115.647 Y162.937 E0.0278
G1 F1282.1 X115.818 Y163.372 E0.02667
G1 X116.054 Y163.781 E0.02695
G1 F1285.7 X116.342 Y164.142 E0.02628
G1 F1289.4 X116.701 Y164.473 E0.02771
G1 F1285.7 X117.089 Y164.733 E0.02658
G1 F1282.1 X117.51 Y164.934 E0.02662
G1 X117.974 Y165.074 E0.02766
G1 F1285.7 X118.43 Y165.141 E0.02623
G1 X118.91 Y165.138 E0.02731
G1 F1283.9 X119.374 Y165.065 E0.02677
G1 F1280.2 X119.821 Y164.922 E0.02682
G1 X120.246 Y164.713 E0.02706
G1 F1282.1 X120.639 Y164.442 E0.02724
G1 F1285.7 X120.975 Y164.125 E0.02628
G1 F1287.6 X121.266 Y163.75 E0.02697
G1 F1283.9 X121.505 Y163.326 E0.02773
G1 F1282.1 X121.665 Y162.901 E0.02591
G1 F1251.7 X121.807 Y162.242 E0.0394
G1 F1331.4 X121.953 Y162.217 E0.00814
G1 F1627.5 X122.544 Y162.236 E0.02658
G1 F1654.4 X122.9 Y162.18 E0.01594
G1 F1666.7 X123.683 Y162.24 E0.03447
G1 F1590.1 X123.856 Y162.203 E0.00814
G1 F1298.7 X123.993 Y162.243 E0.00804
G1 F1251.7 X124.135 Y162.901 E0.03934
G1 F1280.2 X124.295 Y163.326 E0.02595
G1 F1283.9 X124.534 Y163.75 E0.02773
G1 F1287.6 X124.825 Y164.125 E0.02697
G1 F1285.7 X125.161 Y164.442 E0.02628
G1 F1283.9 X125.554 Y164.713 E0.0272
G1 F1282.1 X125.979 Y164.922 E0.02703
G1 X126.426 Y165.065 E0.02678
G1 F1285.7 X126.89 Y165.139 E0.02674
G1 X127.373 Y165.142 E0.02748
G1 F1282.1 X127.826 Y165.074 E0.02614
G1 F1280.2 X128.29 Y164.934 E0.0277
G1 F1282.1 X128.711 Y164.733 E0.02662
G1 F1285.7 X129.099 Y164.473 E0.02658
G1 F1287.6 X129.458 Y164.142 E0.02775
G1 F1285.7 X129.746 Y163.781 E0.02628
G1 F1282.1 X129.982 Y163.372 E0.02695
G1 X130.153 Y162.937 E0.02667
G1 F1283.9 X130.264 Y162.462 E0.0278
G1 F1287.6 X130.299 Y162 E0.02633
G1 X130.264 Y161.538 E0.02633
G1 F1282.1 X130.153 Y161.061 E0.02795
G1 F1280.2 X129.982 Y160.628 E0.0266
G1 F1282.1 X129.746 Y160.219 E0.02695
G1 F1285.7 X129.458 Y159.858 E0.02628
G1 F1287.6 X129.097 Y159.526 E0.02787
G1 F1285.7 X128.711 Y159.267 E0.02645
G1 F1282.1 X128.29 Y159.066 E0.02662
G1 X127.826 Y158.926 E0.02766
G1 F1283.9 X127.37 Y158.859 E0.02626
G1 F1287.6 X126.89 Y158.861 E0.02727
G1 F1285.7 X126.426 Y158.935 E0.02674
G1 F1282.1 X125.979 Y159.078 E0.02678
G1 F1280.2 X125.554 Y159.287 E0.02706
G1 F1282.1 X125.161 Y159.558 E0.02724
G1 F1285.7 X124.827 Y159.873 E0.02612
G1 F1287.6 X124.536 Y160.246 E0.02688
G1 F1283.9 X124.296 Y160.674 E0.02796
G1 F1282.1 X124.135 Y161.099 E0.02593
G1 F1251.7 X123.996 Y161.756 E0.03925
G1 F1298.7 X123.856 Y161.797 E0.00822
G1 F1590.1 X123.38 Y161.76 E0.02197
G1 F1666.7 X123.14 Y161.7 E0.01086
G1 F1468.2 X123.14 Y159.213 E0.12393
G1 F1408.5 X123.14 Y156.726 E0.12918
G1 F1353.4 X123.14 Y154.239 E0.13444
G1 F1554.4 X123.683 Y154.24 E0.02556
G1 F1590.1 X123.856 Y154.203 E0.00814
G1 F1298.7 X123.993 Y154.243 E0.00804
G1 F1251.7 X124.135 Y154.901 E0.03934
G1 F1280.2 X124.295 Y155.326 E0.02595
G1 F1283.9 X124.534 Y155.75 E0.02773
G1 F1287.6 X124.825 Y156.125 E0.02697
G1 F1285.7 X125.161 Y156.442 E0.02628
G1 F1283.9 X125.554 Y156.713 E0.0272
G1 F1282.1 X125.979 Y156.922 E0.02703
G1 X126.426 Y157.065 E0.02678
G1 F1285.7 X126.89 Y157.139 E0.02674
G1 X127.373 Y157.142 E0.02748
G1 F1282.1 X127.826 Y157.074 E0.02614
G1 F1280.2 X128.29 Y156.934 E0.0277
G1 F1282.1 X128.711 Y156.733 E0.02662
G1 F1285.7 X129.099 Y156.473 E0.02658
G1 F1287.6 X129.458 Y156.142 E0.02775
G1 F1285.7 X129.746 Y155.781 E0.02628
G1 F1282.1 X129.982 Y155.372 E0.02695
G1 X130.153 Y154.937 E0.02667
G1 F1283.9 X130.264 Y154.462 E0.0278
G1 F1287.6 X130.299 Y154 E0.02633
G1 X130.264 Y153.538 E0.02633
G1 F1282.1 X130.153 Y153.061 E0.02795
G1 F1280.2 X129.982 Y152.628 E0.0266
G1 F1282.1 X129.746 Y152.219 E0.02695
G1 F1285.7 X129.458 Y151.858 E0.02628
G1 F1287.6 X129.097 Y151.526 E0.02787
G1 F1285.7 X128.711 Y151.267 E0.02645
G1 F1282.1 X128.29 Y151.066 E0.02662
G1 X127.826 Y150.926 E0.02766
G1 F1283.9 X127.37 Y150.859 E0.02626
G1 F1287.6 X126.89 Y150.861 E0.02727
G1 F1285.7 X126.426 Y150.935 E0.02674
G1 F1282.1 X125.979 Y151.078 E0.02678
G1 F1280.2 X125.554 Y151.287 E0.02706
G1 F1282.1 X125.161 Y151.558 E0.02724
G1 F1285.7 X124.827 Y151.873 E0.02612
G1 F1287.6 X124.536 Y152.246 E0.02688
G1 F1283.9 X124.296 Y152.674 E0.02796
G1 F1282.1 X124.135 Y153.099 E0.02593
G1 F1251.7 X123.996 Y153.756 E0.03925
G1 F1298.7 X123.856 Y153.797 E0.00822
G1 F1590.1 X123.683 Y153.76 E0.00814
G1 F1554.4 X123.14 Y153.76 E0.02556
G1 F1327.4 X123.14 Y146.24 E0.41445
G1 F1554.4 X123.683 Y146.24 E0.02556
G1 F1590.1 X123.856 Y146.203 E0.00814
G1 F1298.7 X123.993 Y146.243 E0.00804
G1 F1251.7 X124.135 Y146.901 E0.03934
G1 F1280.2 X124.295 Y147.326 E0.02595
G1 F1283.9 X124.534 Y147.75 E0.02773
G1 F1287.6 X124.825 Y148.125 E0.02697
G1 F1285.7 X125.161 Y148.442 E0.02628
G1 F1283.9 X125.554 Y148.713 E0.0272
G1 F1282.1 X125.979 Y148.922 E0.02703
G1 X126.426 Y149.065 E0.02678
G1 F1285.7 X126.89 Y149.139 E0.02674
G1 X127.373 Y149.142 E0.02748
G1 F1282.1 X127.826 Y149.074 E0.02614
G1 F1280.2 X128.29 Y148.934 E0.0277
