;FLAVOR:RepRap
;TIME:187
;Filament used: 0.304512m
;Layer height: 0.3
;MINX:112.957
;MINY:132.314
;MINZ:0.2
;MAXX:167.043
;MAXY:167.686
;MAXZ:1.1
;Exported with Cura-DuetRRF v1.2.9 plugin by Thomas Kriechbaumer
;LINEARADVANCEPROCESSED
;Generated with Cura_SteamEngine 5.3.0
T0
M104 S215
M109 S215
M82 ;absolute extrusion mode

M83 ;relative extrusion mode
G1 F2100 E-0.4
;LAYER_COUNT:4
M572 S0.850000 D0 ;added by LinearAdvanceSettingPlugin
;LAYER:0
M107
G0 F6000 X115.039 Y133.6 Z0.2
;TYPE:SKIRT
G1 F2100 E0.4
G1 F1800 X115.745 Y133.104 E0.03402
G1 X116.5 Y132.73 E0.03322
G1 X117.326 Y132.463 E0.03423
G1 X118.173 Y132.328 E0.03382
G1 X118.892 Y132.319 E0.02835
G1 X119.68 Y132.334 E0.03108
G1 X121.135 Y132.38 E0.0574
G1 X125.309 Y132.365 E0.1646
G1 X127.334 Y132.318 E0.07987
G1 X130.821 Y132.397 E0.13754
G1 X133.565 Y132.376 E0.10821
G1 X134.793 Y132.335 E0.04845
G1 X135.992 Y132.319 E0.04728
G1 X136.78 Y132.334 E0.03108
G1 X138.235 Y132.38 E0.0574
G1 X142.409 Y132.365 E0.1646
G1 X144.434 Y132.318 E0.07987
G1 X147.921 Y132.397 E0.13754
G1 X150.665 Y132.376 E0.10821
G1 X151.893 Y132.335 E0.04845
G1 X153.092 Y132.319 E0.04728
G1 X153.88 Y132.334 E0.03108
G1 X155.335 Y132.38 E0.0574
G1 X159.511 Y132.365 E0.16467
G1 X161.618 Y132.314 E0.08311
G1 X162.546 Y132.43 E0.03688
G1 X163.455 Y132.721 E0.03764
G1 X164.099 Y133.013 E0.02788
G1 X164.808 Y133.478 E0.03343
G1 X165.438 Y134.038 E0.03324
G1 X165.99 Y134.7 E0.03399
G1 X166.431 Y135.431 E0.03367
G1 X166.753 Y136.203 E0.03298
G1 X166.966 Y137.062 E0.0349
G1 X167.043 Y137.935 E0.03456
G1 X167.005 Y139.263 E0.05239
G1 X166.965 Y142.056 E0.11015
G1 X167.015 Y145.162 E0.1225
G1 X167.039 Y145.936 E0.03054
G1 X167.005 Y147.263 E0.05235
G1 X166.965 Y150.056 E0.11015
G1 X167.015 Y153.162 E0.1225
G1 X167.039 Y153.936 E0.03054
G1 X167.005 Y155.263 E0.05235
G1 X166.965 Y158.056 E0.11015
G1 X167.015 Y161.16 E0.12242
G1 X167.04 Y161.951 E0.03121
G1 X166.992 Y162.758 E0.03188
G1 X166.819 Y163.58 E0.03312
G1 X166.52 Y164.385 E0.03386
G1 X166.106 Y165.129 E0.03357
G1 X165.578 Y165.814 E0.0341
G1 X164.961 Y166.4 E0.03355
G1 X164.255 Y166.896 E0.03402
G1 X163.5 Y167.27 E0.03322
G1 X162.674 Y167.537 E0.03423
G1 X161.827 Y167.672 E0.03382
G1 X161.108 Y167.681 E0.02835
G1 X160.32 Y167.666 E0.03108
G1 X158.865 Y167.62 E0.0574
G1 X154.691 Y167.635 E0.1646
G1 X152.666 Y167.682 E0.07987
G1 X149.179 Y167.603 E0.13754
G1 X146.435 Y167.624 E0.10821
G1 X145.207 Y167.665 E0.04845
G1 X144.008 Y167.681 E0.04728
G1 X143.22 Y167.666 E0.03108
G1 X141.765 Y167.62 E0.0574
G1 X137.591 Y167.635 E0.1646
G1 X135.566 Y167.682 E0.07987
G1 X132.079 Y167.603 E0.13754
G1 X129.335 Y167.624 E0.10821
G1 X128.107 Y167.665 E0.04845
G1 X126.908 Y167.681 E0.04728
G1 X126.12 Y167.666 E0.03108
G1 X124.665 Y167.62 E0.0574
G1 X120.489 Y167.635 E0.16467
G1 X118.382 Y167.686 E0.08311
G1 X117.45 Y167.569 E0.03704
G1 X116.542 Y167.278 E0.0376
G1 X115.9 Y166.986 E0.02781
G1 X115.192 Y166.522 E0.03338
G1 X114.557 Y165.958 E0.03349
G1 X114.009 Y165.298 E0.03383
G1 X113.65 Y164.702 E0.02744
G1 X113.258 Y163.835 E0.03752
G1 X113.034 Y162.938 E0.03646
G1 X112.957 Y162.067 E0.03448
G1 X112.995 Y160.737 E0.05247
G1 X113.035 Y157.944 E0.11015
G1 X112.984 Y154.805 E0.1238
G1 X112.961 Y153.933 E0.0344
G1 X112.995 Y152.737 E0.04718
G1 X113.035 Y149.944 E0.11015
G1 X112.984 Y146.805 E0.1238
G1 X112.961 Y145.933 E0.0344
G1 X112.995 Y144.737 E0.04718
G1 X113.035 Y141.944 E0.11015
G1 X112.984 Y138.805 E0.1238
G1 X112.96 Y138.05 E0.02979
G1 X112.998 Y137.407 E0.0254
G1 X113.163 Y136.471 E0.03748
G1 X113.478 Y135.619 E0.03582
G1 X113.893 Y134.871 E0.03373
G1 X114.425 Y134.183 E0.03429
G1 X114.749 Y133.875 E0.01763
G0 F1620 X115.039 Y133.6
G1 F2100 E-0.4
;MESH:Washer_Rev-02.3mf(1)
G0 F6000 X116.802 Y135.663
G0 X116.848 Y136.34
;TYPE:WALL-OUTER
G1 F2100 E0.4
G1 F1289.4 X117.188 Y136.034 E0.03148
G1 F1291.2 X117.531 Y135.822 E0.02771
G1 F1293.1 X117.972 Y135.647 E0.03255
G1 F1291.2 X118.453 Y135.559 E0.0336
G1 F1287.6 X118.862 Y135.559 E0.02818
G1 F1293.1 X119.332 Y135.647 E0.03281
G1 F1296.8 X119.739 Y135.806 E0.0299
G1 F1293.1 X120.152 Y136.065 E0.03345
G1 F1289.4 X120.456 Y136.344 E0.02839
G1 X120.715 Y136.684 E0.02941
G1 F1293.1 X120.933 Y137.115 E0.03314
G1 F1232.9 X121.133 Y138.001 E0.06537
G1 X121.054 Y138.462 E0.03366
G1 F1295 X120.92 Y138.917 E0.0325
G1 F1296.8 X120.74 Y139.277 E0.02754
G1 X120.475 Y139.633 E0.03036
G1 F1291.2 X120.152 Y139.935 E0.03038
G1 F1293.1 X119.74 Y140.193 E0.03335
G1 F1296.8 X119.332 Y140.353 E0.02998
G1 F1291.2 X118.862 Y140.44 E0.03284
G1 F1287.6 X118.405 Y140.437 E0.03149
G1 F1291.2 X117.972 Y140.354 E0.03029
G1 F1293.1 X117.564 Y140.195 E0.03005
G1 F1289.4 X117.148 Y139.935 E0.03376
G1 F1287.6 X116.851 Y139.663 E0.02775
G1 F1289.4 X116.585 Y139.316 E0.03009
G1 F1291.2 X116.369 Y138.889 E0.03288
G1 F1293.1 X116.247 Y138.467 E0.03014
G1 F1291.2 X116.202 Y138.026 E0.03046
G1 X116.247 Y137.534 E0.03395
G1 X116.368 Y137.111 E0.03023
G1 F1293.1 X116.562 Y136.72 E0.02995
G1 F1291.2 X116.848 Y136.34 E0.03268
G0 F6000 X117.033 Y136.173
G1 F2100 E-0.4
G0 F6000 X116.864 Y135.987
G0 X117.928 Y135.459
G0 X119.372 Y135.459
G0 X120.602 Y136.221
G0 X121.567 Y137.81
G0 X121.804 Y137.759
G1 F2100 E0.4
G1 F1251.7 X121.664 Y137.094 E0.04817
G1 F1280.2 X121.502 Y136.669 E0.03152
G1 F1282.1 X121.265 Y136.247 E0.0335
G1 F1287.6 X120.97 Y135.87 E0.03299
G1 X120.636 Y135.556 E0.03159
G1 F1283.9 X120.241 Y135.284 E0.03314
G1 F1282.1 X119.818 Y135.076 E0.03262
G1 X119.372 Y134.934 E0.03239
G1 F1287.6 X118.907 Y134.861 E0.03244
G1 X118.426 Y134.859 E0.03315
G1 F1283.9 X117.972 Y134.927 E0.03172
G1 F1280.2 X117.508 Y135.067 E0.03359
G1 F1282.1 X117.087 Y135.268 E0.03229
G1 F1285.7 X116.701 Y135.527 E0.03208
G1 F1287.6 X116.341 Y135.858 E0.0337
G1 F1285.7 X116.054 Y136.219 E0.03183
G1 F1282.1 X115.817 Y136.629 E0.03277
G1 X115.646 Y137.062 E0.03222
G1 F1283.9 X115.536 Y137.539 E0.03383
G1 F1285.7 X115.501 Y138 E0.0319
G1 X115.536 Y138.461 E0.0319
G1 F1282.1 X115.646 Y138.937 E0.03381
G1 F1280.2 X115.817 Y139.37 E0.03226
G1 F1282.1 X116.051 Y139.775 E0.03237
G1 F1287.6 X116.347 Y140.147 E0.03276
G1 F1289.4 X116.7 Y140.473 E0.03306
G1 F1285.7 X117.088 Y140.733 E0.03223
G1 F1282.1 X117.509 Y140.934 E0.03229
G1 X117.973 Y141.074 E0.03354
G1 F1285.7 X118.425 Y141.141 E0.03153
G1 X118.908 Y141.138 E0.03333
G1 F1283.9 X119.373 Y141.065 E0.03253
G1 F1280.2 X119.819 Y140.923 E0.03244
G1 X120.244 Y140.714 E0.03282
G1 F1282.1 X120.637 Y140.443 E0.03304
G1 F1285.7 X120.973 Y140.127 E0.03183
G1 F1287.6 X121.266 Y139.752 E0.03279
G1 F1282.1 X121.503 Y139.33 E0.0335
G1 F1280.2 X121.664 Y138.904 E0.03156
G1 F1251.7 X121.807 Y138.242 E0.04801
G1 F1482.7 X122.42 Y138.24 E0.03668
G1 F1666.7 X122.66 Y138.3 E0.01317
G1 F1468.2 X122.66 Y140.787 E0.15029
G1 F1408.5 X122.66 Y143.274 E0.15667
G1 F1353.4 X122.66 Y145.761 E0.16304
G1 F1549.1 X122.084 Y145.76 E0.03299
G1 F1477.8 X121.804 Y145.759 E0.01681
G1 F1251.7 X121.664 Y145.094 E0.04817
G1 F1280.2 X121.502 Y144.669 E0.03152
G1 F1282.1 X121.265 Y144.247 E0.0335
G1 F1287.6 X120.97 Y143.87 E0.03299
G1 X120.636 Y143.556 E0.03159
G1 F1283.9 X120.241 Y143.284 E0.03314
G1 F1282.1 X119.818 Y143.076 E0.03262
G1 X119.372 Y142.934 E0.03239
G1 F1287.6 X118.907 Y142.861 E0.03244
G1 X118.426 Y142.859 E0.03315
G1 F1283.9 X117.972 Y142.927 E0.03172
G1 F1280.2 X117.508 Y143.067 E0.03359
G1 F1282.1 X117.087 Y143.268 E0.03229
G1 F1285.7 X116.701 Y143.527 E0.03208
G1 F1287.6 X116.341 Y143.858 E0.0337
G1 F1285.7 X116.054 Y144.219 E0.03183
G1 F1282.1 X115.817 Y144.629 E0.03277
G1 X115.646 Y145.062 E0.03222
G1 F1283.9 X115.536 Y145.539 E0.03383
G1 F1285.7 X115.501 Y146 E0.0319
G1 X115.536 Y146.461 E0.0319
G1 F1282.1 X115.646 Y146.937 E0.03381
G1 F1280.2 X115.817 Y147.37 E0.03226
G1 F1282.1 X116.051 Y147.775 E0.03237
G1 F1287.6 X116.347 Y148.147 E0.03276
G1 F1289.4 X116.7 Y148.473 E0.03306
G1 F1285.7 X117.088 Y148.733 E0.03223
G1 F1282.1 X117.509 Y148.934 E0.03229
G1 X117.973 Y149.074 E0.03354
G1 F1285.7 X118.425 Y149.141 E0.03153
G1 X118.908 Y149.138 E0.03333
G1 F1283.9 X119.373 Y149.065 E0.03253
G1 F1280.2 X119.819 Y148.923 E0.03244
G1 X120.244 Y148.714 E0.03282
G1 F1282.1 X120.637 Y148.443 E0.03304
G1 F1285.7 X120.973 Y148.127 E0.03183
G1 F1287.6 X121.266 Y147.752 E0.03279
G1 F1282.1 X121.503 Y147.33 E0.0335
G1 F1280.2 X121.664 Y146.904 E0.03156
G1 F1251.7 X121.807 Y146.242 E0.04801
G1 F1477.8 X122.085 Y146.24 E0.01669
G1 F1549.1 X122.66 Y146.24 E0.03293
G1 F1327.4 X122.66 Y153.76 E0.50263
G1 F1549.1 X122.084 Y153.76 E0.03299
G1 F1477.8 X121.804 Y153.759 E0.01681
G1 F1251.7 X121.664 Y153.094 E0.04817
G1 F1280.2 X121.502 Y152.669 E0.03152
G1 F1282.1 X121.265 Y152.247 E0.0335
G1 F1287.6 X120.97 Y151.87 E0.03299
G1 X120.636 Y151.556 E0.03159
G1 F1283.9 X120.241 Y151.284 E0.03314
G1 F1282.1 X119.818 Y151.076 E0.03262
G1 X119.372 Y150.934 E0.03239
G1 F1287.6 X118.907 Y150.861 E0.03244
G1 X118.426 Y150.859 E0.03315
G1 F1283.9 X117.972 Y150.927 E0.03172
G1 F1280.2 X117.508 Y151.067 E0.03359
G1 F1282.1 X117.087 Y151.268 E0.03229
G1 F1285.7 X116.701 Y151.527 E0.03208
G1 F1287.6 X116.341 Y151.858 E0.0337
G1 F1285.7 X116.054 Y152.219 E0.03183
G1 F1282.1 X115.817 Y152.629 E0.03277
G1 X115.646 Y153.062 E0.03222
G1 F1283.9 X115.536 Y153.539 E0.03383
G1 F1285.7 X115.501 Y154 E0.0319
G1 X115.536 Y154.461 E0.0319
G1 F1282.1 X115.646 Y154.937 E0.03381
G1 F1280.2 X115.817 Y155.37 E0.03226
G1 F1282.1 X116.051 Y155.775 E0.03237
G1 F1287.6 X116.347 Y156.147 E0.03276
G1 F1289.4 X116.7 Y156.473 E0.03306
G1 F1285.7 X117.088 Y156.733 E0.03223
G1 F1282.1 X117.509 Y156.934 E0.03229
G1 X117.973 Y157.074 E0.03354
G1 F1285.7 X118.425 Y157.141 E0.03153
G1 X118.908 Y157.138 E0.03333
G1 F1283.9 X119.373 Y157.065 E0.03253
G1 F1280.2 X119.819 Y156.923 E0.03244
G1 X120.244 Y156.714 E0.03282
G1 F1282.1 X120.637 Y156.443 E0.03304
G1 F1285.7 X120.973 Y156.127 E0.03183
G1 F1287.6 X121.266 Y155.752 E0.03279
G1 F1282.1 X121.503 Y155.33 E0.0335
G1 F1280.2 X121.664 Y154.904 E0.03156
G1 F1251.7 X121.807 Y154.242 E0.04801
G1 F1477.8 X122.085 Y154.24 E0.01669
G1 F1549.1 X122.66 Y154.24 E0.03293
G1 F1353.4 X122.66 Y156.727 E0.16304
G1 F1408.5 X122.66 Y159.214 E0.15667
G1 F1468.2 X122.66 Y161.701 E0.15029
G1 F1654.4 X122.482 Y161.756 E0.00999
G1 F1630.4 X121.953 Y161.782 E0.02882
G1 F1331.4 X121.804 Y161.759 E0.01005
G1 F1251.7 X121.664 Y161.094 E0.04817
G1 F1280.2 X121.502 Y160.669 E0.03152
G1 F1282.1 X121.265 Y160.247 E0.0335
G1 F1287.6 X120.97 Y159.87 E0.03299
G1 X120.636 Y159.556 E0.03159
G1 F1283.9 X120.241 Y159.284 E0.03314
G1 F1282.1 X119.818 Y159.076 E0.03262
G1 X119.372 Y158.934 E0.03239
G1 F1287.6 X118.907 Y158.861 E0.03244
G1 X118.426 Y158.859 E0.03315
G1 F1283.9 X117.972 Y158.927 E0.03172
G1 F1280.2 X117.508 Y159.067 E0.03359
G1 F1282.1 X117.087 Y159.268 E0.03229
G1 F1285.7 X116.701 Y159.527 E0.03208
G1 F1287.6 X116.341 Y159.858 E0.0337
G1 F1285.7 X116.054 Y160.219 E0.03183
G1 F1282.1 X115.817 Y160.629 E0.03277
G1 X115.646 Y161.062 E0.03222
G1 F1283.9 X115.536 Y161.539 E0.03383
G1 F1285.7 X115.501 Y162 E0.0319
G1 X115.536 Y162.461 E0.0319
G1 F1282.1 X115.646 Y162.937 E0.03381
G1 F1280.2 X115.817 Y163.37 E0.03226
G1 F1282.1 X116.051 Y163.775 E0.03237
G1 F1287.6 X116.347 Y164.147 E0.03276
G1 F1289.4 X116.7 Y164.473 E0.03306
G1 F1285.7 X117.088 Y164.733 E0.03223
G1 F1282.1 X117.509 Y164.934 E0.03229
G1 X117.973 Y165.074 E0.03354
G1 F1285.7 X118.425 Y165.141 E0.03153
G1 X118.908 Y165.138 E0.03333
G1 F1283.9 X119.373 Y165.065 E0.03253
G1 F1280.2 X119.819 Y164.923 E0.03244
G1 X120.244 Y164.714 E0.03282
G1 F1282.1 X120.637 Y164.443 E0.03304
G1 F1285.7 X120.973 Y164.127 E0.03183
G1 F1287.6 X121.266 Y163.752 E0.03279
G1 F1282.1 X121.503 Y163.33 E0.0335
G1 F1280.2 X121.664 Y162.904 E0.03156
G1 F1251.7 X121.807 Y162.242 E0.04801
G1 F1331.4 X121.953 Y162.218 E0.00986
G1 F1630.4 X122.544 Y162.236 E0.03218
G1 F1654.4 X122.9 Y162.18 E0.01933
G1 F1666.7 X123.684 Y162.24 E0.04186
G1 F1590.1 X123.857 Y162.202 E0.00988
G1 F1298.7 X123.994 Y162.242 E0.00975
G1 F1251.7 X124.136 Y162.904 E0.04799
G1 F1280.2 X124.298 Y163.33 E0.03159
G1 F1282.1 X124.535 Y163.753 E0.03356
G1 F1285.7 X124.828 Y164.128 E0.03284
G1 F1287.6 X125.164 Y164.444 E0.03178
G1 F1283.9 X125.557 Y164.715 E0.03299
G1 F1280.2 X125.982 Y164.924 E0.03282
G1 X126.428 Y165.066 E0.03244
G1 F1285.7 X126.893 Y165.14 E0.03249
G1 F1287.6 X127.374 Y165.141 E0.03315
G1 F1283.9 X127.828 Y165.073 E0.03172
G1 F1282.1 X128.292 Y164.933 E0.03354
G1 X128.713 Y164.732 E0.03229
G1 F1285.7 X129.101 Y164.472 E0.03223
G1 F1287.6 X129.459 Y164.142 E0.03355
G1 F1285.7 X129.747 Y163.78 E0.03192
G1 F1282.1 X129.985 Y163.368 E0.03293
G1 F1280.2 X130.154 Y162.937 E0.03208
G1 F1282.1 X130.264 Y162.461 E0.03381
G1 F1287.6 X130.299 Y162 E0.03186
G1 X130.264 Y161.539 E0.03186
G1 F1282.1 X130.154 Y161.062 E0.03388
G1 F1280.2 X129.981 Y160.626 E0.03251
G1 X129.746 Y160.219 E0.03257
G1 F1285.7 X129.458 Y159.857 E0.03192
G1 F1287.6 X129.098 Y159.526 E0.0337
G1 F1283.9 X128.71 Y159.266 E0.03228
G1 F1280.2 X128.291 Y159.066 E0.03218
G1 F1282.1 X127.827 Y158.926 E0.03354
G1 F1283.9 X127.375 Y158.859 E0.03158
G1 F1287.6 X126.892 Y158.862 E0.03328
G1 F1285.7 X126.427 Y158.935 E0.03248
G1 F1280.2 X125.981 Y159.077 E0.03244
G1 X125.556 Y159.286 E0.03282
G1 F1282.1 X125.163 Y159.557 E0.03304
G1 F1285.7 X124.829 Y159.871 E0.03163
G1 X124.535 Y160.246 E0.03288
G1 F1282.1 X124.297 Y160.671 E0.03371
G1 X124.136 Y161.097 E0.03152
G1 F1253.5 X123.996 Y161.756 E0.04769
G1 F1298.7 X123.857 Y161.796 E0.00988
G1 F1590.1 X123.38 Y161.76 E0.02669
G1 F1666.7 X123.14 Y161.7 E0.01317
G1 F1468.2 X123.14 Y159.213 E0.15029
G1 F1408.5 X123.14 Y156.726 E0.15667
G1 F1353.4 X123.14 Y154.239 E0.16304
G1 F1554.4 X123.684 Y154.24 E0.03105
G1 F1590.1 X123.857 Y154.202 E0.00988
G1 F1298.7 X123.994 Y154.242 E0.00975
G1 F1251.7 X124.136 Y154.904 E0.04799
G1 F1280.2 X124.298 Y155.33 E0.03159
G1 F1282.1 X124.535 Y155.753 E0.03356
G1 F1285.7 X124.828 Y156.128 E0.03284
G1 F1287.6 X125.164 Y156.444 E0.03178
G1 F1283.9 X125.557 Y156.715 E0.03299
G1 F1280.2 X125.982 Y156.924 E0.03282
G1 X126.428 Y157.066 E0.03244
G1 F1285.7 X126.893 Y157.14 E0.03249
G1 F1287.6 X127.374 Y157.141 E0.03315
G1 F1283.9 X127.828 Y157.073 E0.03172
G1 F1282.1 X128.292 Y156.933 E0.03354
G1 X128.713 Y156.732 E0.03229
G1 F1285.7 X129.101 Y156.472 E0.03223
G1 F1287.6 X129.459 Y156.142 E0.03355
G1 F1285.7 X129.747 Y155.78 E0.03192
G1 F1282.1 X129.985 Y155.368 E0.03293
G1 F1280.2 X130.154 Y154.937 E0.03208
G1 F1282.1 X130.264 Y154.461 E0.03381
G1 F1287.6 X130.299 Y154 E0.03186
G1 X130.264 Y153.539 E0.03186
G1 F1282.1 X130.154 Y153.062 E0.03388
G1 F1280.2 X129.981 Y152.626 E0.03251
G1 X129.746 Y152.219 E0.03257
G1 F1285.7 X129.458 Y151.857 E0.03192
G1 F1287.6 X129.098 Y151.526 E0.0337
G1 F1283.9 X128.71 Y151.266 E0.03228
G1 F1280.2 X128.291 Y151.066 E0.03218
G1 F1282.1 X127.827 Y150.926 E0.03354
G1 F1283.9 X127.375 Y150.859 E0.03158
G1 F1287.6 X126.892 Y150.862 E0.03328
G1 F1285.7 X126.427 Y150.935 E0.03248
G1 F1280.2 X125.981 Y151.077 E0.03244
G1 X125.556 Y151.286 E0.03282
G1 F1282.1 X125.163 Y151.557 E0.03304
G1 F1285.7 X124.829 Y151.871 E0.03163
G1 X124.535 Y152.246 E0.03288
G1 F1282.1 X124.297 Y152.671 E0.03371
G1 X124.136 Y153.097 E0.03152
G1 F1253.5 X123.996 Y153.756 E0.04769
G1 F1298.7 X123.857 Y153.796 E0.00988
G1 F1590.1 X123.684 Y153.76 E0.00986
G1 F1554.4 X123.14 Y153.76 E0.03105
G1 F1327.4 X123.14 Y146.24 E0.50263
G1 F1554.4 X123.684 Y146.24 E0.03105
G1 F1590.1 X123.857 Y146.202 E0.00988
G1 F1298.7 X123.994 Y146.242 E0.00975
G1 F1251.7 X124.136 Y146.904 E0.04799
G1 F1280.2 X124.298 Y147.33 E0.03159
G1 F1282.1 X124.535 Y147.753 E0.03356
G1 F1285.7 X124.828 Y148.128 E0.03284
G1 F1287.6 X125.164 Y148.444 E0.03178
G1 F1283.9 X125.557 Y148.715 E0.03299
G1 F1280.2 X125.982 Y148.924 E0.03282
G1 X126.428 Y149.066 E0.03244
G1 F1285.7 X126.893 Y149.14 E0.03249
G1 F1287.6 X127.374 Y149.141 E0.03315
G1 F1283.9 X127.828 Y149.073 E0.03172
G1 F1282.1 X128.292 Y148.933 E0.03354
G1 X128.713 Y148.732 E0.03229
G1 F1285.7 X129.101 Y148.472 E0.03223
G1 F1287.6 X129.459 Y148.142 E0.03355
G1 F1285.7 X129.747 Y147.78 E0.03192
