;FLAVOR:RepRap
;TIME:1559
;Filament used: 7.87852m
;Layer height: 0.4
;MINX:83.919
;MINY:84.103
;MINZ:0.2
;MAXX:186.084
;MAXY:205.993
;MAXZ:38.028
;TARGET_MACHINE.NAME:Unknown
;ARCWELDERPROCESSED
;Exported with Cura-DuetRRF v1.2.9 plugin by Thomas Kriechbaumer
;LINEARADVANCEPROCESSED
; Postprocessed by [ArcWelder](https://github.com/FormerLurker/ArcWelderLib)
; Copyright(C) 2021 - Brad Hochgesang
; Version: 1.2.0, Branch: HEAD, BuildDate: 2021-11-21T20:25:43Z
; resolution=0.05mm
; path_tolerance=5.0%
; max_radius=9999.00mm
; allow_3d_arcs=True
; default_xyz_precision=3
; default_e_precision=5
; extrusion_rate_variance_percent=5.0%

;Generated with Cura_SteamEngine 5.5.0
T0
M104 S215
M109 S215
M82 ;absolute extrusion mode

M83 ;relative extrusion mode
G1 F2700 E-0.4
;LAYER_COUNT:95
M572 S0.020000 D0 ;added by LinearAdvanceSettingPlugin
;LAYER:0
M107
M204 T6000
G1 F600 Z0.4
G0 F6666.7 X88.436 Y86.634 Z0.4
M204 P6000
;TYPE:SKIRT
G1 F600 Z0.2
G1 F1500 E0.4
G3 X95.757 Y84.199 I6.013 J5.854 E0.60034 F3000
G1 X96.391 Y84.289 E0.04797
G1 X118.115 Y87.656 E1.64671
G2 X133.058 Y88.808 I14.916 J-95.996 E1.12372
G2 X145.200 Y88.456 I1.920 J-143.345 E0.91025
G2 X151.887 Y87.655 I-8.152 J-96.364 E0.50456
G1 X173.596 Y84.29 E1.64558
G3 X180.416 Y85.646 I1.812 J8.714 E0.53551
G3 X183.950 Y91.870 I-4.887 J6.890 E0.55356
G1 X184.02 Y92.74 E0.06538
G1 X186.028 Y123.738 E2.32684
G3 X185.827 Y127.070 I-10.475 J1.040 E0.25104
G1 X176.786 Y171.255 E3.37835
G3 X173.202 Y177.134 I-8.671 J-1.254 E0.53031
G2 X147.552 Y202.735 I55.122 J80.878 E2.73024
G3 X141.090 Y205.977 I-6.619 J-5.132 E0.55973
G1 X140.102 Y205.992 E0.07402
G1 X129.777 Y205.993 E0.77342
G3 X124.544 Y204.651 I-0.475 J-9.022 E0.41099
G3 X121.931 Y202.008 I4.575 J-7.137 E0.28054
G2 X96.605 Y176.992 I-80.277 J55.944 E2.68136
G3 X93.384 Y172.024 I4.868 J-6.684 E0.45324
G1 X93.19 Y171.144 E0.0675
G1 X84.222 Y127.302 E3.35208
G3 X83.954 Y124.026 I9.597 J-2.434 E0.24725
G1 X85.986 Y92.657 E2.35469
G3 X88.436 Y86.634 I8.831 J0.082 E0.49913
G1 F2700 E-0.4
;MESH:Box.3mf
G0 F6666.7 X90.67 Y88.849
G0 X90.347 Y88.906
M204 P800
;TYPE:WALL-OUTER
G1 F1500 E0.4
G3 X95.298 Y87.116 I4.107 J3.618 E0.41116 F2700
G1 X125.316 Y91.767 E2.27539
G1 X144.655 Y91.769 E1.44863
G1 X174.681 Y87.118 E2.27598
G3 X181.015 Y92.165 I0.859 J5.420 E0.68201
G1 X183.136 Y124.892 E2.45663
G3 X183.014 Y126.046 I-6.664 J-0.121 E0.08701
G1 X173.752 Y171.314 E3.46115
G3 X169.963 Y175.465 I-5.373 J-1.100 E0.44175
G1 X156.549 Y179.467 E1.04857
G2 X153.475 Y182.664 I1.289 J4.315 E0.34712
G1 X151.684 Y189.705 E0.54422
G3 X151.073 Y191.184 I-5.243 J-1.300 E0.12025
G1 X145.628 Y200.337 E0.79777
G3 X140.903 Y203.031 I-4.725 J-2.797 E0.42595
G1 X129.124 Y203.033 E0.88233
G3 X124.387 Y200.358 I-0.017 J-5.501 E0.42601
G1 X118.928 Y191.182 E0.79979
G3 X118.316 Y189.705 I4.651 J-2.792 E0.12016
G1 X116.524 Y182.659 E0.5446
G2 X113.452 Y179.466 I-4.368 J1.128 E0.34668
G1 X100.064 Y175.473 E1.04651
G3 X96.247 Y171.314 I1.557 J-5.260 E0.44388
G1 X86.986 Y126.046 E3.46113
G3 X86.864 Y124.898 I6.555 J-1.277 E0.08656
G1 X88.983 Y92.193 E2.45497
G3 X90.347 Y88.906 I5.453 J0.336 E0.27139
G0 F6666.7 X90.192 Y89.101
G0 X90.726 Y89.908
M204 P6000
;TYPE:SKIN
G3 X95.189 Y88.030 I3.736 J2.636 E0.38196 F2700
G1 X125.262 Y92.686 E2.27952
G1 X144.688 Y92.689 E1.45515
G1 X174.792 Y88.032 E2.28183
G3 X180.097 Y92.246 I0.734 J4.522 E0.57140
G1 X182.213 Y124.895 E2.45077
G1 X182.167 Y125.593 E0.0524
G1 X172.856 Y171.101 E3.47949
G3 X170.986 Y173.953 I-4.472 J-0.893 E0.26191
G1 X170.154 Y174.419 E0.07143
G1 X169.68 Y174.589 E0.03772
G1 X156.276 Y178.587 E1.04777
G2 X152.600 Y182.378 I1.556 J5.187 E0.41287
G1 X150.799 Y189.452 E0.5468
G3 X150.273 Y190.727 I-3.531 J-0.711 E0.10379
G1 X144.847 Y199.847 E0.79492
G3 X140.867 Y202.110 I-3.945 J-2.307 E0.35886
G1 X129.158 Y202.113 E0.87709
G3 X125.168 Y199.869 I-0.039 J-4.600 E0.35874
G1 X119.728 Y190.725 E0.797
G3 X119.201 Y189.452 I2.954 J-1.968 E0.10370
G1 X117.411 Y182.416 E0.54384
G2 X116.419 Y180.401 I-5.664 J1.537 E0.16920
G1 X115.578 Y179.569 E0.08862
G2 X113.739 Y178.592 I-3.425 J4.228 E0.15683
G1 X100.028 Y174.502 E1.07177
G1 X99.203 Y174.105 E0.06858
G3 X98.086 Y173.129 I4.066 J-5.781 E0.11127
G3 X97.143 Y171.098 I3.878 J-3.035 E0.16908
G1 X87.835 Y125.601 E3.47864
G1 X87.787 Y124.9 E0.05263
G1 X89.901 Y92.272 E2.44919
G3 X90.726 Y89.908 I4.582 J0.273 E0.18985
G0 F6666.7 X90.27 Y89.621
G0 X89.489 Y91.671
G0 X87.305 Y124.904
G0 X96.822 Y171.765
G0 X97.256 Y172.851
G0 X98.511 Y172.025
G1 F2700 X98.953 Y172.63 E0.05612
G1 X99.691 Y173.274 E0.07337
G1 X100.211 Y173.524 E0.04322
G1 X98.351 Y171.664 E0.19704
G1 X98.142 Y171.194 E0.03853
G1 X97.86 Y169.815 E0.10543
G1 X102.188 Y174.144 E0.45854
G1 X104.123 Y174.721 E0.15125
G1 X97.511 Y168.108 E0.70049
G1 X97.162 Y166.402 E0.13044
G1 X106.058 Y175.298 E0.9424
G1 X107.992 Y175.875 E0.15118
G1 X96.812 Y164.695 E1.18435
G1 X96.463 Y162.988 E0.13051
G1 X109.927 Y176.452 E1.4263
G1 X111.862 Y177.029 E0.15125
G1 X96.114 Y161.281 E1.66826
G1 X95.765 Y159.574 E0.13051
G1 X113.796 Y177.606 E1.91016
G3 X116.196 Y178.827 I-1.682 J6.276 E0.20302
G1 X117.183 Y179.809 E0.10429
G3 X118.331 Y182.140 I-5.276 J4.047 E0.19569
G0 F6666.7 X116.89 Y182.554
G0 X118.962 Y190.313
G0 X124.906 Y200.447
G0 X126.137 Y199.62
G2 X127.398 Y200.710 I3.058 J-2.263 E0.12577 F2700
G1 X125.888 Y199.201 E0.15991
G1 X123.894 Y195.849 E0.29216
G1 X129.196 Y201.151 E0.56167
G1 X130.553 Y201.151 E0.10165
G1 X121.9 Y192.497 E0.91671
G3 X120.296 Y189.754 I30.273 J-19.543 E0.23806
G1 X120.2 Y189.44 E0.0246
G1 X131.911 Y201.151 E1.2406
G1 X133.268 Y201.15 E0.10165
G1 X119.719 Y187.601 E1.43531
G1 X119.257 Y185.781 E0.14065
G1 X134.626 Y201.15 E1.62811
G1 X135.983 Y201.15 E0.10165
G1 X118.793 Y183.96 E1.82102
G1 X118.331 Y182.14 E0.14065
G1 X137.34 Y201.149 E2.01371
G1 X138.698 Y201.149 E0.10172
G1 X95.416 Y157.867 E4.58507
G1 X95.066 Y156.16 E0.13053
G1 X140.055 Y201.149 E4.7659
G2 X141.368 Y201.104 I0.391 J-7.769 E0.09850
G1 X94.717 Y154.454 E4.94191
G1 X94.368 Y152.747 E0.13051
G1 X142.435 Y200.813 E5.09191
G1 X143.258 Y200.279 E0.07349
G1 X94.019 Y151.04 E5.21612
G1 X93.669 Y149.333 E0.13053
G1 X143.899 Y199.562 E5.32105
G1 X144.406 Y198.711 E0.0742
G1 X93.321 Y147.626 E5.41167
G1 X92.971 Y145.919 E0.13053
G1 X144.912 Y197.86 E5.50235
G1 X145.418 Y197.009 E0.07416
G1 X92.622 Y144.213 E5.59293
G1 X92.273 Y142.506 E0.13051
G1 X145.924 Y196.157 E5.6835
G1 X146.431 Y195.306 E0.0742
G1 X91.923 Y140.799 E5.77424
G1 X91.574 Y139.092 E0.13051
G1 X146.937 Y194.455 E5.86486
G1 X147.444 Y193.604 E0.0742
G1 X91.225 Y137.385 E5.95554
G1 X90.875 Y135.678 E0.13053
G1 X147.95 Y192.753 E6.04622
G1 X148.457 Y191.901 E0.07427
G1 X90.527 Y133.971 E6.1368
G1 X90.178 Y132.265 E0.13044
G1 X148.963 Y191.05 E6.22737
G1 X149.468 Y190.197 E0.07425
G1 X89.828 Y130.558 E6.31789
G1 X89.479 Y128.851 E0.13051
G1 X149.862 Y189.233 E6.3966
G1 X150.139 Y188.153 E0.08352
G1 X89.13 Y127.144 E6.46297
G1 X88.786 Y125.442 E0.13007
G1 X150.414 Y187.07 E6.52854
G1 X150.69 Y185.988 E0.08364
G1 X88.799 Y124.098 E6.55635
G1 X88.882 Y122.823 E0.09571
G1 X150.965 Y184.906 E6.57674
G1 X151.24 Y183.823 E0.0837
G1 X88.965 Y121.548 E6.59708
G1 X89.048 Y120.273 E0.09571
G1 X151.515 Y182.741 E6.61748
G3 X151.820 Y181.688 I6.647 J1.355 E0.08218
G1 X89.13 Y118.999 E6.64099
G1 X89.212 Y117.723 E0.09578
G1 X152.225 Y180.736 E6.67526
G1 X152.752 Y179.905 E0.07371
G1 X89.295 Y116.448 E6.7223
G1 X89.378 Y115.173 E0.09571
G1 X153.404 Y179.199 E6.78258
G3 X154.147 Y178.584 I2.823 J2.655 E0.07238
G1 X89.461 Y113.898 E6.85249
G1 X89.543 Y112.623 E0.0957
G1 X154.995 Y178.075 E6.93364
G3 X155.958 Y177.680 I2.006 J3.520 E0.07809
G1 X89.626 Y111.348 E7.02686
G1 X89.708 Y110.073 E0.0957
G1 X157.003 Y177.367 E7.12882
G1 X158.048 Y177.056 E0.08167
G1 X89.791 Y108.798 E7.23084
G1 X89.873 Y107.523 E0.0957
G1 X159.094 Y176.744 E7.33291
G1 X160.14 Y176.432 E0.08176
G1 X89.956 Y106.248 E7.43492
G1 X90.039 Y104.973 E0.09571
G1 X161.185 Y176.119 E7.53683
G1 X162.231 Y175.807 E0.08176
G1 X90.122 Y103.698 E7.63885
G1 X90.204 Y102.423 E0.0957
G1 X163.277 Y175.496 E7.74097
G1 X164.323 Y175.184 E0.08176
G1 X90.286 Y101.148 E7.84303
G1 X90.369 Y99.873 E0.09571
G1 X165.368 Y174.872 E7.945
G1 X166.414 Y174.56 E0.08176
G1 X90.452 Y98.598 E8.04701
G1 X90.535 Y97.323 E0.09571
G1 X167.46 Y174.248 E8.14903
G1 X168.505 Y173.936 E0.08169
G1 X90.617 Y96.048 E8.25104
G1 X90.699 Y94.772 E0.09578
G1 X169.551 Y173.624 E8.35316
G1 X169.677 Y173.587 E0.00984
G1 X170.443 Y173.159 E0.06573
G1 X90.782 Y93.497 E8.43892
G1 X90.866 Y92.224 E0.09556
G1 X171.139 Y172.497 E8.5037
G1 X171.274 Y172.349 E0.01501
G1 X171.67 Y171.67 E0.05888
G1 X91.139 Y91.139 E8.53103
G1 X91.512 Y90.464 E0.05777
G1 X91.658 Y90.3 E0.01645
G1 X171.974 Y170.617 E8.5083
G1 X172.205 Y169.489 E0.08625
G1 X92.333 Y89.618 E8.46116
G1 X93.21 Y89.137 E0.07493
G1 X172.435 Y168.362 E8.39268
G1 X172.666 Y167.235 E0.08618
G1 X94.382 Y88.951 E8.29299
G3 X95.899 Y89.111 I0.026 J7.029 E0.11443
G1 X172.896 Y166.108 E8.15665
G1 X173.127 Y164.981 E0.08618
G1 X97.505 Y89.359 E8.01099
G1 X99.111 Y89.608 E0.12174
G1 X173.358 Y163.855 E7.86533
G1 X173.589 Y162.727 E0.08625
G1 X100.717 Y89.856 E7.71962
G1 X102.324 Y90.105 E0.12181
G1 X173.819 Y161.6 E7.5738
G1 X174.05 Y160.473 E0.08618
G1 X103.93 Y90.354 E7.42809
G1 X105.536 Y90.602 E0.12173
G1 X174.28 Y159.346 E7.28238
G1 X174.511 Y158.219 E0.08618
G1 X107.142 Y90.851 E7.13666
G1 X108.748 Y91.099 E0.12173
G1 X174.741 Y157.092 E6.99095
G1 X174.972 Y155.965 E0.08618
G1 X110.355 Y91.348 E6.84518
G1 X111.961 Y91.596 E0.12173
G1 X175.203 Y154.838 E6.69952
G1 X175.433 Y153.711 E0.08616
G1 X113.567 Y91.845 E6.55376
G1 X115.173 Y92.093 E0.12173
G1 X175.664 Y152.584 E6.4081
G1 X175.894 Y151.457 E0.08616
G1 X116.78 Y92.342 E6.26228
G1 X118.385 Y92.59 E0.12165
G1 X176.125 Y150.33 E6.11667
G1 X176.355 Y149.203 E0.08616
G1 X119.992 Y92.839 E5.97085
G1 X121.598 Y93.087 E0.12173
G1 X176.586 Y148.075 E5.82514
G1 X176.817 Y146.948 E0.08618
G1 X123.204 Y93.336 E5.67942
G1 X124.81 Y93.584 E0.12173
G1 X177.048 Y145.822 E5.53382
G1 X177.278 Y144.695 E0.08616
G1 X126.231 Y93.647 E5.4077
G1 X127.588 Y93.647 E0.10165
G1 X177.509 Y143.568 E5.28837
G1 X177.739 Y142.441 E0.08616
G1 X128.946 Y93.647 E5.16892
G1 X130.304 Y93.647 E0.10172
G1 X177.97 Y141.313 E5.04948
G1 X178.2 Y140.186 E0.08616
G1 X131.661 Y93.647 E4.9301
G1 X133.019 Y93.647 E0.10172
G1 X178.431 Y139.059 E4.81071
G1 X178.661 Y137.932 E0.08616
G1 X134.377 Y93.647 E4.69127
G1 X135.735 Y93.648 E0.10172
G1 X178.893 Y136.806 E4.57193
G1 X179.123 Y135.678 E0.08623
G1 X137.093 Y93.648 E4.45244
G1 X138.45 Y93.648 E0.10165
G1 X179.354 Y134.551 E4.3331
G1 X179.584 Y133.424 E0.08616
G1 X139.808 Y93.648 E4.21366
G1 X141.166 Y93.648 E0.10172
G1 X179.815 Y132.297 E4.09427
G1 X180.045 Y131.17 E0.08616
G1 X142.523 Y93.648 E3.97488
G1 X143.881 Y93.648 E0.10172
G1 X180.276 Y130.043 E3.85549
G1 X180.506 Y128.916 E0.08616
G1 X145.171 Y93.581 E3.7432
G1 X146.347 Y93.399 E0.08914
G1 X180.737 Y127.789 E3.64309
G1 X180.968 Y126.662 E0.08618
G1 X147.523 Y93.217 E3.54299
G1 X148.699 Y93.036 E0.08913
G1 X181.207 Y125.544 E3.44373
G2 X181.204 Y124.183 I-5.181 J-0.669 E0.10217
G1 X149.875 Y92.854 E3.31883
G1 X151.051 Y92.672 E0.08914
G1 X181.11 Y122.731 E3.18429
G1 X181.016 Y121.28 E0.10892
G1 X152.227 Y92.49 E3.04981
G1 X153.403 Y92.309 E0.08913
G1 X180.922 Y119.828 E2.91522
G1 X180.828 Y118.376 E0.10899
G1 X154.579 Y92.127 E2.78068
G1 X155.755 Y91.945 E0.08914
G1 X180.734 Y116.925 E2.6462
G1 X180.64 Y115.473 E0.10899
G1 X156.931 Y91.764 E2.51161
G1 X158.106 Y91.582 E0.08907
G1 X180.546 Y114.021 E2.37712
G1 X180.452 Y112.569 E0.10899
G1 X159.282 Y91.4 E2.24258
G1 X160.458 Y91.218 E0.08914
G1 X180.358 Y111.118 E2.1081
G1 X180.264 Y109.666 E0.10899
G1 X161.634 Y91.036 E1.97356
G1 X162.809 Y90.854 E0.08907
G1 X180.17 Y108.214 E1.83908
G1 X180.076 Y106.763 E0.10892
G1 X163.985 Y90.673 E1.70454
G1 X165.161 Y90.491 E0.08914
G1 X179.982 Y105.311 E1.57001
G1 X179.887 Y103.859 E0.109
G1 X166.337 Y90.309 E1.43542
G1 X167.513 Y90.127 E0.08914
G1 X179.793 Y102.408 E1.30093
G1 X179.699 Y100.956 E0.10899
G1 X168.689 Y89.946 E1.16634
G1 X169.865 Y89.764 E0.08914
G1 X179.605 Y99.504 E1.0318
G1 X179.511 Y98.053 E0.10892
G1 X171.041 Y89.582 E0.89732
G1 X172.217 Y89.4 E0.08914
G1 X179.417 Y96.601 E0.76278
G1 X179.322 Y95.148 E0.10907
G1 X173.393 Y89.219 E0.62809
G1 X174.569 Y89.037 E0.08914
G1 X179.228 Y93.697 E0.4936
G1 X179.119 Y92.006 E0.12693
G1 X178.86 Y91.141 E0.06764
G2 X175.844 Y88.955 I-3.305 J1.387 E0.29294
G1 X179.134 Y92.245 E0.34853
G1 F2700 E-0.4
G1 F600 Z0.4
;MESH:NONMESH
G0 F6666.7 X93.074 Y91.283 Z0.4
;TIME_ELAPSED:217.238558
;LAYER:1
M106 S153
;MESH:Box.3mf
G0 F12000 X93.074 Y91.283 Z0.8
;TYPE:WALL-INNER
G1 F600 Z0.6
G1 F1500 E0.4
G2 X92.580 Y92.529 I1.442 J1.293 E0.16715 F2700
G1 X90.494 Y124.727 E3.94921
G1 X90.5 Y125.21 E0.05912
G1 X99.806 Y170.697 E5.68281
G2 X100.964 Y171.973 I1.886 J-0.548 E0.21773
G1 X114.67 Y176.068 E1.75085
G3 X119.988 Y181.645 I-2.456 J7.666 E0.98310
G1 X121.793 Y188.729 E0.89477
G1 X121.965 Y189.228 E0.0646
G1 X127.418 Y198.395 E1.30552
G2 X128.990 Y199.423 I1.732 J-0.933 E0.23886
G1 X140.985 Y199.421 E1.46816
G2 X142.583 Y198.396 I-0.138 J-1.973 E0.24197
G1 X148.034 Y189.23 E1.30529
G1 X148.207 Y188.728 E0.06499
G1 X150.013 Y181.645 E0.89468
G3 X155.429 Y176.035 I7.768 J2.080 E0.99575
G1 X169.021 Y171.978 E1.73615
G2 X170.240 Y170.472 I-0.702 J-1.815 E0.24755
G1 X179.459 Y125.412 E5.62947
G1 X179.519 Y124.92 E0.06067
G1 X177.422 Y92.533 E3.97238
G2 X175.375 Y90.663 I-1.905 J0.030 E0.37872
G1 X144.91 Y95.38 E3.77327
G1 X125.074 Y95.379 E2.42787
G1 X94.614 Y90.663 E3.77264
G2 X93.074 Y91.283 I-0.109 J1.951 E0.20936
G0 F12000 X92.478 Y90.747
G1 F2700 X92.109 Y91.269 E0.07824
G2 X91.783 Y92.457 I2.415 J1.301 E0.15175
G1 X89.679 Y124.928 E3.9827
G1 X89.754 Y125.554 E0.07717
G1 X99.038 Y170.93 E5.66896
G2 X100.665 Y172.718 I2.662 J-0.788 E0.30532
G1 X114.33 Y176.798 E1.74552
G3 X119.218 Y181.856 I-2.146 J6.964 E0.89805
G1 X121.022 Y188.945 E0.89533
G1 X121.246 Y189.585 E0.08299
G1 X126.872 Y199.042 E1.34685
G2 X129.209 Y200.223 I2.264 J-1.578 E0.33312
G1 X141.054 Y200.221 E1.4498
G2 X143.259 Y198.824 I-0.206 J-2.764 E0.33209
G1 X148.754 Y189.585 E1.31572
G1 X148.978 Y188.944 E0.08311
G1 X150.779 Y181.868 E0.8937
G3 X155.674 Y176.796 I7.031 J1.888 E0.89999
G1 X169.318 Y172.724 E1.74278
G2 X171.020 Y170.652 I-0.995 J-2.553 E0.34210
G1 X180.246 Y125.554 E5.6342
G1 X180.322 Y124.925 E0.07755
G1 X178.203 Y92.213 E4.01225
G2 X175.026 Y89.907 I-2.678 J0.348 E0.53646
G1 X144.856 Y94.58 E3.73676
G1 X125.128 Y94.579 E2.41465
G1 X94.973 Y89.909 E3.73489
G2 X92.478 Y90.747 I-0.502 J2.639 E0.33594
G0 F12000 X91.882 Y90.211
G1 F2700 X91.407 Y90.882 E0.10062
G2 X90.986 Y92.384 I3.079 J1.673 E0.19214
G1 X88.879 Y124.901 E3.98834
G1 X88.966 Y125.696 E0.09789
G1 X98.268 Y171.16 E5.67995
G2 X100.371 Y173.465 I3.490 J-1.072 E0.39399
G1 X114.143 Y177.579 E1.75926
G3 X118.452 Y182.093 I-1.946 J6.172 E0.79655
G1 X120.252 Y189.16 E0.8926
G1 X120.525 Y189.937 E0.1008
G1 X126.219 Y199.509 E1.3632
G2 X129.185 Y201.023 I2.949 J-2.114 E0.42320
G1 X141.126 Y201.021 E1.46155
G2 X143.935 Y199.253 I-0.280 J-3.560 E0.42176
G1 X149.474 Y189.94 E1.32626
G1 X149.748 Y189.16 E0.10119
G1 X151.549 Y182.093 E0.89263
G3 X155.863 Y177.577 I6.255 J1.657 E0.79728
G1 X169.615 Y173.471 E1.75663
G2 X171.733 Y171.156 I-1.369 J-3.379 E0.39652
G1 X181.034 Y125.696 E5.67945
G1 X181.123 Y124.928 E0.09463
G1 X179.015 Y92.386 E3.9914
G2 X174.925 Y89.113 I-3.499 J0.180 E0.72358
G1 X144.814 Y93.78 E3.72951
G1 X125.17 Y93.779 E2.40437
G1 X95.074 Y89.115 E3.72764
G2 X91.882 Y90.211 I-0.594 J3.467 E0.43034
G0 F12000 X91.286 Y89.675
G1 F2700 X90.988 Y90.045 E0.05815
G2 X90.189 Y92.311 I3.474 J2.499 E0.29776
G1 X88.077 Y124.901 E3.9973
G1 X88.122 Y125.566 E0.08158
G1 X97.421 Y171.012 E5.67772
G2 X100.456 Y174.326 I4.250 J-0.846 E0.57799
G1 X113.836 Y178.32 E1.70908
G3 X117.684 Y182.316 I-1.663 J5.452 E0.70872
G1 X119.481 Y189.376 E0.89168
G1 X119.807 Y190.294 E0.11924
G1 X125.39 Y199.68 E1.33669
