;FLAVOR:RepRap
;TIME:1262
;Filament used: 7.89102m
;Layer height: 0.4
;MINX:83.919
;MINY:84.103
;MINZ:0.2
;MAXX:186.084
;MAXY:205.993
;MAXZ:38.028
;TARGET_MACHINE.NAME:Unknown
;ARCWELDERPROCESSED
;Exported with Cura-DuetRRF v1.2.10 plugin by Thomas Kriechbaumer
;LINEARADVANCEPROCESSED
; Postprocessed by [ArcWelder](https://github.com/FormerLurker/ArcWelderLib)
; Copyright(C) 2021 - Brad Hochgesang
; Version: 1.2.0, Branch: HEAD, BuildDate: 2021-11-21T20:25:43Z
; resolution=0.05mm
; path_tolerance=5.0%
; max_radius=9999.00mm
; allow_3d_arcs=True
; default_xyz_precision=3
; default_e_precision=5
; extrusion_rate_variance_percent=5.0%

;Generated with Cura_SteamEngine 5.7.1
T0
M104 S220
M109 S220
M82 ;absolute extrusion mode

M83 ;relative extrusion mode
G1 F2700 E-0.4
;LAYER_COUNT:95
M572 S0.005000 D0 ;added by LinearAdvanceSettingPlugin
;LAYER:0
M107
G1 F600 Z0.4
G0 F6000 X88.436 Y86.634 Z0.4
;TYPE:SKIRT
G1 F600 Z0.2
G1 F1500 E0.4
G3 X95.757 Y84.199 I6.013 J5.854 E0.60034 F3000
G1 X96.391 Y84.289 E0.04797
G1 X118.115 Y87.656 E1.64671
G2 X133.058 Y88.808 I14.916 J-95.996 E1.12372
G2 X145.200 Y88.456 I1.920 J-143.345 E0.91025
G2 X151.887 Y87.655 I-8.152 J-96.364 E0.50456
G1 X173.596 Y84.29 E1.64558
G3 X178.643 Y84.693 I1.830 J8.883 E0.38451
G3 X183.950 Y91.870 I-3.075 J7.824 E0.70461
G1 X184.02 Y92.74 E0.06538
G1 X186.028 Y123.738 E2.32684
G3 X185.827 Y127.070 I-10.475 J1.040 E0.25104
G1 X176.786 Y171.255 E3.37835
G3 X173.202 Y177.134 I-8.671 J-1.254 E0.53031
G2 X147.552 Y202.735 I55.122 J80.878 E2.73024
G3 X141.090 Y205.977 I-6.619 J-5.132 E0.55973
G1 X140.102 Y205.992 E0.07402
G1 X129.777 Y205.993 E0.77342
G3 X124.544 Y204.651 I-0.475 J-9.022 E0.41099
G3 X121.931 Y202.008 I4.575 J-7.137 E0.28054
G2 X96.605 Y176.992 I-80.277 J55.944 E2.68136
G3 X93.384 Y172.024 I4.870 J-6.685 E0.45324
G1 X93.19 Y171.144 E0.0675
G1 X84.222 Y127.302 E3.35208
G3 X83.954 Y124.026 I9.597 J-2.434 E0.24725
G1 X85.986 Y92.657 E2.35469
G3 X88.436 Y86.634 I8.831 J0.082 E0.49913
G1 F2700 E-0.4
;MESH:Box
G0 F6000 X90.67 Y88.849
G0 X90.344 Y88.903
;TYPE:WALL-OUTER
G1 F1500 E0.4
G3 X95.295 Y87.113 I4.111 J3.630 E0.41106 F3000
G1 X125.316 Y91.766 E2.27564
G1 X144.655 Y91.768 E1.44863
G1 X174.682 Y87.117 E2.27606
G3 X181.013 Y92.165 I0.860 J5.416 E0.68198
G1 X183.134 Y124.9 E2.45723
G3 X183.011 Y126.046 I-6.627 J-0.132 E0.08641
G1 X173.752 Y171.31 E3.46081
G3 X169.962 Y175.463 I-5.380 J-1.103 E0.44192
G1 X156.562 Y179.46 E1.04746
G2 X153.474 Y182.662 I1.274 J4.318 E0.34821
G1 X151.681 Y189.702 E0.54418
G3 X151.073 Y191.185 I-5.415 J-1.354 E0.12044
G1 X145.626 Y200.335 E0.79765
G3 X140.899 Y203.032 I-4.741 J-2.819 E0.42611
G1 X129.122 Y203.032 E0.88218
G3 X124.386 Y200.357 I-0.017 J-5.500 E0.42592
G1 X118.926 Y191.179 E0.79996
G3 X118.315 Y189.702 I4.649 J-2.788 E0.12014
G1 X116.526 Y182.673 E0.54331
G2 X113.464 Y179.470 I-4.370 J1.112 E0.34672
G1 X100.061 Y175.471 E1.04772
G3 X96.244 Y171.313 I1.555 J-5.258 E0.44380
G1 X86.985 Y126.046 E3.46103
G3 X86.863 Y124.906 I6.401 J-1.262 E0.08596
G1 X88.983 Y92.192 E2.45565
G3 X90.344 Y88.903 I5.432 J0.322 E0.27142
G0 F6000 X90.19 Y89.099
G0 X91.059 Y89.523
;TYPE:SKIN
G3 X95.179 Y88.052 I3.396 J3.006 E0.42716 F3000
G1 X125.251 Y92.709 E2.84932
G1 X144.678 Y92.712 E1.81903
G1 X174.798 Y88.056 E2.85375
G3 X180.070 Y92.249 I0.746 J4.473 E0.71025
G1 X182.186 Y124.901 E3.06375
G1 X182.136 Y125.585 E0.06422
G1 X172.831 Y171.086 E4.34861
G3 X169.670 Y174.561 I-4.485 J-0.904 E0.46179
G1 X156.28 Y178.557 E1.3084
G2 X152.567 Y182.387 I1.539 J5.207 E0.52173
G1 X150.77 Y189.441 E0.68159
G3 X150.248 Y190.714 I-3.633 J-0.746 E0.12939
G1 X144.819 Y199.832 E0.99363
G3 X140.859 Y202.084 I-3.927 J-2.298 E0.44637
G1 X129.154 Y202.084 E1.09599
G3 X125.188 Y199.854 I-0.047 J-4.558 E0.44577
G1 X119.747 Y190.708 E0.99646
G3 X119.222 Y189.441 I2.986 J-1.980 E0.12901
G1 X117.43 Y182.399 E0.68038
G2 X113.774 Y178.577 I-5.280 J1.391 E0.51697
G1 X100.358 Y174.569 E1.31105
G3 X97.161 Y171.085 I1.262 J-4.367 E0.46526
G1 X87.856 Y125.587 E4.34834
G1 X87.81 Y124.906 E0.06391
G1 X89.926 Y92.271 E3.06216
G3 X91.059 Y89.523 I4.554 J0.270 E0.28337
G0 F6000 X90.66 Y89.126
G0 X91.534 Y88.422
G0 X92.497 Y87.885
G0 X93.545 Y87.575
G0 X94.67 Y87.494
G0 X125.298 Y91.977
G0 X144.694 Y91.977
G0 X175.327 Y87.494
G0 X176.413 Y87.568
G0 X177.476 Y87.878
G0 X178.472 Y88.43
G0 X179.303 Y89.175
G0 X179.943 Y90.076
G0 X180.59 Y91.831
G0 X178.853 Y92.041
G1 F3000 X178.611 Y91.228 E0.07943
G2 X175.755 Y89.205 I-3.081 J1.323 E0.34422
G1 X178.871 Y92.321 E0.41262
G0 F6000 X180.624 Y92.109
G0 X180.198 Y90.592
G0 X179.644 Y89.603
G0 X178.905 Y88.776
G0 X177.977 Y88.123
G0 X175.975 Y87.453
G0 X175.755 Y89.205
G1 F3000 X175.278 Y89.196 E0.04467
G1 X174.213 Y89.361 E0.10091
G1 X178.989 Y94.136 E0.63236
G1 X179.107 Y95.951 E0.1703
G1 X172.744 Y89.588 E0.84258
G1 X171.274 Y89.815 E0.13927
G1 X179.224 Y97.765 E1.05273
G1 X179.342 Y99.58 E0.1703
G1 X169.805 Y90.043 E1.26287
G1 X168.335 Y90.27 E0.13927
G1 X179.459 Y101.395 E1.47309
G1 X179.578 Y103.21 E0.17031
G1 X166.865 Y90.498 E1.68337
G1 X165.395 Y90.725 E0.13927
G1 X179.695 Y105.024 E1.89352
G1 X179.812 Y106.839 E0.1703
G1 X163.926 Y90.952 E2.10366
G1 X162.456 Y91.179 E0.13927
G1 X179.93 Y108.654 E2.31394
G1 X180.048 Y110.468 E0.17021
G1 X160.986 Y91.407 E2.52409
G1 X159.517 Y91.635 E0.1392
G1 X180.166 Y112.284 E2.73431
G1 X180.283 Y114.098 E0.1702
G1 X158.047 Y91.862 E2.94446
G1 X156.577 Y92.089 E0.13927
G1 X180.401 Y115.912 E3.15467
G1 X180.519 Y117.728 E0.1704
G1 X155.107 Y92.316 E3.36502
G1 X153.638 Y92.544 E0.1392
G1 X180.636 Y119.542 E3.57503
G1 X180.754 Y121.357 E0.1703
G1 X152.168 Y92.771 E3.78531
G1 X150.699 Y92.999 E0.1392
G1 X180.872 Y123.172 E3.99546
G1 X180.983 Y124.9 E0.16213
G1 X180.978 Y124.975 E0.00704
G1 X149.229 Y93.226 E4.20415
G1 X147.759 Y93.453 E0.13927
G1 X180.738 Y126.432 E4.36703
G1 X180.45 Y127.841 E0.13466
G1 X146.289 Y93.68 E4.52354
G1 X144.82 Y93.908 E0.1392
G1 X180.162 Y129.25 E4.67993
G1 X179.874 Y130.659 E0.13466
G1 X143.128 Y93.913 E4.86585
G1 X141.43 Y93.912 E0.15899
G1 X179.585 Y132.068 E5.05249
G1 X179.298 Y133.477 E0.13464
G1 X139.732 Y93.912 E5.2392
G1 X138.034 Y93.911 E0.15899
G1 X179.009 Y134.886 E5.42584
G1 X178.721 Y136.295 E0.13466
G1 X136.337 Y93.91 E5.61249
G1 X134.639 Y93.909 E0.15899
G1 X178.433 Y137.703 E5.79913
G1 X178.145 Y139.113 E0.13475
G1 X132.941 Y93.909 E5.98584
G1 X131.244 Y93.909 E0.1589
G1 X177.856 Y140.521 E6.17229
G1 X177.569 Y141.93 E0.13464
G1 X129.546 Y93.908 E6.35906
G1 X127.848 Y93.907 E0.15899
G1 X177.281 Y143.34 E6.54584
G1 X176.992 Y144.748 E0.13459
G1 X126.151 Y93.907 E6.73228
G3 X124.327 Y93.780 I-0.500 J-5.987 E0.17169
G1 X176.705 Y146.158 E6.93581
G1 X176.416 Y147.566 E0.13459
G1 X122.32 Y93.47 E7.1633
G1 X120.311 Y93.158 E0.19037
G1 X176.128 Y148.975 E7.3912
G1 X175.84 Y150.384 E0.13466
G1 X118.303 Y92.847 E7.61896
G1 X116.295 Y92.536 E0.19026
G1 X175.552 Y151.793 E7.84672
G1 X175.263 Y153.202 E0.13468
G1 X114.287 Y92.225 E8.07441
G1 X112.279 Y91.915 E0.19024
G1 X174.976 Y154.611 E8.30217
G1 X174.687 Y156.02 E0.13468
G1 X110.271 Y91.604 E8.52986
G1 X108.263 Y91.292 E0.19027
G1 X174.399 Y157.429 E8.75769
G1 X174.111 Y158.837 E0.13457
G1 X106.255 Y90.981 E8.98538
G1 X104.247 Y90.67 E0.19026
G1 X173.823 Y160.247 E9.21321
G1 X173.535 Y161.656 E0.13466
G1 X102.239 Y90.36 E9.4409
G1 X100.231 Y90.049 E0.19026
G1 X173.247 Y163.064 E9.66859
G1 X172.959 Y164.474 E0.13475
G1 X98.223 Y89.738 E9.89642
G1 X96.215 Y89.426 E0.19027
G1 X172.671 Y165.882 E10.12418
G1 X172.383 Y167.292 E0.13475
G1 X94.296 Y89.205 E10.34015
G1 X94.232 Y89.206 E0.00599
G1 X93.479 Y89.342 E0.07165
G1 X92.963 Y89.569 E0.05278
G1 X172.094 Y168.7 E10.4784
G1 X171.806 Y170.109 E0.13466
G1 X92.001 Y90.304 E10.56765
G1 X91.724 Y90.621 E0.03942
G1 X91.328 Y91.328 E0.07588
G1 X171.456 Y171.456 E10.61042
G1 X171.282 Y171.85 E0.04033
G1 X170.801 Y172.498 E0.07556
G1 X91.095 Y92.792 E10.55454
G1 X90.992 Y94.386 E0.14956
G1 X169.82 Y173.214 E10.43828
G1 X169.572 Y173.337 E0.02592
G1 X168.55 Y173.641 E0.09984
G1 X90.889 Y95.98 E10.28374
G1 X90.785 Y97.573 E0.14948
G1 X167.243 Y174.032 E10.12451
G1 X165.937 Y174.422 E0.12762
G1 X90.681 Y99.167 E9.96521
G1 X90.578 Y100.761 E0.14956
G1 X164.629 Y174.812 E9.80571
G1 X163.323 Y175.202 E0.12762
G1 X90.475 Y102.354 E9.64641
G1 X90.372 Y103.948 E0.14956
G1 X162.016 Y175.592 E9.48698
G1 X160.709 Y175.983 E0.12774
G1 X90.269 Y105.542 E9.32762
G1 X90.165 Y107.135 E0.14948
G1 X159.402 Y176.373 E9.16832
G1 X158.096 Y176.763 E0.12762
G1 X90.061 Y108.729 E9.00902
G1 X89.958 Y110.323 E0.14956
G1 X156.789 Y177.154 E8.84965
G2 X155.503 Y177.565 I2.474 J9.959 E0.12648
G1 X89.855 Y111.917 E8.693
G1 X89.752 Y113.51 E0.14947
G1 X154.357 Y178.116 E8.55496
G2 X153.389 Y178.845 I2.015 J3.683 E0.11372
G1 X89.648 Y115.104 E8.44048
G1 X89.544 Y116.697 E0.14948
G1 X152.572 Y179.725 E8.34607
G1 X152.474 Y179.839 E0.01408
G1 X151.973 Y180.637 E0.08823
G1 X151.915 Y180.765 E0.01316
G1 X89.441 Y118.291 E8.27271
G1 X89.338 Y119.885 E0.14956
G1 X151.437 Y181.984 E8.22305
G1 X151.089 Y183.333 E0.13045
G1 X89.235 Y121.479 E8.19061
G1 X89.131 Y123.072 E0.14948
G1 X150.744 Y184.685 E8.15869
G1 X150.399 Y186.037 E0.13065
G1 X89.028 Y124.666 E8.12665
G2 X89.048 Y125.427 I2.923 J0.304 E0.07141
G1 X89.293 Y126.629 E0.11486
G1 X150.054 Y187.39 E8.04587
G1 X149.709 Y188.742 E0.13065
G1 X89.73 Y128.762 E7.94239
G1 X90.166 Y130.895 E0.20385
G1 X149.27 Y189.999 E7.82646
G1 X148.641 Y191.067 E0.11606
G1 X90.602 Y133.029 E7.68536
G1 X91.039 Y135.162 E0.20387
G1 X148.008 Y192.132 E7.54381
G1 X147.374 Y193.195 E0.11589
G1 X91.475 Y137.295 E7.40212
G1 X91.911 Y139.429 E0.20394
G1 X146.741 Y194.258 E7.26043
G1 X146.108 Y195.323 E0.116
G1 X92.347 Y141.562 E7.11894
G1 X92.784 Y143.695 E0.20387
G1 X145.474 Y196.386 E6.97719
G1 X144.841 Y197.45 E0.11592
G1 X93.22 Y145.829 E6.83557
G1 X93.656 Y147.962 E0.20385
G1 X144.208 Y198.514 E6.69401
G1 X143.63 Y199.484 E0.10573
G1 X143.561 Y199.564 E0.00989
G1 X94.093 Y150.095 E6.55054
G1 X94.529 Y152.229 E0.20394
G1 X142.667 Y200.366 E6.37429
G3 X141.427 Y200.824 I-1.610 J-2.451 E0.12466
G1 X94.965 Y154.362 E6.15242
G1 X95.401 Y156.495 E0.20385
G1 X139.79 Y200.884 E5.87792
G1 X138.093 Y200.884 E0.1589
G0 F6000 X138.093 Y202.652
G0 X128.528 Y202.555
G0 X127.377 Y202.287
G0 X126.352 Y201.775
G0 X125.466 Y201.048
G0 X124.758 Y200.12
G0 X118.965 Y190.321
G0 X116.523 Y181.405
G0 X114.701 Y179.611
G0 X115.581 Y178.079
G1 F3000 X116.373 Y178.626 E0.09013
G1 X117.399 Y179.647 E0.13553
G3 X118.164 Y180.955 I-4.819 J3.696 E0.14211
G0 F6000 X116.576 Y181.716
G0 X118.965 Y190.321
G0 X125.082 Y200.597
G0 X125.886 Y201.435
G0 X126.89 Y202.077
G0 X127.946 Y202.453
G0 X138.093 Y202.652
G0 X138.093 Y200.884
G1 F3000 X118.164 Y180.955 E2.63897
G0 F6000 X116.576 Y181.716
G0 X115.556 Y180.514
G0 X114.159 Y179.328
G0 X114.976 Y177.767
G1 F3000 X95.838 Y158.629 E2.53422
G1 X96.274 Y160.762 E0.20385
G1 X112.436 Y176.924 E2.14015
G1 X110.016 Y176.201 E0.23649
G1 X96.71 Y162.895 E1.76196
G1 X97.147 Y165.03 E0.20405
G1 X107.596 Y175.478 E1.38357
G1 X105.176 Y174.755 E0.23649
G1 X97.584 Y167.163 E1.00532
G1 X98.02 Y169.296 E0.20385
G1 X102.756 Y174.032 E0.62713
G1 X100.421 Y173.335 E0.22817
G1 X100.29 Y173.263 E0.014
G1 X98.595 Y171.569 E0.22438
G0 F6000 X96.924 Y172.203
G0 X97.567 Y173.213
G0 X98.288 Y173.998
G0 X99.175 Y174.624
G0 X100.198 Y175.052
G0 X114.06 Y179.468
G0 X115.117 Y180.109
G0 X116.576 Y181.716
G0 X118.164 Y180.955
G3 X118.926 Y183.414 I-10.649 J4.648 E0.24160 F3000
G1 X136.396 Y200.884 E2.31335
G1 X134.699 Y200.884 E0.1589
G1 X119.506 Y185.691 E2.01183
G1 X120.085 Y187.967 E0.2199
G1 X133.002 Y200.884 E1.71045
G1 X131.305 Y200.884 E0.1589
G1 X121.165 Y190.744 E1.34272
G1 X123.658 Y194.934 E0.45652
G1 X129.608 Y200.884 E0.78789
G3 X127.970 Y200.682 I-0.311 J-4.216 E0.15528
G1 X127.449 Y200.422 E0.05452
G1 X126.151 Y199.125 E0.17181
G1 F2700 E-0.4
;MESH:NONMESH
G0 F600 X126.151 Y199.125 Z0.6
G0 F6000 X124.633 Y200.028
G0 X119.344 Y190.942
G0 X117.637 Y191.201
G0 X97.249 Y175.2
G0 X96.288 Y174.154
G0 X95.567 Y172.919
G0 X95.133 Y171.58
G0 X85.77 Y125.682
G0 X85.741 Y124.524
G0 X87.925 Y91.387
G0 X88.649 Y89.334
G0 X93.071 Y91.281
;TIME_ELAPSED:164.683703
;LAYER:1
M106 S51
;TYPE:WALL-INNER
;MESH:Box
G1 F1500 E0.4
G2 X92.576 Y92.534 I1.480 J1.309 E0.16788 F6000
G1 X90.493 Y124.727 E3.94858
G1 X90.499 Y125.209 E0.059
G1 X99.803 Y170.695 E5.68264
G2 X100.970 Y171.975 I1.898 J-0.558 E0.21882
G1 X114.578 Y176.035 E1.73813
G3 X119.987 Y181.651 I-2.380 J7.705 E0.99560
G1 X121.788 Y188.72 E0.89287
G1 X121.967 Y189.234 E0.06662
G1 X127.419 Y198.396 E1.30493
G2 X128.974 Y199.420 I1.725 J-0.927 E0.23675
G1 X140.992 Y199.419 E1.47097
G2 X142.448 Y198.620 I-0.128 J-1.959 E0.20917
G1 X147.918 Y189.42 E1.31006
G1 X148.15 Y188.944 E0.06481
G1 X150.009 Y181.651 E0.92119
G3 X155.364 Y176.050 I7.800 J2.097 E0.98873
G1 X169.038 Y171.97 E1.74657
G2 X170.191 Y170.706 I-0.758 J-1.849 E0.21583
G1 X179.457 Y125.406 E5.6594
G1 X179.519 Y124.91 E0.06118
G1 X177.421 Y92.536 E3.9708
G2 X175.121 Y90.699 I-1.923 J0.049 E0.41023
G1 X144.914 Y95.376 E3.74131
G1 X125.074 Y95.376 E2.42836
G1 X94.624 Y90.661 E3.77141
G2 X93.071 Y91.281 I-0.137 J1.912 E0.21122
G0 F12000 X92.476 Y90.745
G1 F6000 X92.109 Y91.266 E0.078
G2 X91.779 Y92.460 I2.411 J1.309 E0.15260
G1 X89.694 Y124.692 E3.95336
G1 X89.703 Y125.315 E0.07626
G1 X99.032 Y170.919 E5.6974
G2 X100.955 Y172.805 I2.627 J-0.755 E0.34374
G1 X114.33 Y176.796 E1.70839
G3 X119.218 Y181.874 I-2.185 J6.995 E0.90014
G1 X121.018 Y188.937 E0.89212
G1 X121.247 Y189.587 E0.08435
G1 X126.743 Y198.824 E1.31558
G1 X127.198 Y199.425 E0.09226
G2 X129.203 Y200.220 I1.924 J-1.926 E0.27084
G1 X141.061 Y200.219 E1.45139
G2 X143.098 Y199.090 I-0.249 J-2.851 E0.29326
G1 X148.615 Y189.812 E1.3212
G1 X148.91 Y189.205 E0.0826
G1 X150.777 Y181.868 E0.92665
G3 X155.669 Y176.795 I7.021 J1.876 E0.89993
G1 X169.336 Y172.716 E1.74572
G2 X170.961 Y170.934 I-1.050 J-2.589 E0.30440
G1 X180.244 Y125.549 E5.67001
G1 X180.321 Y124.921 E0.07744
G1 X178.217 Y92.462 E3.98123
G2 X175.020 Y89.905 I-2.693 J0.091 E0.56755
G1 X144.86 Y94.576 E3.73551
G1 X125.128 Y94.576 E2.41514
G1 X94.975 Y89.906 E3.73465
G2 X92.476 Y90.745 I-0.501 J2.647 E0.33635
G0 F12000 X91.88 Y90.209
G1 F6000 X91.407 Y90.88 E0.10048
G2 X90.982 Y92.386 I3.116 J1.692 E0.19272
G1 X88.894 Y124.658 E3.95826
G1 X88.908 Y125.417 E0.09292
G1 X98.263 Y171.152 E5.71375
G2 X99.946 Y173.253 I3.496 J-1.076 E0.33719
G1 X100.705 Y173.566 E0.10049
G1 X114.145 Y177.578 E1.71675
G3 X118.450 Y182.096 I-1.978 J6.195 E0.79645
G1 X120.248 Y189.155 E0.89159
G1 X120.528 Y189.945 E0.10259
G1 X126.223 Y199.514 E1.36295
G2 X129.180 Y201.020 I2.927 J-2.091 E0.42183
G1 X141.131 Y201.019 E1.46277
G2 X143.932 Y199.254 I-0.278 J-3.547 E0.42068
G1 X149.313 Y190.204 E1.28871
G1 X149.671 Y189.457 E0.10139
G1 X151.546 Y182.096 E0.92974
G3 X155.856 Y177.576 I6.285 J1.678 E0.79708
G1 X169.63 Y173.463 E1.75946
G2 X171.737 Y171.131 I-1.413 J-3.394 E0.39724
G1 X181.032 Y125.692 E5.67678
G1 X181.124 Y124.92 E0.09516
G1 X179.014 Y92.388 E3.9902
G2 X174.920 Y89.111 I-3.500 J0.176 E0.72459
G1 X144.81 Y93.777 E3.72937
G1 X125.139 Y93.771 E2.40768
G1 X94.727 Y89.058 E3.76678
G1 X93.793 Y89.126 E0.11462
G2 X91.880 Y90.209 I0.667 J3.408 E0.27324
G0 F12000 X90.988 Y90.043
G1 F6000 X90.705 Y90.494 E0.06517
G1 X90.352 Y91.346 E0.11288
G2 X90.185 Y92.313 I4.379 J1.254 E0.12028
G1 X88.095 Y124.623 E3.96292
G1 X88.112 Y125.517 E0.10944
G1 X97.417 Y171.009 E5.68338
G2 X100.456 Y174.326 I4.271 J-0.862 E0.57852
G1 X113.835 Y178.318 E1.70889
G3 X117.699 Y182.382 I-1.660 J5.447 E0.71718
G1 X119.478 Y189.372 E0.88283
G1 X119.809 Y190.3 E0.12059
G1 X125.391 Y199.681 E1.3361
G2 X129.158 Y201.820 I3.750 J-2.218 E0.55488
G1 X140.838 Y201.819 E1.4296
G2 X144.608 Y199.682 I0.046 J-4.314 E0.55513
G1 X150.011 Y190.596 E1.29387
G1 X150.428 Y189.723 E0.11842
G1 X152.335 Y182.253 E0.94363
G3 X156.120 Y178.331 I5.469 J1.491 E0.69534
G1 X169.89 Y174.221 E1.75888
G2 X172.090 Y172.327 I-1.629 J-4.117 E0.36162
G1 X172.501 Y171.391 E0.12512
G1 X181.877 Y125.553 E5.72661
