;FLAVOR:RepRap
;TIME:3297
;Filament used: 5.21429m
;Layer height: 0.3
;MINX:7.624
;MINY:6.3
;MINZ:0.2
;MAXX:262.376
;MAXY:283.7
;MAXZ:0.8
;TARGET_MACHINE.NAME:Unknown
;ARCWELDERPROCESSED
;Exported with Cura-DuetRRF v1.2.9 plugin by Thomas Kriechbaumer
;LINEARADVANCEPROCESSED
; Postprocessed by [ArcWelder](https://github.com/FormerLurker/ArcWelderLib)
; Copyright(C) 2021 - Brad Hochgesang
; Version: 1.2.0, Branch: HEAD, BuildDate: 2021-11-21T20:25:43Z
; resolution=0.05mm
; path_tolerance=5.0%
; max_radius=9999.00mm
; g90_influences_extruder=True
; default_xyz_precision=3
; default_e_precision=5
; extrusion_rate_variance_percent=5.0%

;Generated with Cura_SteamEngine 5.5.0
T0
M104 S220
M109 S220
M82 ;absolute extrusion mode

M83 ;relative extrusion mode
G1 F1500 E-0.3
;LAYER_COUNT:3
M572 S0.265000 D0 ;added by LinearAdvanceSettingPlugin
;LAYER:0
M107
G0 F3600 X8.565 Y8.058 Z0.2
;TYPE:SKIRT
G1 F1500 E0.49956
G3 X11.821 Y6.320 I3.499 J2.636 E0.15757 F1950
G3 X17.352 Y6.310 I3.037 J150.235 E0.22913
G3 X19.306 Y6.665 I-0.832 J10.137 E0.08235
G2 X41.192 Y8.839 I20.577 J-95.904 E0.91296
G3 X47.191 Y9.530 I-2.462 J47.757 E0.25036
G2 X59.776 Y10.371 I12.747 J-96.169 E0.52285
G2 X69.716 Y10.327 I3.464 J-340.307 E0.41177
G2 X81.326 Y9.312 I-4.224 J-115.229 E0.48300
G1 X82.306 Y9.336 E0.04061
G2 X109.599 Y10.361 I17.394 J-99.262 E1.13483
G1 X118.785 Y10.371 E0.38053
G2 X151.000 Y10.407 I16.215 J-95.831 E1.34065
G1 X151.485 Y10.37 E0.02015
G3 X160.610 Y10.371 I4.504 J536.782 E0.37802
G2 X187.482 Y9.373 I9.777 J-99.010 E1.11730
G3 X189.265 Y9.376 I0.882 J5.394 E0.07410
G2 X205.112 Y10.373 I14.196 J-99.194 E0.65842
G2 X215.622 Y10.206 I2.383 J-180.832 E0.43551
G2 X226.525 Y8.998 I-7.756 J-119.808 E0.45460
G3 X231.682 Y8.825 I3.911 J39.647 E0.21389
G2 X252.007 Y6.389 I-1.287 J-96.752 E0.84954
G3 X253.744 Y6.300 I1.355 J9.458 E0.07211
G3 X258.136 Y6.309 I1.860 J163.728 E0.18194
G3 X260.531 Y7.158 I-0.216 J4.411 E0.10674
G3 X261.737 Y8.468 I-2.095 J3.139 E0.07441
G1 X261.985 Y8.913 E0.0211
G1 X262.276 Y9.809 E0.03903
G3 X262.376 Y11.349 I-8.242 J1.308 E0.06399
G1 X262.376 Y20.629 E0.38442
G2 X262.376 Y33.375 I141.640 J6.373 E0.52823
G1 X262.376 Y42.639 E0.38376
G2 X262.262 Y53.545 I138.494 J6.901 E0.45198
G3 X262.376 Y56.374 I-39.196 J2.996 E0.11730
G1 X262.376 Y65.629 E0.38339
G2 X262.376 Y78.375 I128.936 J6.373 E0.52821
G1 X262.376 Y87.639 E0.38376
G2 X262.262 Y98.545 I138.494 J6.901 E0.45198
G3 X262.376 Y101.374 I-39.196 J2.996 E0.11730
G1 X262.376 Y110.629 E0.38339
G2 X262.376 Y123.375 I128.936 J6.373 E0.52821
G1 X262.376 Y132.639 E0.38376
G2 X262.262 Y143.545 I138.494 J6.901 E0.45198
G3 X262.376 Y146.374 I-39.196 J2.996 E0.11730
G1 X262.376 Y155.629 E0.38339
G2 X262.376 Y168.375 I128.936 J6.373 E0.52821
G1 X262.376 Y177.639 E0.38376
G3 X262.251 Y180.596 I-52.268 J-0.728 E0.12262
G2 X262.316 Y190.235 I98.420 J4.156 E0.39945
G1 X262.341 Y191.51 E0.05283
G1 X262.341 Y200.792 E0.38451
G2 X262.192 Y208.460 I210.615 J7.928 E0.31775
G3 X262.341 Y213.511 I-178.973 J7.807 E0.20933
G1 X262.341 Y222.792 E0.38446
G2 X262.163 Y230.928 I162.329 J7.621 E0.33717
G3 X262.341 Y236.510 I-180.645 J8.554 E0.23136
G1 X262.341 Y245.792 E0.38451
G2 X262.192 Y253.460 I210.615 J7.928 E0.31775
G3 X262.341 Y258.511 I-178.973 J7.807 E0.20933
G1 X262.341 Y267.783 E0.38409
G3 X261.267 Y271.148 I-4.822 J0.315 E0.14991
G2 X252.545 Y281.805 I69.868 J66.079 E0.57093
G3 X249.890 Y283.587 I-3.839 J-2.851 E0.13515
G3 X248.130 Y283.700 I-1.387 J-7.839 E0.07316
G3 X243.648 Y283.690 I-1.891 J-157.099 E0.18567
G3 X241.694 Y283.335 I0.832 J-10.137 E0.08235
G2 X219.808 Y281.161 I-20.577 J95.904 E0.91296
G3 X213.809 Y280.470 I2.462 J-47.757 E0.25036
G2 X201.224 Y279.629 I-12.747 J96.169 E0.52285
G2 X191.284 Y279.673 I-3.464 J340.307 E0.41177
G2 X179.674 Y280.688 I4.224 J115.229 E0.48300
G1 X178.694 Y280.664 E0.04061
G2 X151.402 Y279.639 I-17.393 J99.256 E1.13479
G1 X142.459 Y279.63 E0.37046
G2 X127.512 Y279.630 I-7.473 J100.980 E0.61972
G3 X118.390 Y279.629 I-4.502 J-536.562 E0.37789
G2 X91.518 Y280.627 I-9.777 J99.010 E1.11730
G3 X89.735 Y280.624 I-0.882 J-5.394 E0.07410
G2 X73.888 Y279.627 I-14.196 J99.194 E0.65842
G2 X63.378 Y279.794 I-2.383 J180.832 E0.43551
G2 X52.475 Y281.002 I7.756 J119.808 E0.45460
G3 X47.318 Y281.175 I-3.911 J-39.647 E0.21389
G2 X26.993 Y283.611 I1.287 J96.752 E0.84954
G3 X25.256 Y283.700 I-1.355 J-9.458 E0.07211
G3 X20.864 Y283.691 I-1.861 J-163.729 E0.18194
G3 X18.467 Y282.840 I0.215 J-4.407 E0.10685
G3 X17.584 Y282.009 I1.750 J-2.744 E0.05044
G2 X8.826 Y271.305 I-81.519 J57.763 E0.57335
G3 X7.634 Y268.347 I3.202 J-3.009 E0.13500
G1 X7.624 Y267.626 E0.02987
G1 X7.624 Y258.361 E0.3838
G2 X7.624 Y245.626 I-141.146 J-6.368 E0.52777
G1 X7.624 Y236.361 E0.3838
G2 X7.738 Y225.455 I-138.494 J-6.901 E0.45198
G3 X7.624 Y222.627 I39.957 J-3.027 E0.11726
G1 X7.624 Y213.361 E0.38384
G2 X7.624 Y200.626 I-128.753 J-6.368 E0.52776
G1 X7.624 Y191.361 E0.3838
G3 X7.749 Y188.404 I52.268 J0.728 E0.12262
G2 X7.684 Y178.765 I-98.420 J-4.156 E0.39945
G1 X7.659 Y177.49 E0.05283
G1 X7.659 Y168.209 E0.38446
G2 X7.808 Y160.540 I-210.817 J-7.932 E0.31780
G3 X7.659 Y155.489 I178.973 J-7.807 E0.20933
G1 X7.659 Y146.208 E0.38446
G2 X7.837 Y138.072 I-162.329 J-7.621 E0.33717
G3 X7.659 Y132.490 I180.645 J-8.554 E0.23136
G1 X7.659 Y123.209 E0.38446
G2 X7.808 Y115.540 I-210.817 J-7.932 E0.31780
G3 X7.659 Y110.489 I178.973 J-7.807 E0.20933
G1 X7.659 Y101.208 E0.38446
G2 X7.837 Y93.072 I-162.329 J-7.621 E0.33717
G3 X7.659 Y87.490 I180.645 J-8.554 E0.23136
G1 X7.659 Y78.209 E0.38446
G2 X7.808 Y70.540 I-210.817 J-7.932 E0.31780
G3 X7.659 Y65.489 I178.973 J-7.807 E0.20933
G1 X7.659 Y56.208 E0.38446
G2 X7.837 Y48.072 I-162.329 J-7.621 E0.33717
G3 X7.659 Y42.490 I180.645 J-8.554 E0.23136
G1 X7.659 Y33.209 E0.38446
G2 X7.808 Y25.540 I-210.817 J-7.932 E0.31780
G3 X7.659 Y20.489 I178.973 J-7.807 E0.20933
G1 X7.659 Y11.203 E0.38467
G3 X8.565 Y8.058 I4.880 J-0.297 E0.13831
G1 F1500 E-0.3
;MESH:Cam_Holder_300mAh_Dipole_Rev-04_48pcs.3mf(43)
G0 F3600 X17.861 Y15.304
G0 X18.557 Y16
;TYPE:WALL-INNER
G1 F1500 E0.49956
G1 F1950 X23.666 Y16 E0.21164
G0 F3600 X25.069 Y16
G1 F1950 X23.75 Y15.52 E0.05814
G1 X21.115 Y15.518 E0.10915
G3 X20.648 Y15.255 I-0.004 J-0.539 E0.02300
G1 X20.544 Y15.381 E0.00677
G1 X20.225 Y15.52 E0.01441
G1 X18.319 Y15.52 E0.07896
G1 X18.077 Y15.317 E0.01308
G1 X18.077 Y16.722 E0.0582
G1 X18.319 Y16.48 E0.01418
G1 X20.225 Y16.48 E0.07896
G1 X20.544 Y16.618 E0.0144
G1 X20.648 Y16.745 E0.0068
G3 X21.115 Y16.482 I0.497 J0.336 E0.02301
G1 X23.75 Y16.48 E0.10915
G1 X25.069 Y16 E0.05814
G1 F1500 E-0.3
G0 F3600 X24.184 Y16
G0 X25.726 Y16
G0 X27.029 Y16
G0 X27.244 Y14.925
G1 F1500 E0.49956
G1 F1929.9 X27.239 Y14.12 E0.0337
G0 F3600 X27.421 Y15.198
G0 X27.719 Y16
G1 F1796.5 X29.973 Y16 E0.10135
G0 F3600 X30.875 Y16.936
G1 F1879.5 X30.602 Y16.564 E0.01983
G3 X30.484 Y15.753 I1.231 J-0.593 E0.03432 F1950
G1 F1933.9 X30.667 Y15.33 E0.01925
G1 F1864.5 X30.871 Y15.064 E0.01452
G1 F1846.2 X29.924 Y15.52 E0.04599
G1 F1914.1 X27.896 Y15.518 E0.08558
G1 F1950 X27.682 Y15.466 E0.00912
G1 F1929.9 X27.244 Y14.925 E0.02914
G1 F1922 X27.24 Y15.859 E0.03926
G1 F1941.9 X27.195 Y16 E0.00616
G1 F1950 X27.24 Y16.239 E0.01007
G1 X27.239 Y17.2 E0.03981
G1 X27.682 Y16.534 E0.03313
G1 X27.896 Y16.482 E0.00912
G1 F1914.1 X29.926 Y16.48 E0.08567
G1 F1846.2 X30.875 Y16.936 E0.04607
G1 F1883.3 X31.14 Y17.094 E0.01323
G2 X33.580 Y18.078 I9.186 J-19.262 E0.10904 F1950
G2 X36.066 Y18.753 I7.092 J-21.203 E0.10631 F1958
G2 X38.647 Y19.136 I4.549 J-21.767 E0.10791 F1954
G1 F1958.2 X39.901 Y19.209 E0.05182
G1 F1954.1 X41.193 Y19.211 E0.05341
G1 X42.488 Y19.136 E0.05362
G1 F1958.2 X43.781 Y18.983 E0.05371
G1 F1954.1 X45.07 Y18.754 E0.05412
G1 F1945.9 X46.279 Y18.463 E0.05162
G2 X48.728 Y17.649 I-5.836 J-21.650 E0.10673 F1954
G1 F1958.2 X49.995 Y17.094 E0.05706
G1 F1950 X50.101 Y17.034 E0.00505
G0 F3600 X51.173 Y16
G1 F1800 X56.685 Y16 E0.24736
G1 F1759.4 X62.197 Y16 E0.25307
G1 F1739.8 X67.914 Y16 E0.26544
G1 F1789.7 X69.742 Y16 E0.08251
G1 F1894.7 X71.57 Y16 E0.07793
G1 F1954.1 X75.354 Y16 E0.15643
G0 F3600 X67.768 Y15.89
G0 X67.768 Y15.52
G1 F1950 X65.786 Y15.518 E0.0821
G3 X65.319 Y15.255 I-0.004 J-0.539 E0.02300
G1 X65.215 Y15.381 E0.00677
G1 X64.895 Y15.52 E0.01445
G1 X62.928 Y15.518 E0.08148
G3 X62.461 Y15.254 I-0.008 J-0.531 E0.02304
G1 X62.357 Y15.382 E0.00683
G1 X62.036 Y15.52 E0.01447
G1 X60.069 Y15.518 E0.08148
G3 X59.602 Y15.254 I-0.008 J-0.531 E0.02304
G1 X59.498 Y15.382 E0.00683
G1 X59.177 Y15.52 E0.01447
G1 X57.21 Y15.518 E0.08148
G1 X56.846 Y15.382 E0.0161
G1 X56.742 Y15.254 E0.00683
G1 X56.638 Y15.382 E0.00683
G1 X56.331 Y15.52 E0.01394
G1 X51.314 Y15.518 E0.20783
G1 X51.125 Y15.476 E0.00802
G1 F1883.3 X50.264 Y15.064 E0.04094
G1 X50.53 Y15.428 E0.01934
G1 F1950 X50.629 Y15.681 E0.01125
G3 X50.428 Y16.731 I-1.174 J0.320 E0.04571
G1 F1937.9 X50.101 Y17.034 E0.01858
G1 X51.126 Y16.524 E0.04772
G1 F1950 X51.314 Y16.482 E0.00798
G1 X56.319 Y16.48 E0.20733
G1 X56.637 Y16.618 E0.01436
G1 X56.742 Y16.746 E0.00686
G1 X56.847 Y16.618 E0.00686
G1 X57.21 Y16.482 E0.01606
G1 X59.177 Y16.48 E0.08148
G1 X59.498 Y16.618 E0.01447
G1 X59.602 Y16.746 E0.00683
G3 X60.069 Y16.482 I0.496 J0.333 E0.02304
G1 X62.036 Y16.48 E0.08148
G1 X62.357 Y16.618 E0.01447
G1 X62.461 Y16.746 E0.00683
G3 X62.928 Y16.482 I0.496 J0.333 E0.02304
G1 X64.895 Y16.48 E0.08148
G1 X65.215 Y16.618 E0.01444
G1 X65.319 Y16.745 E0.0068
G3 X65.786 Y16.482 I0.497 J0.336 E0.02301
G1 X67.755 Y16.48 E0.08157
G1 X68.074 Y16.618 E0.0144
G1 X68.179 Y16.746 E0.00686
G1 X68.284 Y16.618 E0.00686
G1 X68.647 Y16.482 E0.01606
G1 X70.614 Y16.48 E0.08148
G1 X70.935 Y16.618 E0.01447
G1 X71.039 Y16.746 E0.00683
G3 X71.506 Y16.482 I0.496 J0.333 E0.02304
G1 X75.438 Y16.479 E0.16288
G1 X76.756 Y16 E0.05809
G1 X75.438 Y15.521 E0.05809
G1 X71.506 Y15.518 E0.16288
G3 X71.039 Y15.254 I-0.008 J-0.531 E0.02304
G1 X70.935 Y15.382 E0.00683
G1 X70.614 Y15.52 E0.01447
G1 X68.647 Y15.518 E0.08148
G1 X68.283 Y15.382 E0.0161
G1 X68.179 Y15.254 E0.00683
G1 X68.075 Y15.382 E0.00683
G1 X67.768 Y15.52 E0.01394
G0 F3600 X67.768 Y15.89
G0 X51.132 Y15.828
G0 X50.264 Y15.064
G1 F1898.6 X49.995 Y14.906 E0.01327
G1 F1970.5 X48.77 Y14.368 E0.05485
G1 F1966.4 X47.595 Y13.936 E0.05143
G1 F1970.5 X46.357 Y13.558 E0.05306
G1 F1966.4 X45.07 Y13.247 E0.05439
G2 X41.235 Y12.791 I-4.496 J21.457 E0.15916 F1962
G2 X38.643 Y12.865 I-0.663 J22.203 E0.10702 F1958
G1 F1954.1 X37.355 Y13.017 E0.05361
G1 F1950 X36.066 Y13.246 E0.05423
G1 X34.857 Y13.537 E0.05151
G1 F1954.1 X33.58 Y13.922 E0.05514
G2 X31.140 Y14.906 I6.746 J20.246 E0.10927 F1946
G1 F1879.5 X30.877 Y15.062 E0.01314
G0 F3600 X30.114 Y15.76
G0 X27.441 Y16.682
G0 X27.239 Y17.2
G1 F1950 X27.239 Y17.88 E0.02817
G1 F1500 E-0.3
G0 F3600 X27.441 Y16.682
G0 X29.885 Y16.672
G0 X34.851 Y18.266
G0 X37.367 Y18.793
G0 X39.926 Y19.02
G0 X42.493 Y18.944
G0 X45.034 Y18.567
G0 X47.042 Y18.02
G0 X51.256 Y16.691
G0 X51.535 Y17.863
G0 X57.027 Y19.268
G0 X81.513 Y20.123
G0 X82.711 Y19.989
G0 X83.82 Y19.515
G0 X84.743 Y18.738
G0 X85.277 Y17.958
G0 X86.804 Y17.68
G1 F1500 E0.49956
G1 F1950 X86.804 Y17.2 E0.01988
G0 F3600 X87.224 Y16
G1 F1752.8 X88.804 Y16 E0.07281
G1 F1879.5 X90.384 Y16 E0.06791
G1 F1954.1 X93.386 Y16 E0.1241
G0 F3600 X87.174 Y16
G0 X86.601 Y16
G1 F1950 X86.749 Y16.2 E0.01031
G1 X86.804 Y16.48 E0.01182
G1 X86.804 Y17.2 E0.02983
G1 X87.092 Y16.624 E0.02668
G3 X87.461 Y16.482 I0.423 J0.549 E0.01655
G1 X89.429 Y16.48 E0.08152
G1 X89.75 Y16.618 E0.01447
G1 X89.854 Y16.746 E0.00683
G3 X90.321 Y16.482 I0.496 J0.333 E0.02304
G1 X93.584 Y16.479 E0.13517
G1 X94.04 Y16.075 E0.02524
G1 F1941.9 X94.301 Y16 E0.0113
G1 X94.04 Y15.925 E0.0113
G1 F1950 X93.584 Y15.521 E0.02524
G1 X90.321 Y15.518 E0.13517
G3 X89.854 Y15.254 I-0.008 J-0.531 E0.02304
G1 X89.75 Y15.382 E0.00683
G1 X89.429 Y15.52 E0.01447
G1 X87.461 Y15.518 E0.08152
G3 X87.092 Y15.376 I0.054 J-0.691 E0.01655
G1 F1929.9 X86.809 Y14.925 E0.02229
G1 F1922 X86.803 Y15.633 E0.02976
G1 F1941.9 X86.749 Y15.8 E0.0073
G1 F1950 X86.601 Y16 E0.01031
G0 F3600 X87.174 Y16
G0 X86.809 Y14.925
G1 F1929.9 X86.804 Y14.32 E0.02532
G0 F3600 X87.006 Y15.318
G0 X93.583 Y16
G0 X94.301 Y16
G1 F1941.9 X109.084 Y16 E0.61493
G0 F3600 X109.864 Y16
G0 X110.144 Y16
G1 F1650.8 X111.764 Y16 E0.07927
G1 F1838.9 X113.384 Y16 E0.07116
G1 F1950 X121.624 Y16 E0.34134
G0 F3600 X109.864 Y16
G0 X109.084 Y16
G1 F1950 X109.407 Y16.075 E0.01374
G3 X110.052 Y16.667 I-1.523 J2.307 E0.03635
G3 X110.461 Y16.482 I0.460 J0.472 E0.01885
G1 X112.429 Y16.48 E0.08152
G1 X112.75 Y16.618 E0.01447
G1 X112.854 Y16.746 E0.00683
G3 X113.321 Y16.482 I0.496 J0.333 E0.02304
G1 X115.288 Y16.48 E0.08148
G1 X115.609 Y16.618 E0.01447
G1 X115.713 Y16.746 E0.00683
G3 X116.180 Y16.482 I0.496 J0.333 E0.02304
G1 X118.147 Y16.48 E0.08148
G1 X118.467 Y16.618 E0.01444
G1 X118.571 Y16.745 E0.0068
G3 X119.038 Y16.482 I0.497 J0.336 E0.02301
G1 X121.708 Y16.48 E0.1106
G1 X123.027 Y16 E0.05814
G1 X121.708 Y15.52 E0.05814
G1 X119.038 Y15.518 E0.1106
G3 X118.571 Y15.255 I-0.004 J-0.539 E0.02300
G1 X118.467 Y15.381 E0.00677
G1 X118.147 Y15.52 E0.01445
G1 X116.18 Y15.518 E0.08148
G3 X115.713 Y15.254 I-0.008 J-0.531 E0.02304
G1 X115.609 Y15.382 E0.00683
G1 X115.288 Y15.52 E0.01447
G1 X113.321 Y15.518 E0.08148
G3 X112.854 Y15.254 I-0.008 J-0.531 E0.02304
G1 X112.75 Y15.382 E0.00683
G1 X112.429 Y15.52 E0.01447
G1 X110.461 Y15.518 E0.08152
G3 X110.052 Y15.333 I0.051 J-0.657 E0.01885
G3 X109.407 Y15.925 I-2.168 J-1.715 E0.03635
G1 X109.084 Y16 E0.01374
G1 F1500 E-0.3
G0 F3600 X109.864 Y16
G0 X86.594 Y16
G0 X78.895 Y16
;TYPE:WALL-OUTER
G1 F1500 E0.49956
G1 F1902.4 X78.951 Y15.525 E0.02031
G1 F1958.2 X79.083 Y15.034 E0.02097
G1 F1954.1 X79.265 Y14.642 E0.01787
G1 F1958.2 X79.555 Y14.229 E0.02082
G1 F1962.3 X79.892 Y13.893 E0.01959
G1 F1966.4 X80.3 Y13.609 E0.02042
G1 F1958.2 X80.762 Y13.401 E0.0209
G1 F1950 X81.162 Y13.296 E0.01713
G1 F1954.1 X81.635 Y13.252 E0.01964
G1 F1958.2 X82.142 Y13.295 E0.02099
G1 F1970.5 X82.592 Y13.415 E0.01909
G1 F1978.9 X83.023 Y13.613 E0.01936
G1 F1962.3 X83.428 Y13.896 E0.02034
G1 F1958.2 X83.777 Y14.251 E0.02054
G1 F1970.5 X84.04 Y14.628 E0.01884
G1 F1864.5 X84.296 Y15.182 E0.02644
G1 F1674.4 X84.46 Y16 E0.04025
G1 X84.292 Y16.829 E0.04081
G1 F1868.3 X84.039 Y17.372 E0.0259
G1 F1970.5 X83.75 Y17.782 E0.02056
G1 F1954.1 X83.427 Y18.105 E0.01888
G1 X83.053 Y18.369 E0.01892
G1 F1962.3 X82.615 Y18.576 E0.01994
G1 F1966.4 X82.16 Y18.701 E0.01938
G1 F1962.3 X81.635 Y18.748 E0.0217
G3 X80.706 Y18.580 I0.017 J-2.746 E0.03917 F1954
G1 F1962.3 X80.275 Y18.378 E0.01959
G1 F1966.4 X79.893 Y18.107 E0.01924
G1 F1962.3 X79.555 Y17.771 E0.01962
G1 F1958.2 X79.266 Y17.358 E0.02079
G1 F1954.1 X79.08 Y16.959 E0.0182
G1 F1958.2 X78.949 Y16.461 E0.02124
G1 F1902.4 X78.895 Y16 E0.01971
G0 F3600 X78.924 Y15.752
G0 X78.262 Y16
G1 F1846.2 X78.363 Y16.029 E0.0046
G1 X78.437 Y16.115 E0.00496
G1 F1890.9 X78.521 Y16.679 E0.02436
G1 F1945.9 X78.659 Y17.141 E0.02002
G1 F1954.1 X78.857 Y17.567 E0.01942
G1 F1950 X79.11 Y17.949 E0.01898
G1 F1941.9 X79.432 Y18.309 E0.02009
G1 F1937.9 X79.785 Y18.604 E0.01918
G1 F1941.9 X80.188 Y18.851 E0.01966
G2 X81.070 Y19.154 I1.468 J-2.837 E0.03874 F1950
G1 F1945.9 X81.549 Y19.206 E0.02
G1 F1937.9 X82.016 Y19.187 E0.01948
G1 F1933.9 X82.474 Y19.101 E0.01947
G1 F1937.9 X82.921 Y18.947 E0.01971
G1 F1941.9 X83.337 Y18.734 E0.01944
G1 F1945.9 X83.727 Y18.452 E0.01998
G1 F1950 X84.051 Y18.134 E0.01881
G1 F1945.9 X84.344 Y17.752 E0.01998
G2 X84.733 Y16.911 I-2.806 J-1.808 E0.03871 F1938
G1 F1749.5 X84.908 Y16.231 E0.03242
G1 F1752.8 X86.084 Y16.23 E0.0542
G3 X86.334 Y16.480 I0.003 J0.247 E0.01588 F1950
G1 X86.334 Y18.15 E0.06918
G1 X87.274 Y18.15 E0.03894
G1 X87.274 Y17.2 E0.03935
G1 X87.374 Y17 E0.00926
G1 X87.502 Y16.95 E0.00569
G1 X89.378 Y16.955 E0.07771
G1 X89.55 Y17.094 E0.00916
G1 X89.55 Y17.306 E0.00878
G1 F1954.1 X89.285 Y17.872 E0.02584
G1 X89.701 Y18.068 E0.01901
G1 X90.158 Y17.094 E0.04448
G1 F1950 X90.236 Y16.998 E0.00512
G1 X90.362 Y16.95 E0.00559
G1 X93.779 Y16.949 E0.14155
G1 X94.224 Y16.505 E0.02604
G1 X94.341 Y16.47 E0.00506
