;FLAVOR:RepRap
;TIME:2778
;Filament used: 4.37629m
;Layer height: 0.3
;MINX:2.778
;MINY:6.8
;MINZ:0.2
;MAXX:267.222
;MAXY:283.2
;MAXZ:0.8
;TARGET_MACHINE.NAME:Unknown
;ARCWELDERPROCESSED
;Exported with Cura-DuetRRF v1.2.9 plugin by Thomas Kriechbaumer
;LINEARADVANCEPROCESSED
; Postprocessed by [ArcWelder](https://github.com/FormerLurker/ArcWelderLib)
; Copyright(C) 2021 - Brad Hochgesang
; Version: 1.2.0, Branch: HEAD, BuildDate: 2021-11-21T20:25:43Z
; resolution=0.05mm
; path_tolerance=5.0%
; max_radius=9999.00mm
; g90_influences_extruder=True
; default_xyz_precision=3
; default_e_precision=5
; extrusion_rate_variance_percent=5.0%

;Generated with Cura_SteamEngine 5.5.0
T0
M104 S220
M109 S220
M82 ;absolute extrusion mode

M83 ;relative extrusion mode
G1 F1500 E-0.3
;LAYER_COUNT:3
M572 S0.265000 D0 ;added by LinearAdvanceSettingPlugin
;LAYER:0
M107
G0 F3600 X13.636 Y8.641 Z0.2
;TYPE:SKIRT
G1 F1500 E0.49956
G3 X16.632 Y6.828 I3.680 J2.699 E0.14898 F1950
G3 X22.938 Y6.809 I3.670 J171.508 E0.26124
G3 X24.300 Y7.081 I-0.039 J3.742 E0.05778
G2 X48.446 Y11.930 I31.051 J-92.076 E1.02292
G3 X52.156 Y12.425 I-7.415 J69.724 E0.15507
G2 X64.775 Y13.270 I12.787 J-96.309 E0.52427
G2 X75.871 Y13.233 I4.097 J-435.142 E0.45965
G2 X86.942 Y12.312 I-4.386 J-119.724 E0.46040
G1 X87.94 Y12.336 E0.04135
G2 X95.889 Y13.302 I16.129 J-99.532 E0.33178
G2 X117.873 Y13.285 I10.918 J-96.100 E0.91263
G3 X127.111 Y13.270 I5.585 J594.744 E0.38272
G2 X142.792 Y13.270 I7.841 J-99.294 E0.65023
G3 X151.992 Y13.272 I4.280 J1469.990 E0.38113
G2 X175.055 Y13.207 I11.253 J-98.715 E0.95747
G2 X181.861 Y12.368 I-8.237 J-94.842 E0.28415
G3 X183.624 Y12.377 I0.853 J5.602 E0.07325
G2 X199.527 Y13.274 I13.963 J-106.131 E0.66041
G2 X206.786 Y13.252 I1.079 J-841.426 E0.30070
G2 X220.873 Y11.998 I-2.664 J-109.673 E0.58631
G2 X243.349 Y7.848 I-7.175 J-101.800 E0.94890
G1 X246.07 Y6.974 E0.11839
G1 X246.697 Y6.826 E0.02669
G3 X252.977 Y6.809 I3.607 J172.475 E0.26017
G3 X255.375 Y7.654 I-0.227 J4.470 E0.10678
G3 X256.650 Y9.072 I-2.082 J3.154 E0.07976
G2 X266.149 Y22.343 I84.489 J-50.440 E0.67682
G3 X267.196 Y24.670 I-3.560 J3.001 E0.10689
G1 X267.222 Y25.991 E0.05473
G1 X267.222 Y40.292 E0.59242
G2 X267.044 Y48.426 I162.321 J7.621 E0.33709
G3 X267.222 Y54.002 I-170.398 J8.230 E0.23111
G1 X267.222 Y68.292 E0.59196
G2 X267.044 Y76.426 I162.321 J7.621 E0.33709
G3 X267.222 Y82.002 I-170.398 J8.230 E0.23111
G1 X267.222 Y96.292 E0.59196
G2 X267.044 Y104.426 I162.321 J7.621 E0.33709
G3 X267.222 Y110.002 I-170.398 J8.230 E0.23111
G1 X267.222 Y124.292 E0.59196
G2 X267.044 Y132.426 I162.321 J7.621 E0.33709
G3 X267.222 Y138.002 I-170.398 J8.230 E0.23111
G1 X267.222 Y152.292 E0.59196
G2 X267.044 Y160.426 I162.321 J7.621 E0.33709
G3 X267.222 Y166.002 I-170.398 J8.230 E0.23111
G1 X267.222 Y180.292 E0.59196
G2 X267.044 Y188.426 I162.321 J7.621 E0.33709
G3 X267.222 Y194.002 I-170.398 J8.230 E0.23111
G1 X267.222 Y208.292 E0.59196
G2 X267.044 Y216.426 I162.321 J7.621 E0.33709
G3 X267.222 Y222.002 I-170.398 J8.230 E0.23111
G1 X267.222 Y236.292 E0.59196
G2 X267.044 Y244.426 I162.321 J7.621 E0.33709
G3 X267.222 Y250.002 I-170.398 J8.230 E0.23111
G1 X267.222 Y264.29 E0.59188
G3 X266.135 Y267.675 I-4.893 J0.296 E0.15083
G2 X257.231 Y280.001 I72.350 J61.643 E0.63055
G3 X256.060 Y281.764 I-11.810 J-6.574 E0.08772
G3 X253.368 Y283.172 I-3.377 J-3.180 E0.12803
G3 X247.062 Y283.191 I-3.670 J-171.508 E0.26124
G3 X245.700 Y282.919 I0.039 J-3.742 E0.05778
G2 X221.554 Y278.070 I-31.051 J92.076 E1.02292
G3 X217.844 Y277.575 I7.415 J-69.724 E0.15507
G2 X205.225 Y276.730 I-12.787 J96.309 E0.52427
G2 X194.129 Y276.767 I-4.097 J435.142 E0.45965
G2 X183.053 Y277.688 I4.465 J120.762 E0.46060
G3 X181.262 Y277.548 I-0.285 J-7.879 E0.07454
G2 X174.111 Y276.698 I-14.694 J93.112 E0.29839
G2 X152.127 Y276.715 I-10.918 J96.100 E0.91263
G3 X142.889 Y276.730 I-5.585 J-594.744 E0.38272
G2 X127.212 Y276.730 I-7.838 J99.244 E0.65007
G3 X118.008 Y276.728 I-4.282 J-1470.733 E0.38130
G2 X94.897 Y276.798 I-11.256 J98.777 E0.95947
G2 X88.139 Y277.632 I8.204 J94.276 E0.28215
G3 X86.376 Y277.623 I-0.853 J-5.602 E0.07325
G2 X70.473 Y276.726 I-13.963 J106.131 E0.66041
G2 X63.214 Y276.748 I-1.079 J841.426 E0.30070
G2 X49.127 Y278.002 I2.664 J109.673 E0.58631
G2 X26.651 Y282.152 I7.175 J101.800 E0.94890
G1 X23.93 Y283.026 E0.11839
G1 X23.303 Y283.174 E0.02669
G3 X17.023 Y283.191 I-3.607 J-172.475 E0.26017
G3 X14.625 Y282.346 I0.227 J-4.470 E0.10678
G3 X13.342 Y280.916 I2.104 J-3.178 E0.08037
G2 X3.850 Y267.656 I-84.227 J50.265 E0.67629
G3 X2.804 Y265.329 I3.560 J-2.999 E0.10687
G1 X2.778 Y263.963 E0.0566
G1 X2.778 Y249.708 E0.59051
G2 X2.956 Y241.574 I-162.321 J-7.621 E0.33709
G3 X2.778 Y235.986 I168.925 J-8.178 E0.23161
G1 X2.778 Y221.708 E0.59146
G2 X2.956 Y213.574 I-162.321 J-7.621 E0.33709
G3 X2.778 Y207.986 I168.925 J-8.178 E0.23161
G1 X2.778 Y193.708 E0.59146
G2 X2.956 Y185.574 I-162.321 J-7.621 E0.33709
G3 X2.778 Y179.986 I168.925 J-8.178 E0.23161
G1 X2.778 Y165.708 E0.59146
G2 X2.956 Y157.574 I-162.321 J-7.621 E0.33709
G3 X2.778 Y151.986 I168.925 J-8.178 E0.23161
G1 X2.778 Y137.708 E0.59146
G2 X2.956 Y129.574 I-162.321 J-7.621 E0.33709
G3 X2.778 Y123.986 I168.925 J-8.178 E0.23161
G1 X2.778 Y109.708 E0.59146
G2 X2.956 Y101.574 I-162.321 J-7.621 E0.33709
G3 X2.778 Y95.986 I168.925 J-8.178 E0.23161
G1 X2.778 Y81.708 E0.59146
G2 X2.956 Y73.574 I-162.321 J-7.621 E0.33709
G3 X2.778 Y67.986 I168.925 J-8.178 E0.23161
G1 X2.778 Y53.708 E0.59146
G2 X2.956 Y45.574 I-162.321 J-7.621 E0.33709
G3 X2.778 Y39.986 I168.925 J-8.178 E0.23161
G1 X2.778 Y25.711 E0.59134
G3 X3.877 Y22.310 I4.894 J-0.297 E0.15166
G2 X12.770 Y9.997 I-72.261 J-61.558 E0.62985
G1 X13.636 Y8.641 E0.06665
G1 F1500 E-0.3
;MESH:Cam_Holder_450mAh_Dipole_Rev-05_38pcs.3mf(35)
G0 F3600 X15.354 Y27.05
G0 X15.878 Y28.098
G0 X22.641 Y29.735
G0 X22.857 Y31.12
;TYPE:WALL-INNER
G1 F1500 E0.49956
G1 F1929.9 X22.862 Y31.925 E0.0337
G0 F3600 X23.197 Y32.86
G0 X23.337 Y33
G1 F1800 X25.581 Y33 E0.1007
G0 F3600 X26.653 Y31.967
G1 F1941.9 X25.629 Y32.476 E0.04757
G1 F1950 X25.459 Y32.52 E0.00727
G1 X23.514 Y32.518 E0.08057
G1 X23.3 Y32.466 E0.00912
G1 F1929.9 X22.862 Y31.925 E0.02914
G1 F1922 X22.858 Y32.859 E0.03926
G1 F1941.9 X22.813 Y33 E0.00616
G1 F1950 X22.858 Y33.239 E0.01007
G1 X22.857 Y34.2 E0.03981
G1 X23.3 Y33.534 E0.03313
G1 X23.514 Y33.482 E0.00912
G1 X25.461 Y33.48 E0.08065
G1 X25.628 Y33.525 E0.00716
G1 F1941.9 X26.653 Y34.033 E0.04759
G1 X26.326 Y33.731 E0.01852
G1 F1950 X26.125 Y33.32 E0.01895
G3 X26.225 Y32.428 I1.178 J-0.319 E0.03803
G1 F1945.9 X26.501 Y32.08 E0.01844
G1 F1937.9 X26.653 Y31.967 E0.00789
G1 F1945.9 X26.759 Y31.906 E0.00508
G3 X29.199 Y30.922 I9.260 J19.445 E0.10927
G1 F1954.1 X30.475 Y30.537 E0.0551
G1 F1950 X31.705 Y30.242 E0.0524
G1 X32.973 Y30.017 E0.05335
G1 F1954.1 X34.262 Y29.865 E0.05365
G3 X36.853 Y29.791 I1.928 J22.103 E0.10698 F1958
G1 F1962.3 X38.154 Y29.869 E0.05365
G1 F1966.4 X39.4 Y30.017 E0.05155
G3 X41.975 Y30.558 I-3.186 J21.563 E0.10814
G1 F1970.5 X43.214 Y30.936 E0.0531
G1 F1958.2 X44.346 Y31.351 E0.04974
G1 F1962.3 X45.614 Y31.906 E0.05698
G1 F1894.7 X45.882 Y32.065 E0.01329
G3 X46.792 Y33.000 I-4.357 J5.151 F3600
G1 F1800 X52.303 Y33 E0.24732
G1 F1759.4 X57.814 Y33 E0.25302
G1 F1739.8 X63.533 Y33 E0.26554
G1 F1789.7 X65.36 Y33 E0.08246
G1 F1894.7 X67.187 Y33 E0.07789
G1 F1954.1 X70.972 Y33 E0.15647
G0 F3600 X64.265 Y33.11
G0 X64.265 Y33.482
G1 F1950 X66.232 Y33.48 E0.08148
G1 X66.553 Y33.618 E0.01447
G1 X66.657 Y33.746 E0.00683
G3 X67.124 Y33.482 I0.496 J0.333 E0.02304
G1 X71.056 Y33.479 E0.16288
G1 X72.375 Y33 E0.05813
G1 X71.056 Y32.521 E0.05813
G1 X67.124 Y32.518 E0.16288
G3 X66.657 Y32.254 I-0.008 J-0.531 E0.02304
G1 X66.553 Y32.382 E0.00683
G1 X66.232 Y32.52 E0.01447
G1 X64.265 Y32.518 E0.08148
G3 X63.798 Y32.254 I-0.008 J-0.531 E0.02304
G1 X63.694 Y32.382 E0.00683
G1 X63.373 Y32.52 E0.01447
G1 X61.406 Y32.518 E0.08148
G3 X60.939 Y32.254 I-0.008 J-0.531 E0.02304
G1 X60.835 Y32.382 E0.00683
G1 X60.514 Y32.52 E0.01447
G1 X58.547 Y32.518 E0.08148
G1 X58.183 Y32.382 E0.0161
G1 X58.079 Y32.254 E0.00683
G1 X57.975 Y32.382 E0.00683
G1 X57.668 Y32.52 E0.01394
G1 X55.687 Y32.518 E0.08206
G3 X55.220 Y32.254 I-0.008 J-0.531 E0.02304
G1 X55.116 Y32.382 E0.00683
G1 X54.795 Y32.52 E0.01447
G1 X52.828 Y32.518 E0.08148
G3 X52.361 Y32.254 I-0.008 J-0.531 E0.02304
G1 X52.257 Y32.382 E0.00683
G1 X51.95 Y32.52 E0.01394
G1 X46.932 Y32.518 E0.20787
G1 X46.743 Y32.476 E0.00802
G1 F1879.5 X45.882 Y32.065 E0.041
G1 F1853.5 X46.055 Y32.267 E0.01159
G1 F1922 X46.249 Y32.681 E0.01922
G3 X46.248 Y33.319 I-1.071 J0.317 E0.02671 F1950
G1 F1922 X46.053 Y33.735 E0.01931
G1 F1849.8 X45.88 Y33.935 E0.01155
G1 F1875.8 X46.744 Y33.524 E0.0412
G1 F1950 X46.932 Y33.482 E0.00798
G1 X51.936 Y33.48 E0.20729
G1 X52.257 Y33.618 E0.01447
G1 X52.361 Y33.746 E0.00683
G3 X52.828 Y33.482 I0.496 J0.333 E0.02304
G1 X54.795 Y33.48 E0.08148
G1 X55.116 Y33.618 E0.01447
G1 X55.22 Y33.746 E0.00683
G3 X55.687 Y33.482 I0.496 J0.333 E0.02304
G1 X57.655 Y33.48 E0.08152
G1 X57.974 Y33.618 E0.0144
G1 X58.079 Y33.746 E0.00686
G1 X58.184 Y33.618 E0.00686
G1 X58.547 Y33.482 E0.01606
G1 X60.514 Y33.48 E0.08148
G1 X60.835 Y33.618 E0.01447
G1 X60.939 Y33.746 E0.00683
G3 X61.406 Y33.482 I0.496 J0.333 E0.02304
G1 X63.373 Y33.48 E0.08148
G1 X63.694 Y33.618 E0.01447
G1 X63.798 Y33.746 E0.00683
G3 X64.265 Y33.482 I0.496 J0.333 E0.02304
G1 F1500 E-0.3
G0 F3600 X64.265 Y33.11
G0 X73.03 Y33
G3 X73.674 Y30.988 I9.584 J1.959
G0 X74.409 Y30.034
G0 X75.39 Y29.331
G0 X76.531 Y28.942
G0 X77.736 Y28.9
G0 X78.901 Y29.208
G0 X79.928 Y29.84
G0 X80.729 Y30.742
G0 X82.422 Y34.2
G1 F1500 E0.49956
G1 F1950 X82.422 Y34.78 E0.02403
G0 F3600 X82.842 Y33
G1 F1752.8 X84.422 Y33 E0.07281
G1 F1879.5 X86.002 Y33 E0.06791
G1 F1954.1 X89.004 Y33 E0.1241
G0 F3600 X82.792 Y33
G0 X82.219 Y33
G1 F1950 X82.367 Y33.2 E0.01031
G1 X82.422 Y33.48 E0.01182
G1 X82.422 Y34.2 E0.02983
G1 X82.71 Y33.624 E0.02668
G3 X83.079 Y33.482 I0.423 J0.549 E0.01655
G1 X85.047 Y33.48 E0.08152
G1 X85.368 Y33.618 E0.01447
G1 X85.472 Y33.746 E0.00683
G3 X85.939 Y33.482 I0.496 J0.333 E0.02304
G1 X89.202 Y33.479 E0.13517
G1 X89.658 Y33.075 E0.02524
G1 F1941.9 X89.919 Y33 E0.0113
G1 X89.658 Y32.925 E0.0113
G1 F1950 X89.202 Y32.521 E0.02524
G1 X85.939 Y32.518 E0.13517
G3 X85.472 Y32.254 I-0.008 J-0.531 E0.02304
G1 X85.368 Y32.382 E0.00683
G1 X85.047 Y32.52 E0.01447
G1 X83.079 Y32.518 E0.08152
G3 X82.710 Y32.376 I0.054 J-0.691 E0.01655
G1 F1929.9 X82.427 Y31.925 E0.02229
G1 F1922 X82.421 Y32.633 E0.02976
G1 F1941.9 X82.367 Y32.8 E0.0073
G1 F1950 X82.219 Y33 E0.01031
G0 F3600 X82.792 Y33
G0 X82.427 Y31.925
G1 F1929.9 X82.422 Y31.22 E0.02951
G0 F3600 X82.624 Y32.318
G0 X89.201 Y33
G0 X89.919 Y33
G1 F1941.9 X107.702 Y33 E0.73973
G0 F3600 X108.482 Y33
G0 X108.762 Y33
G1 F1650.8 X110.382 Y33 E0.07927
G1 F1838.9 X112.002 Y33 E0.07116
G1 F1950 X120.47 Y33 E0.35079
G0 F3600 X108.482 Y33
G0 X107.702 Y33
G1 F1950 X108.025 Y33.075 E0.01374
G3 X108.670 Y33.667 I-1.523 J2.307 E0.03635
G3 X109.079 Y33.482 I0.460 J0.472 E0.01885
G1 X111.047 Y33.48 E0.08152
G1 X111.368 Y33.618 E0.01447
G1 X111.472 Y33.746 E0.00683
G3 X111.939 Y33.482 I0.496 J0.333 E0.02304
G1 X113.907 Y33.48 E0.08152
G1 X114.226 Y33.618 E0.0144
G1 X114.331 Y33.746 E0.00686
G1 X114.436 Y33.618 E0.00686
G1 X114.799 Y33.482 E0.01606
G1 X116.766 Y33.48 E0.08148
G1 X117.087 Y33.618 E0.01447
G1 X117.191 Y33.746 E0.00683
G3 X117.658 Y33.482 I0.496 J0.333 E0.02304
G1 X120.554 Y33.48 E0.11997
G1 X121.873 Y33 E0.05814
G1 X120.554 Y32.52 E0.05814
G1 X117.658 Y32.518 E0.11997
G3 X117.191 Y32.254 I-0.008 J-0.531 E0.02304
G1 X117.087 Y32.382 E0.00683
G1 X116.766 Y32.52 E0.01447
G1 X114.799 Y32.518 E0.08148
G1 X114.435 Y32.382 E0.0161
G1 X114.331 Y32.254 E0.00683
G1 X114.227 Y32.382 E0.00683
G1 X113.92 Y32.52 E0.01394
G1 X111.939 Y32.518 E0.08206
G3 X111.472 Y32.254 I-0.008 J-0.531 E0.02304
G1 X111.368 Y32.382 E0.00683
G1 X111.047 Y32.52 E0.01447
G1 X109.079 Y32.518 E0.08152
G3 X108.670 Y32.333 I0.051 J-0.657 E0.01885
G3 X108.025 Y32.925 I-2.168 J-1.715 E0.03635
G1 X107.702 Y33 E0.01374
G1 F1500 E-0.3
G0 F3600 X108.482 Y33
G0 X82.212 Y33.252
G0 X81.071 Y34.509
G0 X80.362 Y35.738
G0 X79.438 Y36.515
G0 X78.33 Y36.989
G0 X77.132 Y37.123
G0 X75.946 Y36.905
G0 X74.873 Y36.354
G0 X74.007 Y35.516
G0 X73.47 Y34.502
G0 X73.03 Y33
G0 X46.58 Y33.252
G0 X45.88 Y33.935
G1 F1500 E0.49956
G1 F1887.1 X45.614 Y34.094 E0.01327
G1 F1958.2 X44.345 Y34.649 E0.05714
G3 X41.897 Y35.463 I-8.192 J-20.547 E0.10691 F1950
G1 F1945.9 X40.668 Y35.758 E0.05247
G1 F1954.1 X39.4 Y35.983 E0.05324
G1 F1958.2 X38.107 Y36.136 E0.05371
G1 F1954.1 X36.811 Y36.211 E0.05366
G1 X35.519 Y36.209 E0.05341
G1 F1958.2 X34.266 Y36.136 E0.05178
G3 X29.199 Y35.078 I1.936 J-21.934 E0.21445 F1954
G3 X26.759 Y34.094 I6.820 J-20.429 E0.10904 F1950
G1 F1945.9 X26.653 Y34.033 E0.00508
G0 F3600 X25.503 Y33.672
G0 X23.059 Y33.682
G0 X22.857 Y34.2
G1 F1950 X22.857 Y34.88 E0.02817
G1 F1500 E-0.3
G0 F3600 X22.647 Y33
G0 X21.344 Y33
G0 X19.285 Y33
G1 F1500 E0.49956
G1 F1950 X14.174 Y33 E0.21172
G0 F3600 X19.803 Y33
G0 X20.687 Y33
G1 F1950 X19.369 Y32.52 E0.05811
G1 X16.735 Y32.518 E0.10911
G3 X16.268 Y32.254 I-0.008 J-0.531 E0.02304
G1 X16.164 Y32.382 E0.00683
G1 X15.844 Y32.52 E0.01444
G1 X13.938 Y32.52 E0.07896
G1 X13.694 Y32.315 E0.0132
G1 X13.694 Y33.724 E0.05837
G1 X13.938 Y33.48 E0.01429
G1 X15.844 Y33.48 E0.07896
G1 X16.164 Y33.618 E0.01444
G1 X16.268 Y33.746 E0.00683
G3 X16.735 Y33.482 I0.496 J0.333 E0.02304
G1 X19.369 Y33.48 E0.10911
G1 X20.687 Y33 E0.05811
G1 F1500 E-0.3
G0 F3600 X19.803 Y33
G0 X21.344 Y33
G0 X22.647 Y33
G0 X22.05 Y33
;TYPE:WALL-OUTER
G1 F1500 E0.49956
G1 F1950 X19.452 Y32.05 E0.11459
G1 X16.776 Y32.05 E0.11085
G3 X16.571 Y31.906 I0.024 J-0.252 E0.01074
G1 X16.069 Y30.833 E0.04907
G1 X15.654 Y31.028 E0.01899
G1 F1945.9 X15.981 Y31.733 E0.03226
G1 X15.964 Y31.906 E0.00722
G1 F1950 X15.792 Y32.045 E0.00916
G1 X13.938 Y32.05 E0.0768
G1 F1937.9 X13.688 Y31.844 E0.0135
G1 F1933.9 X13.687 Y25.226 E0.27643
G1 F1950 X13.614 Y24.855 E0.01566
G1 F1945.9 X13.414 Y24.563 E0.01469
G1 F1954.1 X13.114 Y24.355 E0.01509
G1 F1962.3 X12.892 Y24.29 E0.00952
G1 F1945.9 X7.062 Y24.291 E0.24201
G1 F1958.2 X6.842 Y24.353 E0.00943
G1 F1950 X6.54 Y24.563 E0.01524
G1 F1941.9 X6.334 Y24.864 E0.01517
G1 F1950 X6.269 Y25.086 E0.00958
G1 F1941.9 X6.269 Y40.914 E0.6584
G1 F1950 X6.335 Y41.136 E0.00959
G1 F1937.9 X6.541 Y41.437 E0.0152
G1 F1950 X6.842 Y41.646 E0.01518
G1 F1962.3 X7.062 Y41.71 E0.00943
G1 F1945.9 X12.892 Y41.709 E0.24201
G1 X13.113 Y41.643 E0.00957
G1 F1966.4 X13.419 Y41.441 E0.01506
G1 F1970.5 X13.615 Y41.145 E0.01455
G1 F1954.1 X13.687 Y40.774 E0.01562
G1 F1941.9 X13.687 Y34.2 E0.27346
G1 F1945.9 X13.938 Y33.95 E0.01471
G1 F1950 X15.792 Y33.955 E0.0768
G1 F1954.1 X15.964 Y34.094 E0.00914
G1 X15.964 Y34.306 E0.00876
G1 X15.653 Y34.972 E0.03039
G1 X16.069 Y35.167 E0.01899
G1 X16.572 Y34.094 E0.04899
G1 X16.65 Y33.998 E0.00511
G1 F1950 X16.776 Y33.95 E0.00559
G1 X19.452 Y33.95 E0.11085
G1 X22.05 Y33 E0.11459
G0 F3600 X21.816 Y32.915
G1 F1500 E-0.3
G0 F3600 X21.264 Y33
G0 X13.478 Y32.304
G0 X12.309 Y32.304
G0 X12.321 Y25.653
G0 X13.221 Y25.078
G1 F1500 E0.49956
G1 F1991.5 X13.225 Y40.856 E0.63998
G1 F1995.7 X13.1 Y41.113 E0.01157
G1 F1974.7 X12.848 Y41.246 E0.01166
G1 F1954.1 X7.106 Y41.25 E0.23737
G1 F1970.5 X6.982 Y41.204 E0.00542
G1 X6.73 Y40.913 E0.01578
G1 F1954.1 X6.731 Y25.085 E0.65431
G1 F1962.3 X6.941 Y24.825 E0.01376
G1 F1958.2 X7.104 Y24.753 E0.00735
G1 F1945.9 X12.847 Y24.75 E0.2384
G1 F1970.5 X13.007 Y24.821 E0.00718
G1 F1987.3 X13.221 Y25.078 E0.01359
G0 F3600 X13.221 Y25.328
G1 F1500 E-0.3
G0 F3600 X14.603 Y25.328
G0 X15.499 Y27.531
G0 X16.447 Y28.479
G0 X30.076 Y29.21
G0 X30.415 Y30.333
G0 X35.544 Y29.98
G0 X38.111 Y30.056
G0 X40.654 Y30.433
G0 X43.132 Y31.108
G0 X45.553 Y32.087
G0 X46.654 Y33.158
G0 X45.825 Y33
G1 F1500 E0.49956
G3 X45.403 Y33.676 I-0.780 J-0.017 E0.03448 F1950
G3 X26.970 Y33.676 I-9.216 J-19.436 E0.78900
G3 X26.982 Y32.318 I0.331 J-0.676 E0.06955
G3 X45.404 Y32.323 I9.206 J19.451 E0.78847
