;FLAVOR:RepRap
;TIME:3296
;Filament used: 5.15203m
;Layer height: 0.3
;MINX:7.624
;MINY:6.3
;MINZ:0.2
;MAXX:262.376
;MAXY:283.7
;MAXZ:0.8
;TARGET_MACHINE.NAME:Unknown
;ARCWELDERPROCESSED
;Exported with Cura-DuetRRF v1.2.10 plugin by Thomas Kriechbaumer
;LINEARADVANCEPROCESSED
; Postprocessed by [ArcWelder](https://github.com/FormerLurker/ArcWelderLib)
; Copyright(C) 2021 - Brad Hochgesang
; Version: 1.2.0, Branch: HEAD, BuildDate: 2021-11-21T20:25:43Z
; resolution=0.05mm
; path_tolerance=5.0%
; max_radius=9999.00mm
; g90_influences_extruder=True
; default_xyz_precision=3
; default_e_precision=5
; extrusion_rate_variance_percent=5.0%

;Generated with Cura_SteamEngine 5.7.0
T0
M104 S220
M109 S220
M82 ;absolute extrusion mode

M83 ;relative extrusion mode
G1 F1500 E-0.3
;LAYER_COUNT:3
M572 S0.165000 D0 ;added by LinearAdvanceSettingPlugin
;LAYER:0
M107
G0 F3600 X8.565 Y8.058 Z0.2
;TYPE:SKIRT
G1 F1500 E0.49956
G3 X11.821 Y6.320 I3.499 J2.636 E0.15449 F1950
G3 X17.352 Y6.310 I3.037 J150.235 E0.22464
G3 X19.306 Y6.665 I-0.832 J10.137 E0.08074
G2 X41.192 Y8.839 I20.577 J-95.904 E0.89509
G3 X47.191 Y9.530 I-2.462 J47.757 E0.24545
G2 X59.776 Y10.371 I12.747 J-96.169 E0.51263
G2 X69.716 Y10.327 I3.464 J-340.307 E0.40372
G2 X81.326 Y9.312 I-4.224 J-115.229 E0.47355
G1 X82.306 Y9.336 E0.03981
G2 X109.599 Y10.361 I17.394 J-99.262 E1.11261
G1 X118.785 Y10.371 E0.37309
G2 X151.000 Y10.407 I16.215 J-95.831 E1.31441
G1 X151.485 Y10.37 E0.01976
G3 X160.610 Y10.371 I4.504 J536.782 E0.37063
G2 X187.482 Y9.373 I9.777 J-99.010 E1.09544
G3 X189.265 Y9.376 I0.882 J5.394 E0.07265
G2 X205.112 Y10.373 I14.196 J-99.194 E0.64553
G2 X215.622 Y10.206 I2.383 J-180.832 E0.42700
G2 X226.525 Y8.998 I-7.756 J-119.808 E0.44572
G3 X231.682 Y8.825 I3.911 J39.647 E0.20971
G2 X252.007 Y6.389 I-1.287 J-96.752 E0.83292
G3 X253.744 Y6.300 I1.355 J9.458 E0.07070
G3 X258.136 Y6.309 I1.860 J163.728 E0.17838
G3 X260.531 Y7.158 I-0.216 J4.411 E0.10465
G3 X261.737 Y8.468 I-2.095 J3.139 E0.07296
G1 X261.985 Y8.913 E0.02069
G1 X262.276 Y9.809 E0.03826
G3 X262.376 Y11.349 I-8.242 J1.308 E0.06274
G1 X262.376 Y20.629 E0.3769
G2 X262.376 Y33.375 I141.640 J6.373 E0.51791
G1 X262.376 Y42.639 E0.37625
G2 X262.262 Y53.545 I138.494 J6.901 E0.44314
G3 X262.376 Y56.374 I-39.196 J2.996 E0.11500
G1 X262.376 Y65.629 E0.37589
G2 X262.376 Y78.375 I128.936 J6.373 E0.51789
G1 X262.376 Y87.639 E0.37625
G2 X262.262 Y98.545 I138.494 J6.901 E0.44314
G3 X262.376 Y101.374 I-39.196 J2.996 E0.11500
G1 X262.376 Y110.629 E0.37589
G2 X262.376 Y123.375 I128.936 J6.373 E0.51789
G1 X262.376 Y132.639 E0.37625
G2 X262.262 Y143.545 I138.494 J6.901 E0.44314
G3 X262.376 Y146.374 I-39.196 J2.996 E0.11500
G1 X262.376 Y155.629 E0.37589
G2 X262.376 Y168.375 I128.936 J6.373 E0.51789
G1 X262.376 Y177.639 E0.37625
G3 X262.251 Y180.596 I-52.268 J-0.728 E0.12022
G2 X262.316 Y190.235 I98.420 J4.156 E0.39164
G1 X262.341 Y191.51 E0.05179
G1 X262.341 Y200.792 E0.37698
G2 X262.192 Y208.460 I210.615 J7.928 E0.31153
G3 X262.341 Y213.511 I-178.973 J7.807 E0.20523
G1 X262.341 Y222.792 E0.37694
G2 X262.163 Y230.928 I162.329 J7.621 E0.33059
G3 X262.341 Y236.510 I-180.645 J8.554 E0.22684
G1 X262.341 Y245.792 E0.37698
G2 X262.192 Y253.460 I210.615 J7.928 E0.31153
G3 X262.341 Y258.511 I-178.973 J7.807 E0.20523
G1 X262.341 Y267.783 E0.37658
G3 X261.267 Y271.148 I-4.822 J0.315 E0.14695
G2 X252.545 Y281.805 I69.868 J66.079 E0.55979
G3 X249.890 Y283.587 I-3.839 J-2.851 E0.13250
G3 X248.130 Y283.700 I-1.387 J-7.839 E0.07173
G3 X243.648 Y283.690 I-1.891 J-157.099 E0.18203
G3 X241.694 Y283.335 I0.832 J-10.137 E0.08074
G2 X219.808 Y281.161 I-20.577 J95.904 E0.89509
G3 X213.809 Y280.470 I2.462 J-47.757 E0.24545
G2 X201.224 Y279.629 I-12.747 J96.169 E0.51263
G2 X191.284 Y279.673 I-3.464 J340.307 E0.40372
G2 X179.674 Y280.688 I4.224 J115.229 E0.47355
G1 X178.694 Y280.664 E0.03981
G2 X151.402 Y279.639 I-17.393 J99.256 E1.11257
G1 X142.459 Y279.63 E0.36322
G2 X127.512 Y279.630 I-7.473 J100.980 E0.60759
G3 X118.390 Y279.629 I-4.502 J-536.562 E0.37051
G2 X91.518 Y280.627 I-9.777 J99.010 E1.09544
G3 X89.735 Y280.624 I-0.882 J-5.394 E0.07265
G2 X73.888 Y279.627 I-14.196 J99.194 E0.64553
G2 X63.378 Y279.794 I-2.383 J180.832 E0.42700
G2 X52.475 Y281.002 I7.756 J119.808 E0.44572
G3 X47.318 Y281.175 I-3.911 J-39.647 E0.20971
G2 X26.993 Y283.611 I1.287 J96.752 E0.83292
G3 X25.256 Y283.700 I-1.355 J-9.458 E0.07070
G3 X20.864 Y283.691 I-1.861 J-163.729 E0.17838
G3 X18.467 Y282.840 I0.215 J-4.407 E0.10476
G3 X17.584 Y282.009 I1.750 J-2.744 E0.04946
G2 X8.826 Y271.305 I-81.519 J57.763 E0.56215
G3 X7.634 Y268.347 I3.202 J-3.009 E0.13234
G1 X7.624 Y267.626 E0.02929
G1 X7.624 Y258.361 E0.37629
G2 X7.624 Y245.626 I-141.146 J-6.368 E0.51745
G1 X7.624 Y236.361 E0.37629
G2 X7.738 Y225.455 I-138.494 J-6.901 E0.44314
G3 X7.624 Y222.627 I39.957 J-3.027 E0.11496
G1 X7.624 Y213.361 E0.37634
G2 X7.624 Y200.626 I-128.753 J-6.368 E0.51744
G1 X7.624 Y191.361 E0.37629
G3 X7.749 Y188.404 I52.268 J0.728 E0.12022
G2 X7.684 Y178.765 I-98.420 J-4.156 E0.39164
G1 X7.659 Y177.49 E0.05179
G1 X7.659 Y168.209 E0.37694
G2 X7.808 Y160.540 I-210.817 J-7.932 E0.31156
G3 X7.659 Y155.489 I178.973 J-7.807 E0.20523
G1 X7.659 Y146.208 E0.37694
G2 X7.837 Y138.072 I-162.329 J-7.621 E0.33059
G3 X7.659 Y132.490 I180.645 J-8.554 E0.22684
G1 X7.659 Y123.209 E0.37694
G2 X7.808 Y115.540 I-210.817 J-7.932 E0.31156
G3 X7.659 Y110.489 I178.973 J-7.807 E0.20523
G1 X7.659 Y101.208 E0.37694
G2 X7.837 Y93.072 I-162.329 J-7.621 E0.33059
G3 X7.659 Y87.490 I180.645 J-8.554 E0.22684
G1 X7.659 Y78.209 E0.37694
G2 X7.808 Y70.540 I-210.817 J-7.932 E0.31156
G3 X7.659 Y65.489 I178.973 J-7.807 E0.20523
G1 X7.659 Y56.208 E0.37694
G2 X7.837 Y48.072 I-162.329 J-7.621 E0.33059
G3 X7.659 Y42.490 I180.645 J-8.554 E0.22684
G1 X7.659 Y33.209 E0.37694
G2 X7.808 Y25.540 I-210.817 J-7.932 E0.31156
G3 X7.659 Y20.489 I178.973 J-7.807 E0.20523
G1 X7.659 Y11.203 E0.37715
G3 X8.565 Y8.058 I4.880 J-0.297 E0.13560
G1 F1500 E-0.3
;MESH:Cam_Holder_300mAh_Dipole_Rev-04_48pcs.3mf(4)
G0 F3600 X17.861 Y15.304
G0 X18.554 Y16
;TYPE:WALL-INNER
G1 F1500 E0.49956
G1 F1945.9 X23.664 Y16 E0.20797
G0 F3600 X25.066 Y15.999
G1 F1950 X23.748 Y15.52 E0.05696
G1 X21.113 Y15.518 E0.10702
G1 X20.75 Y15.381 E0.01576
G1 X20.646 Y15.254 E0.00667
G1 X20.542 Y15.381 E0.00667
G1 X20.224 Y15.52 E0.0141
G1 X18.316 Y15.52 E0.07749
G1 X18.074 Y15.317 E0.01283
G1 X18.074 Y16.722 E0.05706
G1 X18.316 Y16.48 E0.0139
G1 X20.224 Y16.48 E0.07749
G1 X20.542 Y16.618 E0.01408
G1 X20.646 Y16.746 E0.0067
G1 X20.75 Y16.618 E0.0067
G1 X21.113 Y16.482 E0.01574
G1 X23.748 Y16.48 E0.10702
G1 X25.066 Y15.999 E0.05698
G1 F1500 E-0.3
G0 F3600 X24.184 Y16
G0 X25.726 Y16
G0 X27.029 Y16
G0 X27.241 Y14.925
G1 F1500 E0.49956
G1 F1925.9 X27.236 Y14.12 E0.0331
G0 F3600 X27.42 Y15.198
G0 X27.717 Y16
G1 F1789.7 X29.968 Y16 E0.09961
G0 F3600 X30.889 Y16.954
G1 F1898.6 X30.662 Y16.66 E0.01549
G1 F1933.9 X30.481 Y16.241 E0.01869
G1 F1950 X30.497 Y15.733 E0.02064
G1 X30.601 Y15.433 E0.0129
G1 F1883.3 X30.885 Y15.055 E0.01988
G1 F1853.5 X29.922 Y15.52 E0.04569
G1 F1918 X27.893 Y15.518 E0.08378
G1 F1950 X27.679 Y15.465 E0.00895
G1 F1925.9 X27.241 Y14.925 E0.02859
G1 F1914.1 X27.235 Y15.863 E0.03881
G1 F1937.9 X27.192 Y15.999 E0.00583
G1 F1950 X27.236 Y16.138 E0.00592
G1 X27.236 Y17.2 E0.04313
G1 X27.681 Y16.534 E0.03253
G1 X27.893 Y16.482 E0.00887
G1 X29.848 Y16.48 E0.0794
G1 X30.08 Y16.556 E0.00992
G1 F1914.1 X30.889 Y16.954 E0.0373
G0 F3600 X30.874 Y16.935
G1 F1883.3 X31.143 Y17.094 E0.01314
G1 F1954.1 X32.407 Y17.647 E0.05592
G1 F1945.9 X33.627 Y18.092 E0.05285
G2 X36.063 Y18.752 I7.201 J-21.752 E0.10255 F1950
G1 F1958.2 X37.355 Y18.982 E0.05308
G1 F1962.3 X38.647 Y19.135 E0.05251
G1 F1954.1 X39.899 Y19.207 E0.05083
G1 F1950 X41.192 Y19.208 E0.05251
G2 X43.768 Y18.984 I-0.553 J-21.285 E0.10507
G2 X46.276 Y18.461 I-2.902 J-20.190 E0.10432 F1946
G1 F1941.9 X47.509 Y18.091 E0.0525
G1 F1945.9 X48.725 Y17.648 E0.05267
G1 F1954.1 X49.883 Y17.144 E0.05119
G1 F1941.9 X50.097 Y17.034 E0.00981
G0 F3600 X51.173 Y16
G1 F1800 X56.683 Y16 E0.24244
G1 F1759.4 X62.193 Y16 E0.24803
G1 F1739.8 X67.913 Y16 E0.26039
G1 F1789.7 X69.741 Y16 E0.08089
G1 F1894.7 X71.569 Y16 E0.07641
G1 F1950 X75.353 Y16 E0.15369
G0 F3600 X67.756 Y16.11
G0 X67.756 Y16.48
G1 F1950 X68.074 Y16.618 E0.01408
G1 X68.178 Y16.746 E0.0067
G1 X68.282 Y16.618 E0.0067
G1 X68.645 Y16.482 E0.01574
G1 X70.616 Y16.48 E0.08005
G1 X70.933 Y16.618 E0.01404
G1 X71.038 Y16.746 E0.00672
G1 X71.143 Y16.618 E0.00672
G1 X71.505 Y16.482 E0.01571
G1 X75.437 Y16.48 E0.1597
G1 X76.756 Y16 E0.05701
G1 X75.437 Y15.52 E0.05701
G1 X71.505 Y15.518 E0.1597
G1 X71.142 Y15.382 E0.01574
G1 X71.038 Y15.254 E0.0067
G1 X70.934 Y15.382 E0.0067
G1 X70.628 Y15.52 E0.01363
G1 X68.645 Y15.518 E0.08054
G1 X68.282 Y15.381 E0.01576
G1 X68.178 Y15.254 E0.00667
G1 X68.074 Y15.381 E0.00667
G1 X67.756 Y15.52 E0.0141
G1 X65.785 Y15.518 E0.08005
G1 X65.422 Y15.381 E0.01576
G1 X65.318 Y15.254 E0.00667
G1 X65.214 Y15.381 E0.00667
G1 X64.896 Y15.52 E0.0141
G1 X62.925 Y15.518 E0.08005
G1 X62.562 Y15.381 E0.01576
G1 X62.458 Y15.254 E0.00667
G1 X62.354 Y15.381 E0.00667
G1 X62.036 Y15.52 E0.0141
G1 X60.069 Y15.518 E0.07989
G1 X59.705 Y15.381 E0.0158
G1 X59.6 Y15.252 E0.00676
G1 X59.495 Y15.381 E0.00676
G1 X59.175 Y15.52 E0.01417
G1 X57.209 Y15.518 E0.07985
G1 X56.845 Y15.381 E0.0158
G1 X56.74 Y15.252 E0.00676
G1 X56.635 Y15.381 E0.00676
G1 X56.329 Y15.52 E0.01365
G1 X51.313 Y15.518 E0.20372
G1 X51.121 Y15.474 E0.008
G1 F1883.3 X50.261 Y15.063 E0.04008
G1 F1860.8 X50.437 Y15.27 E0.01156
G1 F1925.9 X50.627 Y15.677 E0.01847
G3 X50.427 Y16.730 I-1.171 J0.323 E0.04496 F1950
G1 F1941.9 X50.097 Y17.034 E0.0183
G1 X51.121 Y16.526 E0.04662
G1 F1950 X51.313 Y16.482 E0.008
G1 X56.316 Y16.48 E0.20319
G1 X56.635 Y16.619 E0.01413
G1 X56.74 Y16.748 E0.00676
G1 X56.845 Y16.619 E0.00676
G1 X57.209 Y16.482 E0.0158
G1 X59.175 Y16.48 E0.07985
G1 X59.495 Y16.619 E0.01417
G1 X59.6 Y16.748 E0.00676
G1 X59.705 Y16.619 E0.00676
G1 X60.069 Y16.482 E0.0158
G1 X62.036 Y16.48 E0.07989
G1 X62.354 Y16.618 E0.01408
G1 X62.458 Y16.746 E0.0067
G1 X62.562 Y16.618 E0.0067
G1 X62.925 Y16.482 E0.01574
G1 X64.896 Y16.48 E0.08005
G1 X65.214 Y16.618 E0.01408
G1 X65.318 Y16.746 E0.0067
G1 X65.422 Y16.618 E0.0067
G1 X65.785 Y16.482 E0.01574
G1 X67.756 Y16.48 E0.08005
G0 F3600 X67.756 Y16.11
G0 X51.132 Y15.828
G0 X50.261 Y15.063
G1 F1887.1 X49.991 Y14.906 E0.01311
G2 X47.501 Y13.903 I-9.111 J19.026 E0.10908 F1950
G1 F1966.4 X46.357 Y13.557 E0.04814
G1 F1970.5 X45.069 Y13.244 E0.05327
G2 X42.535 Y12.866 I-4.704 J22.850 E0.10387 F1954
G1 F1962.3 X41.233 Y12.789 E0.05264
G1 F1954.1 X39.94 Y12.788 E0.05241
G1 X38.643 Y12.862 E0.05265
G1 F1945.9 X37.366 Y13.014 E0.05234
G1 F1941.9 X36.063 Y13.244 E0.05396
G1 F1945.9 X34.856 Y13.535 E0.05053
G1 F1941.9 X33.627 Y13.904 E0.05233
G1 F1937.9 X32.408 Y14.351 E0.05306
G1 F1950 X31.14 Y14.907 E0.05623
G1 F1890.9 X30.885 Y15.055 E0.01235
G0 F3600 X30.178 Y15.751
G0 X27.441 Y16.682
G0 X27.236 Y17.2
G1 F1950 X27.236 Y17.88 E0.02762
G1 F1500 E-0.3
G0 F3600 X27.441 Y16.682
G0 X29.885 Y16.672
G0 X34.851 Y18.266
G0 X37.367 Y18.793
G0 X39.926 Y19.02
G0 X42.493 Y18.944
G0 X45.034 Y18.567
G0 X47.042 Y18.02
G0 X51.256 Y16.691
G0 X51.535 Y17.863
G0 X57.027 Y19.268
G0 X81.513 Y20.123
G0 X82.711 Y19.989
G0 X83.82 Y19.515
G0 X84.743 Y18.738
G0 X85.277 Y17.958
G0 X86.804 Y17.68
G1 F1500 E0.49956
G1 F1950 X86.804 Y17.2 E0.0195
G0 F3600 X87.224 Y16
G1 F1749.5 X88.804 Y16 E0.07152
G1 F1879.5 X90.384 Y16 E0.06658
G1 F1950 X93.383 Y16 E0.1218
G0 F3600 X87.174 Y16
G0 X86.601 Y16
G1 F1950 X86.748 Y16.2 E0.01008
G1 X86.804 Y16.48 E0.0116
G1 X86.804 Y17.2 E0.02924
G1 X87.092 Y16.624 E0.02616
G3 X87.461 Y16.482 I0.432 J0.571 E0.01622
G1 X89.427 Y16.48 E0.07985
G1 X89.747 Y16.619 E0.01417
G1 X89.852 Y16.748 E0.00676
G1 X89.957 Y16.619 E0.00676
G1 X90.321 Y16.482 E0.0158
G1 X93.581 Y16.48 E0.1324
G1 F1945.9 X94.037 Y16.075 E0.02482
G1 F1933.9 X94.298 Y16 E0.01112
G1 X94.037 Y15.925 E0.01112
G1 F1945.9 X93.581 Y15.52 E0.02482
G1 F1950 X90.321 Y15.518 E0.1324
G1 X89.957 Y15.381 E0.0158
G1 X89.852 Y15.252 E0.00676
G1 X89.747 Y15.381 E0.00676
G1 X89.427 Y15.52 E0.01417
G1 X87.461 Y15.518 E0.07985
G3 X87.092 Y15.376 I0.063 J-0.713 E0.01622
G1 F1925.9 X86.809 Y14.925 E0.0219
G1 F1914.1 X86.803 Y15.629 E0.02913
G1 F1937.9 X86.748 Y15.8 E0.00734
G1 F1950 X86.601 Y16 E0.01008
G0 F3600 X87.174 Y16
G0 X86.809 Y14.925
G1 F1925.9 X86.804 Y14.32 E0.02488
G0 F3600 X87.006 Y15.318
G0 X93.583 Y16
G0 X94.298 Y16
G1 F1937.9 X109.084 Y16 E0.60428
G0 F3600 X109.864 Y16
G0 X110.144 Y16
G1 F1647.9 X111.764 Y16 E0.07786
G1 F1838.9 X113.384 Y16 E0.06977
G1 F1950 X121.624 Y16 E0.33466
G0 F3600 X109.864 Y16
G0 X109.084 Y16
G1 F1950 X109.406 Y16.076 E0.01344
G3 X110.052 Y16.669 I-1.433 J2.210 E0.03572
G3 X110.461 Y16.482 I0.458 J0.461 E0.01853
G1 X112.427 Y16.48 E0.07985
G1 X112.747 Y16.619 E0.01417
G1 X112.852 Y16.748 E0.00676
G1 X112.957 Y16.619 E0.00676
G1 X113.321 Y16.482 E0.0158
G1 X115.288 Y16.48 E0.07989
G1 X115.606 Y16.618 E0.01408
G1 X115.71 Y16.746 E0.0067
G1 X115.814 Y16.618 E0.0067
G1 X116.177 Y16.482 E0.01574
G1 X118.148 Y16.48 E0.08005
G1 X118.466 Y16.618 E0.01408
G1 X118.57 Y16.746 E0.0067
G1 X118.674 Y16.618 E0.0067
G1 X119.037 Y16.482 E0.01574
G1 X121.708 Y16.48 E0.10848
G1 X123.027 Y16 E0.05701
G1 X121.708 Y15.52 E0.05701
G1 X119.037 Y15.518 E0.10848
G1 X118.674 Y15.381 E0.01576
G1 X118.57 Y15.254 E0.00667
G1 X118.466 Y15.381 E0.00667
G1 X118.148 Y15.52 E0.0141
G1 X116.177 Y15.518 E0.08005
G1 X115.814 Y15.381 E0.01576
G1 X115.71 Y15.254 E0.00667
G1 X115.606 Y15.381 E0.00667
G1 X115.288 Y15.52 E0.0141
G1 X113.321 Y15.518 E0.07989
G1 X112.957 Y15.381 E0.0158
G1 X112.852 Y15.252 E0.00676
G1 X112.747 Y15.381 E0.00676
G1 X112.427 Y15.52 E0.01417
G1 X110.461 Y15.518 E0.07985
G3 X110.052 Y15.331 I0.049 J-0.648 E0.01853
G3 X109.406 Y15.924 I-2.079 J-1.617 E0.03572
G1 X109.084 Y16 E0.01344
G1 F1500 E-0.3
G0 F3600 X109.864 Y16
G0 X86.594 Y16
G0 X78.893 Y16
;TYPE:WALL-OUTER
G1 F1500 E0.49956
G1 F1902.4 X78.954 Y15.497 E0.02109
G1 F1954.1 X79.079 Y15.036 E0.01936
G3 X79.535 Y14.249 I2.620 J0.992 E0.03699
G1 F1958.2 X79.892 Y13.892 E0.02042
G1 F1962.3 X80.3 Y13.606 E0.02011
G1 F1958.2 X80.74 Y13.406 E0.01955
G1 F1945.9 X81.161 Y13.295 E0.01772
G1 F1950 X81.679 Y13.252 E0.02111
G1 F1958.2 X82.16 Y13.299 E0.01955
G1 F1962.3 X82.612 Y13.422 E0.01891
G1 F1966.4 X83.021 Y13.61 E0.01813
G3 X83.747 Y14.215 I-1.393 J2.409 E0.03836 F1958
G1 F1966.4 X84.038 Y14.628 E0.02035
G1 F1962.3 X84.244 Y15.079 E0.02001
G1 F1756.1 X84.46 Y16 E0.04266
G1 F1671.4 X84.29 Y16.827 E0.04001
G1 F1860.8 X84.037 Y17.372 E0.02557
G1 F1974.7 X83.769 Y17.755 E0.01875
G1 F1962.3 X83.425 Y18.104 E0.01978
G1 F1954.1 X83.052 Y18.368 E0.01852
G1 F1962.3 X82.574 Y18.588 E0.02124
G1 F1966.4 X82.162 Y18.7 E0.0172
G1 X81.666 Y18.744 E0.02006
G1 F1962.3 X81.15 Y18.701 E0.0209
G1 F1950 X80.765 Y18.598 E0.01619
G1 F1958.2 X80.3 Y18.39 E0.0206
G3 X79.555 Y17.770 I1.372 J-2.407 E0.03919 F1966
G1 F1958.2 X79.265 Y17.358 E0.02038
G1 F1954.1 X79.078 Y16.959 E0.01786
G1 X78.954 Y16.5 E0.01927
G1 F1898.6 X78.893 Y16 E0.02101
G0 F3600 X78.923 Y15.752
G0 X78.259 Y16
G1 F1849.8 X78.362 Y16.029 E0.00458
G1 X78.436 Y16.115 E0.00486
G1 F1890.9 X78.519 Y16.677 E0.02379
G1 F1945.9 X78.658 Y17.138 E0.0196
G1 F1954.1 X78.856 Y17.567 E0.01915
G1 F1945.9 X79.108 Y17.945 E0.01849
G1 F1941.9 X79.432 Y18.307 E0.01981
G1 F1937.9 X79.784 Y18.602 E0.01877
G1 F1941.9 X80.187 Y18.849 E0.01928
G1 F1945.9 X80.63 Y19.038 E0.0196
G1 F1950 X81.07 Y19.154 E0.01848
G1 F1945.9 X81.549 Y19.204 E0.0196
G1 F1937.9 X82.015 Y19.185 E0.01906
G1 F1933.9 X82.471 Y19.099 E0.019
G1 F1937.9 X82.935 Y18.938 E0.02007
G1 F1941.9 X83.336 Y18.733 E0.01837
G1 F1950 X83.726 Y18.453 E0.0195
G1 X84.048 Y18.134 E0.01841
G1 F1945.9 X84.341 Y17.75 E0.01966
G1 F1937.9 X84.57 Y17.334 E0.01941
G1 F1933.9 X84.729 Y16.908 E0.01862
G1 F1746.3 X84.908 Y16.231 E0.03176
G1 F1752.8 X86.084 Y16.23 E0.05314
G3 X86.334 Y16.480 I0.003 J0.247 E0.01557 F1950
G1 X86.334 Y18.15 E0.06783
G1 X87.274 Y18.15 E0.03818
G1 X87.274 Y17.2 E0.03858
