;FLAVOR:RepRap
;TIME:3522
;Filament used: 19.0984m
;Layer height: 0.4
;MINX:30.719
;MINY:20.84
;MINZ:0.2
;MAXX:239.281
;MAXY:269.16
;MAXZ:6.2
;TARGET_MACHINE.NAME:Unknown
;Exported with Cura-DuetRRF v1.2.9 plugin by Thomas Kriechbaumer
;LINEARADVANCEPROCESSED
;Generated with Cura_SteamEngine 5.5.0
T0
M104 S215
M109 S215
M82 ;absolute extrusion mode

M83 ;relative extrusion mode
G1 F2700 E-0.4
;LAYER_COUNT:16
M572 S0.020000 D0 ;added by LinearAdvanceSettingPlugin
;LAYER:0
M107
M204 T5000
G1 F600 Z0.4
G0 F12000 X43.241 Y50.588 Z0.4
M204 P6000
;TYPE:SKIRT
G1 F600 Z0.2
G1 F1500 E0.4
G1 F3000 X44.005 Y49.987 E0.07736
G1 X46.587 Y48.161 E0.25169
G1 X48.811 Y46.486 E0.22159
G1 X50.949 Y44.779 E0.21774
G1 X53.056 Y42.995 E0.21973
G1 X55.115 Y41.152 E0.21993
G1 X57.12 Y39.252 E0.21984
G1 X59.049 Y37.315 E0.21757
G1 X60.96 Y35.287 E0.22178
G1 X62.763 Y33.261 E0.21585
G1 X64.579 Y31.099 E0.22472
G1 X66.256 Y28.985 E0.21476
G1 X67.919 Y26.762 E0.22095
G1 X68.987 Y25.245 E0.14766
G1 X69.566 Y24.468 E0.07712
G1 X70.087 Y23.858 E0.06385
G1 X70.688 Y23.286 E0.06603
G1 X71.184 Y22.88 E0.05101
G1 X72.073 Y22.267 E0.08594
G1 X72.577 Y21.977 E0.04628
G1 X73.149 Y21.69 E0.05093
G1 X73.721 Y21.461 E0.04904
G1 X74.364 Y21.238 E0.05417
G1 X75.335 Y21.005 E0.07947
G1 X76.318 Y20.877 E0.0789
G1 X77.24 Y20.846 E0.07342
G1 X88.231 Y20.84 E0.87476
G1 X89.188 Y20.855 E0.07618
G1 X90.047 Y20.909 E0.0685
G1 X91.033 Y21.082 E0.07967
G1 X91.962 Y21.342 E0.07678
G1 X92.751 Y21.65 E0.06741
G1 X95.461 Y22.895 E0.23736
G1 X98.002 Y23.98 E0.2199
G1 X100.59 Y24.998 E0.22134
G1 X103.164 Y25.928 E0.21782
G1 X105.791 Y26.794 E0.22015
G1 X108.429 Y27.582 E0.21912
G1 X111.067 Y28.289 E0.21736
G1 X113.76 Y28.93 E0.22032
G1 X116.488 Y29.497 E0.22176
G1 X119.204 Y29.984 E0.21961
G1 X121.89 Y30.386 E0.21616
G1 X124.665 Y30.722 E0.22247
G1 X127.371 Y30.972 E0.21628
G1 X130.162 Y31.151 E0.22259
G1 X132.881 Y31.248 E0.21654
G1 X135.673 Y31.269 E0.22222
G1 X138.391 Y31.212 E0.21637
G1 X141.152 Y31.075 E0.22002
G1 X143.928 Y30.861 E0.22159
G1 X146.677 Y30.569 E0.22002
G1 X149.369 Y30.206 E0.21619
G1 X152.093 Y29.759 E0.2197
G1 X154.84 Y29.229 E0.22266
G1 X157.506 Y28.637 E0.21735
G1 X160.168 Y27.966 E0.21849
G1 X162.827 Y27.213 E0.21995
G1 X165.468 Y26.385 E0.22028
G1 X168.08 Y25.484 E0.21991
G1 X170.655 Y24.514 E0.219
G1 X173.196 Y23.474 E0.21852
G1 X176.321 Y22.078 E0.2724
G1 X177.273 Y21.639 E0.08344
G1 X178.228 Y21.271 E0.08146
G1 X179.335 Y21.005 E0.09061
G1 X180.318 Y20.877 E0.0789
G1 X181.24 Y20.846 E0.07342
G1 X192.231 Y20.84 E0.87476
G1 X193.313 Y20.86 E0.08613
G1 X194.036 Y20.911 E0.05769
G1 X195.028 Y21.08 E0.08009
G1 X195.964 Y21.343 E0.07738
G1 X196.867 Y21.694 E0.07711
G1 X197.667 Y22.1 E0.0714
G1 X198.525 Y22.65 E0.08111
G1 X199.257 Y23.23 E0.07433
G1 X199.74 Y23.696 E0.05342
G1 X200.174 Y24.148 E0.04987
G1 X200.691 Y24.802 E0.06635
G1 X201.452 Y25.875 E0.1047
G1 X203.118 Y28.152 E0.22455
G1 X204.769 Y30.279 E0.2143
G1 X206.536 Y32.428 E0.22143
G1 X208.36 Y34.52 E0.2209
G1 X210.235 Y36.556 E0.22029
G1 X212.136 Y38.505 E0.21669
G1 X214.13 Y40.436 E0.22092
G1 X216.163 Y42.297 E0.21936
G1 X218.236 Y44.088 E0.21804
G1 X220.398 Y45.853 E0.22213
G1 X222.563 Y47.52 E0.21747
G1 X224.827 Y49.164 E0.22268
G1 X225.722 Y49.789 E0.08688
G1 X226.644 Y50.501 E0.09271
G1 X227.074 Y50.887 E0.04599
G1 X227.615 Y51.437 E0.0614
G1 X228.261 Y52.268 E0.08377
G1 X228.622 Y52.823 E0.05269
G1 X228.882 Y53.277 E0.04164
G1 X229.248 Y53.997 E0.06428
G1 X229.622 Y55.044 E0.08849
G1 X229.857 Y56.008 E0.07897
G1 X238.97 Y100.526 E3.61661
G1 X239.137 Y101.403 E0.07105
G1 X239.226 Y102.041 E0.05127
G1 X239.276 Y102.688 E0.05165
G1 X239.281 Y103.341 E0.05197
G1 X239.256 Y104.065 E0.05766
G1 X237.225 Y135.436 E2.50201
G1 X237.076 Y137.333 E0.15145
G1 X236.894 Y140.155 E0.22507
G1 X236.797 Y142.86 E0.21543
G1 X236.775 Y145.668 E0.22349
G1 X236.831 Y148.373 E0.21533
G1 X236.965 Y151.127 E0.21945
G1 X237.096 Y152.727 E0.12777
G1 X237.095 Y152.825 E0.0078
G1 X237.216 Y154.432 E0.12826
G1 X239.233 Y185.602 E2.48597
G1 X239.28 Y186.516 E0.07284
G1 X239.281 Y187.121 E0.04815
G1 X239.241 Y187.81 E0.05493
G1 X239.152 Y188.494 E0.0549
G1 X239.057 Y189.046 E0.04458
G1 X229.974 Y233.454 E3.60755
G1 X229.797 Y234.261 E0.06575
G1 X229.532 Y235.24 E0.08072
G1 X229.215 Y236.041 E0.06856
G1 X228.816 Y236.854 E0.07208
G1 X228.325 Y237.626 E0.07282
G1 X227.963 Y238.133 E0.04958
G1 X227.352 Y238.843 E0.07455
G1 X226.64 Y239.517 E0.07803
G1 X225.997 Y240.012 E0.06458
G1 X223.398 Y241.851 E0.2534
G1 X221.189 Y243.514 E0.22006
G1 X219.051 Y245.221 E0.21774
G1 X216.949 Y247 E0.21917
G1 X214.885 Y248.848 E0.22049
G1 X212.88 Y250.748 E0.21984
G1 X210.951 Y252.685 E0.21757
G1 X209.04 Y254.713 E0.22178
G1 X207.24 Y256.736 E0.21552
G1 X205.421 Y258.901 E0.22505
G1 X203.751 Y261.006 E0.21385
G1 X202.081 Y263.238 E0.22186
G1 X201.013 Y264.755 E0.14766
G1 X200.434 Y265.532 E0.07712
G1 X200.032 Y266.004 E0.04934
G1 X199.424 Y266.613 E0.06849
G1 X198.772 Y267.158 E0.06763
G1 X197.927 Y267.734 E0.08139
G1 X197.423 Y268.023 E0.04624
G1 X196.851 Y268.31 E0.05093
G1 X196.279 Y268.539 E0.04904
G1 X195.634 Y268.762 E0.05432
G1 X194.676 Y268.991 E0.07839
G1 X193.684 Y269.123 E0.07965
G1 X192.76 Y269.154 E0.07358
G1 X181.769 Y269.16 E0.87476
G1 X180.687 Y269.14 E0.08613
G1 X179.964 Y269.089 E0.05769
G1 X178.972 Y268.92 E0.08009
G1 X178.033 Y268.656 E0.07763
G1 X177.249 Y268.35 E0.06698
G1 X174.539 Y267.105 E0.23736
G1 X171.998 Y266.02 E0.2199
G1 X169.41 Y265.002 E0.22134
G1 X166.836 Y264.072 E0.21782
G1 X164.209 Y263.206 E0.22015
G1 X161.571 Y262.418 E0.21912
G1 X158.933 Y261.711 E0.21736
G1 X156.24 Y261.07 E0.22032
G1 X153.512 Y260.503 E0.22176
G1 X150.796 Y260.016 E0.21961
G1 X148.11 Y259.614 E0.21616
G1 X145.335 Y259.278 E0.22247
G1 X142.629 Y259.028 E0.21628
G1 X139.838 Y258.849 E0.22259
G1 X137.119 Y258.752 E0.21654
G1 X134.327 Y258.731 E0.22222
G1 X131.609 Y258.788 E0.21637
G1 X128.848 Y258.925 E0.22002
G1 X126.072 Y259.139 E0.22159
G1 X123.323 Y259.431 E0.22002
G1 X120.631 Y259.794 E0.21619
G1 X117.907 Y260.241 E0.2197
G1 X115.16 Y260.771 E0.22266
G1 X112.494 Y261.363 E0.21735
G1 X109.832 Y262.034 E0.21849
G1 X107.173 Y262.787 E0.21995
G1 X104.532 Y263.615 E0.22028
G1 X101.92 Y264.516 E0.21991
G1 X99.345 Y265.486 E0.219
G1 X96.804 Y266.526 E0.21852
G1 X93.679 Y267.922 E0.2724
G1 X92.724 Y268.362 E0.08369
G1 X91.76 Y268.732 E0.08218
G1 X90.676 Y268.992 E0.08872
G1 X89.684 Y269.123 E0.07964
G1 X88.76 Y269.154 E0.07358
G1 X77.769 Y269.16 E0.87476
G1 X76.687 Y269.14 E0.08613
G1 X75.964 Y269.089 E0.05769
G1 X74.972 Y268.92 E0.08009
G1 X74.036 Y268.657 E0.07738
G1 X73.133 Y268.306 E0.07711
G1 X72.328 Y267.897 E0.07186
G1 X71.48 Y267.354 E0.08014
G1 X70.717 Y266.748 E0.07755
G1 X70.051 Y266.09 E0.07451
G1 X69.706 Y265.7 E0.04144
G1 X69.308 Y265.196 E0.05111
G1 X68.548 Y264.125 E0.10452
G1 X66.895 Y261.865 E0.22285
G1 X65.211 Y259.697 E0.21849
G1 X63.464 Y257.572 E0.21894
G1 X61.64 Y255.48 E0.2209
G1 X59.765 Y253.444 E0.22029
G1 X57.864 Y251.495 E0.21669
G1 X55.87 Y249.564 E0.22092
G1 X53.836 Y247.702 E0.21947
G1 X51.743 Y245.894 E0.22012
G1 X49.627 Y244.166 E0.21743
G1 X47.433 Y242.477 E0.22037
G1 X45.169 Y240.833 E0.22268
G1 X44.287 Y240.217 E0.08562
G1 X43.331 Y239.478 E0.09617
G1 X42.927 Y239.113 E0.04333
G1 X42.471 Y238.65 E0.05172
G1 X41.795 Y237.828 E0.0847
G1 X41.213 Y236.912 E0.08637
G1 X40.742 Y235.981 E0.08304
G1 X40.356 Y234.876 E0.09316
G1 X40.143 Y233.992 E0.07237
G1 X31.03 Y189.473 E3.61669
G1 X30.863 Y188.595 E0.07113
G1 X30.774 Y187.959 E0.05111
G1 X30.724 Y187.313 E0.05157
G1 X30.719 Y186.659 E0.05205
G1 X30.744 Y185.935 E0.05766
G1 X32.775 Y154.564 E2.50201
G1 X32.924 Y152.667 E0.15145
G1 X33.106 Y149.845 E0.22507
G1 X33.203 Y147.14 E0.21543
G1 X33.225 Y144.332 E0.22349
G1 X33.169 Y141.627 E0.21533
G1 X33.035 Y138.873 E0.21945
G1 X32.904 Y137.273 E0.12777
G1 X32.905 Y137.171 E0.00812
G1 X32.784 Y135.568 E0.12794
G1 X30.766 Y104.39 E2.48661
G1 X30.72 Y103.482 E0.07236
G1 X30.719 Y102.879 E0.04799
G1 X30.759 Y102.19 E0.05493
G1 X30.848 Y101.506 E0.0549
G1 X30.943 Y100.954 E0.04458
G1 X40.034 Y56.512 E3.61033
G1 X40.231 Y55.618 E0.07286
G1 X40.47 Y54.759 E0.07096
G1 X40.799 Y53.91 E0.07247
G1 X41.192 Y53.133 E0.0693
G1 X41.921 Y52.003 E0.10703
G1 X42.638 Y51.169 E0.08753
G1 X43.241 Y50.588 E0.06664
G1 F2700 E-0.4
G1 F600 Z0.4
;MESH:cap.3mf(1)
G0 F12000 X63.367 Y64.566 Z0.4
;TYPE:WALL-INNER
G1 F600 Z0.2
G1 F1500 E0.4
G1 F3065.1 X62.929 Y64.957 E0.02744
G1 X62.568 Y65.109 E0.01831
G1 F2864.3 X62.98 Y65.601 E0.0321
G1 F2350.8 X63.226 Y66.215 E0.04031
G1 F2269.5 X63.296 Y65.719 E0.03162
G1 F2744.4 X63.367 Y65.223 E0.02616
G1 F3065.1 X63.367 Y64.566 E0.03071
G0 F12000 X63.376 Y64.745
G0 X63.006 Y67.599
G0 X60.416 Y68.101
G0 X60.421 Y70.624
G0 X57.579 Y71.159
G0 X57.058 Y62.273
G0 X57.07 Y62.301
G1 F1800 X57.262 Y62.071 E0.02385
G1 X57.507 Y61.875 E0.02497
G1 X57.91 Y61.673 E0.03588
G1 X58.315 Y61.581 E0.03305
G1 X62.444 Y61.581 E0.32862
G1 X62.834 Y61.688 E0.03219
G1 X63.27 Y61.952 E0.04057
G1 X63.497 Y62.242 E0.02931
G1 X63.734 Y61.962 E0.0292
G1 X64.22 Y61.688 E0.0444
G1 X64.609 Y61.581 E0.03211
G1 X67.404 Y61.58 E0.22245
G1 X67.832 Y61.665 E0.03473
G1 X69.399 Y62.408 E0.13802
G1 X69.702 Y62.637 E0.03023
G1 X69.919 Y62.89 E0.02653
G1 X70.603 Y64.154 E0.11439
G1 X70.788 Y64.884 E0.05994
G1 F1837.8 X70.769 Y65.609 E0.05653
G1 F1997.8 X70.599 Y66.166 E0.04176
G1 F2137.4 X70.092 Y67.364 E0.08719
G1 F2134.9 X69.843 Y67.626 E0.02425
G1 F2129.9 X70.49 Y68.512 E0.07379
G1 F2152.4 X70.942 Y67.526 E0.07219
G1 F2154.9 X71.388 Y66.505 E0.07407
G1 F1997.8 X71.641 Y65.795 E0.05405
G1 F1837.8 X71.918 Y65.125 E0.05651
G1 F1800 X73.072 Y62.544 E0.22502
G1 X73.347 Y62.128 E0.03969
G1 X73.564 Y61.935 E0.02311
G1 X73.899 Y61.73 E0.03126
G1 X74.386 Y61.578 E0.0406
G1 X75.162 Y61.588 E0.06177
G1 X75.524 Y61.67 E0.02954
G1 X76.073 Y61.989 E0.05053
G1 X76.42 Y62.374 E0.04125
G1 X78.153 Y66.253 E0.33813
G1 F2093.5 X78.31 Y66.954 E0.04916
G1 F2900.5 X78.39 Y67.379 E0.02136
G1 F3503.8 X78.469 Y67.581 E0.00887
G1 F3014.8 X79.044 Y68.417 E0.04822
G1 X78.954 Y67.407 E0.04818
G1 F2937.6 X78.74 Y66.862 E0.02855
G1 F2093.5 X78.593 Y66.159 E0.04915
G1 F1800 X78.646 Y65.744 E0.0333
G1 X78.941 Y64.675 E0.08826
G1 X79.169 Y64.194 E0.04237
G1 X80.005 Y63.025 E0.11438
G1 X80.225 Y62.801 E0.02499
G1 X81.636 Y61.869 E0.13459
G1 X83.023 Y61.487 E0.1145
G1 X84.268 Y61.487 E0.09909
G1 X84.622 Y61.566 E0.02887
G1 X86.347 Y62.329 E0.15012
G1 X86.628 Y62.531 E0.02754
G1 X86.878 Y62.139 E0.037
G1 X87.328 Y61.795 E0.04508
G1 X87.625 Y61.661 E0.02593
G1 X87.946 Y61.581 E0.02633
G1 X92.513 Y61.581 E0.36348
G1 X92.871 Y61.623 E0.02869
G1 X93.366 Y61.839 E0.04298
G1 X93.736 Y62.189 E0.04054
G1 X93.95 Y62.562 E0.03423
G1 X94.093 Y63.21 E0.05281
G1 F1751.9 X94.132 Y64.143 E0.07636
G1 F1661.5 X93.881 Y64.704 E0.05299
G1 F1646.6 X93.715 Y64.883 E0.02124
G1 F1735.3 X93.253 Y65.181 E0.04539
G1 F1800 X92.945 Y65.318 E0.02683
G1 X92.464 Y65.394 E0.03876
G1 X92.211 Y65.394 E0.02014
G1 F1823.2 X92.199 Y69.041 E0.28656
G1 F1867.8 X92.143 Y70.157 E0.08571
G1 F1856.4 X92.01 Y70.562 E0.0329
G1 F1763.7 X91.805 Y70.875 E0.03039
G1 F1660 X91.298 Y71.283 E0.05616
G1 F1416.7 X90.864 Y71.61 E0.05495
G1 F1263.6 X89.95 Y71.61 E0.10362
G1 F1238.9 X89.38 Y71.551 E0.06627
G1 F1399.4 X89.014 Y71.133 E0.05688
G1 F1725.6 X88.626 Y70.635 E0.05241
G1 F1800 X88.433 Y70.204 E0.03758
G1 X88.375 Y69.884 E0.02588
G1 X88.37 Y65.394 E0.35735
G1 X88.068 Y65.394 E0.02404
G1 X87.579 Y65.314 E0.03944
G1 X87.408 Y65.245 E0.01468
G1 X86.976 Y64.934 E0.04237
G1 X86.441 Y65.552 E0.06506
G1 X86.212 Y65.72 E0.0226
G1 F1789.5 X85.896 Y65.878 E0.02828
G1 F1762 X85.509 Y65.968 E0.0323
G1 F1745.2 X85.24 Y65.964 E0.02208
G1 F1768.8 X84.616 Y65.77 E0.05293
G1 F1798.2 X84.376 Y65.621 E0.02251
G1 F1800 X83.667 Y65.311 E0.06159
G1 X83.25 Y65.394 E0.03384
G1 X82.844 Y65.659 E0.03859
G1 X82.557 Y66.062 E0.03938
G1 X82.454 Y66.545 E0.03931
G1 X82.557 Y66.914 E0.03049
G1 X82.843 Y67.317 E0.03933
G1 X83.249 Y67.581 E0.03854
G1 X83.697 Y67.668 E0.03632
G1 X84.376 Y67.363 E0.05924
G1 F1798.2 X84.633 Y67.194 E0.0245
G1 F1780.8 X84.937 Y67.067 E0.0265
G1 F1755.3 X85.225 Y67.013 E0.02392
G1 F1745.2 X85.494 Y67.015 E0.02208
G1 F1762 X85.878 Y67.117 E0.0323
G1 F1789.5 X86.228 Y67.281 E0.03094
G1 F1800 X86.469 Y67.453 E0.02356
G1 X86.97 Y67.993 E0.05863
G1 X87.258 Y68.442 E0.04245
G1 X87.356 Y68.77 E0.02725
G1 F1798.2 X87.356 Y69.298 E0.04206
G1 F1800 X87.226 Y69.708 E0.03423
G1 X87.074 Y69.996 E0.02592
G1 X86.855 Y70.253 E0.02687
G1 X86.494 Y70.554 E0.03741
G1 X85.344 Y71.164 E0.10361
G1 X85.101 Y71.237 E0.02019
G1 F1679.8 X84.614 Y71.456 E0.04554
G1 F1481.8 X84.127 Y71.675 E0.05162
G1 F1353 X83.252 Y71.679 E0.09265
G1 F1289.3 X82.792 Y71.64 E0.0513
G1 F1425.5 X82.114 Y71.292 E0.07659
G1 F1707.9 X81.566 Y71.057 E0.05001
G1 F1800 X80.207 Y70.172 E0.12907
G1 X79.945 Y69.873 E0.03164
G1 F1841.5 X79.514 Y69.225 E0.06054
G1 F1949 X79.194 Y68.72 E0.04394
G1 X79.468 Y69.251 E0.04392
G1 F1841.5 X79.62 Y69.966 E0.05687
G1 F1800 X79.566 Y70.28 E0.02536
G1 X79.477 Y70.519 E0.0203
G1 X79.182 Y70.94 E0.04091
G1 F1666.1 X78.728 Y71.348 E0.05249
G1 F1386.7 X78.362 Y71.597 E0.04573
G1 F1255 X78.092 Y71.617 E0.03091
G1 F1420 X77.324 Y71.447 E0.07936
G1 F1672.1 X76.726 Y71.286 E0.05306
G1 F1755.3 X76.173 Y70.914 E0.0544
G1 F1800 X75.888 Y70.554 E0.03654
G1 X75.522 Y69.728 E0.0719
G1 X74.048 Y69.728 E0.11731
G1 X73.682 Y70.554 E0.0719
G1 X73.366 Y70.942 E0.03983
G1 X72.837 Y71.279 E0.04992
G1 F1720.7 X72.246 Y71.443 E0.05106
G1 F1423.3 X71.503 Y71.619 E0.07686
G1 F1219.9 X70.791 Y71.523 E0.08437
G1 F1188.3 X70.496 Y71.365 E0.04034
G1 X70.201 Y71.523 E0.04034
G1 F1205.5 X69.691 Y71.627 E0.06185
G1 F1356 X69.155 Y71.489 E0.05848
G1 F1582.8 X68.331 Y71.326 E0.07603
G1 F1722.3 X67.902 Y71.094 E0.04057
G1 F1800 X67.517 Y70.721 E0.04266
G1 X66.957 Y69.942 E0.07636
G1 X66.704 Y70.719 E0.06504
G1 X66.49 Y70.955 E0.02536
G1 X66.059 Y71.233 E0.04082
G1 F1593.8 X65.708 Y71.494 E0.03932
G1 F1363 X65.498 Y71.586 E0.0241
G1 F1303.1 X64.535 Y71.587 E0.10587
G1 F1435.5 X64.244 Y71.439 E0.03258
G1 F1693.7 X63.685 Y70.98 E0.06118
G1 F1800 X63.429 Y70.662 E0.03249
G1 X63.205 Y70.154 E0.04419
G1 X63.162 Y69.914 E0.01941
G1 X63.156 Y68.56 E0.10776
G1 F1839.7 X63.178 Y67.661 E0.07003
G1 F1955.3 X63.215 Y67.017 E0.04726
G1 X63.014 Y67.611 E0.04595
G1 F1839.7 X62.422 Y68.16 E0.06287
G1 F1800 X61.8 Y68.338 E0.05149
G1 X60.658 Y68.343 E0.09089
G1 X60.654 Y69.936 E0.12679
G1 X60.616 Y70.176 E0.01934
G1 X60.422 Y70.635 E0.03966
G1 X60.246 Y70.861 E0.0228
G1 X59.959 Y71.102 E0.02983
G1 F1633.5 X59.434 Y71.45 E0.05524
G1 F1367.1 X59.103 Y71.614 E0.03871
G1 F1261 X58.238 Y71.606 E0.09828
G1 F1394.1 X57.856 Y71.387 E0.04525
G1 F1610.5 X57.263 Y70.931 E0.06654
G1 F1732.1 X56.971 Y70.457 E0.04605
G1 F1800 X56.869 Y70.201 E0.02193
G1 X56.808 Y69.836 E0.02945
G1 X56.807 Y63.117 E0.53476
G1 X56.837 Y62.854 E0.02107
G1 X56.929 Y62.56 E0.02452
G1 X57.07 Y62.301 E0.02347
G0 F12000 X57.058 Y62.273
G0 X57.039 Y70.067
G0 X59.329 Y71.164
G0 X60.416 Y68.101
G0 X63.006 Y67.599
G0 X63.226 Y66.215
G1 F2086.4 X63.226 Y66.763 E0.03763
G1 F2060.6 X63.215 Y67.017 E0.01768
G0 F12000 X64.99 Y71.428
G0 X67.109 Y70.006
G0 X71.006 Y71.217
G0 X69.963 Y73.375
G0 X68.573 Y76.486
G0 X64.732 Y76.832
G0 X64.732 Y76.835
G1 F2542.9 X64.384 Y76.964 E0.02091
G1 F2309.4 X63.971 Y77.277 E0.03215
G1 F2117.6 X63.696 Y77.727 E0.03568
G1 F1989.2 X63.608 Y78.249 E0.03812
G0 F12000 X65.011 Y76.27
G0 X68.573 Y76.486
G0 X67.791 Y73.881
G0 X65.677 Y72.95
G0 X60.61 Y74.497
G0 X57.771 Y73.05
G0 X55.186 Y73.451
G0 X46.607 Y73.339
G1 F1800 X46.909 Y73.273 E0.0246
G1 X50.943 Y73.273 E0.32106
G1 X51.381 Y73.374 E0.03577
G1 X51.83 Y73.642 E0.04162
G1 F1951.1 X52.141 Y74.175 E0.04531
G1 X52.471 Y73.654 E0.04528
G1 F1800 X52.973 Y73.374 E0.04575
G1 X53.454 Y73.274 E0.0391
G1 X54.121 Y73.271 E0.05309
G1 X54.502 Y73.369 E0.03131
G1 X54.854 Y73.542 E0.03122
G1 X55.16 Y73.78 E0.03085
G1 X56.547 Y75.59 E0.18149
G1 X56.547 Y74.853 E0.05866
G1 X56.643 Y74.316 E0.04342
G1 X56.867 Y73.915 E0.03656
